zahirmahammad/RLHF-gello_software/csv/output.csv
shoulder_pan_angle,shoulder_lift_angle,elbow_angle,wrist1_angle,wrist2_angle,wrist3_angle
1.6485120058059692,-1.634130140344137,-1.6632037162780762,-1.5353830245188256,1.6199060678482056,-0.04317361513246709
1.6488595008850098,-1.6342607937254847,-1.6626230478286743,-1.5353907097927113,1.6198722124099731,-0.04314929643739873
1.6491833925247192,-1.6343499622740687,-1.6620800495147705,-1.5354431432536622,1.6199910640716553,-0.04306155840028936
1.649389386177063,-1.6344715557494105,-1.6616435050964355,-1.5354522702148934,1.619982361793518,-0.04302102724184209
1.6496047973632812,-1.6346098385252894,-1.6612147092819214,-1.5354834359935303,1.6200056076049805,-0.043049160634176076
1.6497037410736084,-1.6346799335875453,-1.6607511043548584,-1.5354986053756257,1.6200133562088013,-0.04301292101015264
1.649845004081726,-1.6347500286498011,-1.6603405475616455,-1.5354913038066407,1.6200618743896484,-0.043001953755513966
1.6499722003936768,-1.6348921261229457,-1.6599204540252686,-1.5354960237494488,1.6200380325317383,-0.04293519655336553
1.6500754356384277,-1.634946962396139,-1.6596953868865967,-1.535515171741583,1.6201181411743164,-0.043015305195943654
1.6502212285995483,-1.6350375614561976,-1.659563422203064,-1.5354987245849152,1.620161533355713,-0.042981926594869435
1.650225281715393,-1.635106702844137,-1.659407615661621,-1.535524183218815,1.6201367378234863,-0.04298383394350225
1.6503677368164062,-1.635094781915182,-1.6592035293579102,-1.5354941871813317,1.6201163530349731,-0.04297000566591436
1.6504744291305542,-1.635099550286764,-1.6590638160705566,-1.5354822923294087,1.6201657056808472,-0.04302102724184209
1.6504323482513428,-1.6350900135436,-1.658915400505066,-1.5355032172850152,1.6201128959655762,-0.04293710390199834
1.650418758392334,-1.6351186237730921,-1.6588358879089355,-1.5355224807611485,1.6201221942901611,-0.04294425645937139
1.6504534482955933,-1.635110994378561,-1.6589372158050537,-1.5355016079596062,1.6200822591781616,-0.0429609457599085
1.6504169702529907,-1.6351305447020472,-1.6589198112487793,-1.5355196271887799,1.6200382709503174,-0.04297191301454717
1.6504921913146973,-1.6351472340025843,-1.6590443849563599,-1.535531536941864,1.619997501373291,-0.043001953755513966
1.650502324104309,-1.6351386509337367,-1.6591557264328003,-1.5354942840388794,1.619985580444336,-0.04302102724184209
1.6506197452545166,-1.635141511956686,-1.6595765352249146,-1.5355151531151314,1.6199617385864258,-0.04304963747133428
1.6513797044754028,-1.6351891956725062,-1.6603447198867798,-1.5355151270380993,1.6200172901153564,-0.04308206239809209
1.6519240140914917,-1.6353985271849574,-1.6607812643051147,-1.5354897950640698,1.6199259757995605,-0.043090168629781544
1.6526985168457031,-1.6355139217772425,-1.6611682176589966,-1.535557099883892,1.6199617385864258,-0.043056790028707326
1.6534688472747803,-1.6354977093138636,-1.6614036560058594,-1.5355225440910836,1.6200584173202515,-0.043007675801412404
1.6546353101730347,-1.6355558834471644,-1.661691665649414,-1.5355003748885174,1.6201850175857544,-0.04280549684633428
1.6558163166046143,-1.6354824505248011,-1.6619001626968384,-1.5353819255581875,1.6204289197921753,-0.042651001607076466
1.6569496393203735,-1.6352225742735804,-1.6620067358016968,-1.5352989000133057,1.6205554008483887,-0.042586628590719044
1.6578965187072754,-1.6348830662169398,-1.662079095840454,-1.5351759877851983,1.6208362579345703,-0.042599026356832326
1.6587703227996826,-1.6343909702696742,-1.6622076034545898,-1.534998969440796,1.6211247444152832,-0.04281932512392217
1.659683346748352,-1.6338802776732386,-1.662283182144165,-1.5348308657160779,1.6214159727096558,-0.04313880601991826
1.6606143712997437,-1.633324762383932,-1.6623908281326294,-1.5347154413214703,1.6218302249908447,-0.0436018149005335
1.6622329950332642,-1.6327597103514613,-1.6627248525619507,-1.5345595118454476,1.622292160987854,-0.044010464345113576
1.6638821363449097,-1.6322523556151332,-1.6630040407180786,-1.534458951359131,1.6226123571395874,-0.04429322877992803
1.6666878461837769,-1.63177551845693,-1.663434624671936,-1.5343836744180699,1.6230711936950684,-0.04466277757753545
1.6704354286193848,-1.6312281093993128,-1.663996696472168,-1.5342996393195172,1.6235220432281494,-0.044905964528219044
1.6744736433029175,-1.630824705163473,-1.6644917726516724,-1.5342188638499756,1.6238796710968018,-0.04510480562318975
1.6820170879364014,-1.6302606068053187,-1.6654441356658936,-1.5341719847968598,1.6244980096817017,-0.04525882402528936
1.68670654296875,-1.630118032495016,-1.6659239530563354,-1.5341139932027836,1.624799370765686,-0.04539043108095342
1.6904501914978027,-1.6300226650633753,-1.6663684844970703,-1.5340657208910962,1.624933123588562,-0.045415703450338185
1.6957889795303345,-1.6296950779356898,-1.6670565605163574,-1.5340464276126404,1.6250245571136475,-0.04555684724916631
1.7010630369186401,-1.6293508015074671,-1.6677721738815308,-1.534059566711523,1.6250364780426025,-0.04565412202943975
1.7042256593704224,-1.6292797527708949,-1.6681188344955444,-1.534010426407196,1.625075101852417,-0.045756165181295216
1.7079675197601318,-1.629012247125143,-1.6685150861740112,-1.5340266984752198,1.6250661611557007,-0.046148125325338185
1.7109973430633545,-1.6287528477110804,-1.6688100099563599,-1.5339983154884358,1.6250897645950317,-0.046538654957906544
1.7145471572875977,-1.6284362278380335,-1.6692509651184082,-1.5339983266643067,1.6252559423446655,-0.04723960558046514
1.7186553478240967,-1.6278311214842738,-1.6698797941207886,-1.5340028566173096,1.6253564357757568,-0.048214260731832326
1.7242628335952759,-1.6265021763243617,-1.6709994077682495,-1.5340238374522706,1.6254013776779175,-0.049629036580221
1.729757308959961,-1.624922891656393,-1.672303318977356,-1.5340120320073147,1.6256166696548462,-0.05104381242860967
1.7338813543319702,-1.623653074304098,-1.6734132766723633,-1.5340238374522706,1.6256344318389893,-0.05198556581606084
1.739922046661377,-1.6219574413695277,-1.6749522686004639,-1.5339864169112225,1.6256476640701294,-0.053280178700582326
1.7433303594589233,-1.6210376224913539,-1.6758205890655518,-1.5339459528080006,1.6257297992706299,-0.05388480821718389
1.749801754951477,-1.6193558178343714,-1.677583932876587,-1.5339983490160485,1.6257027387619019,-0.05482370058168584
1.755176067352295,-1.617958208123678,-1.6792222261428833,-1.5338826675764103,1.6257059574127197,-0.055367294942037404
1.7641915082931519,-1.615920206109518,-1.682368516921997,-1.5333831843784829,1.6254647970199585,-0.056281391774312794
1.7699096202850342,-1.6147095165648402,-1.6846035718917847,-1.5328823377243062,1.6253875494003296,-0.05671292940248662
1.7739595174789429,-1.6139699421324671,-1.686196208000183,-1.5323214654675503,1.6252185106277466,-0.056979004536763966
1.7795071601867676,-1.6129971943297328,-1.6884207725524902,-1.5315021325698872,1.625119924545288,-0.0574267546283167
1.7865655422210693,-1.6118923626341761,-1.691051721572876,-1.530417614882328,1.6249197721481323,-0.05791169801820928
1.7898837327957153,-1.6113516292967738,-1.6921391487121582,-1.5298971098712464,1.6249048709869385,-0.0580828825580042
1.79550039768219,-1.6104871235289515,-1.6937062740325928,-1.5292771731368084,1.6248490810394287,-0.05827314058412725
1.8031741380691528,-1.6093675098814906,-1.6951416730880737,-1.5285445724478741,1.6247962713241577,-0.05837613741029912
1.808109998703003,-1.608595987359518,-1.695923089981079,-1.5281800416162987,1.6248685121536255,-0.058379475270406544
1.8148897886276245,-1.6075598202147425,-1.696694254875183,-1.5279145699790497,1.6249433755874634,-0.05846101442445928
1.821786880493164,-1.6065226993956507,-1.6971840858459473,-1.527780820881464,1.6250990629196167,-0.05844480196108037
1.8291219472885132,-1.6054579220213832,-1.6975831985473633,-1.5277014535716553,1.6252752542495728,-0.05835849443544561
1.8361363410949707,-1.6045495472350062,-1.6977771520614624,-1.5276068460992356,1.6254327297210693,-0.058355156575338185
1.8427830934524536,-1.6036864719786585,-1.6978371143341064,-1.5276458536139508,1.6255102157592773,-0.05824453035463506
1.850020170211792,-1.602978845635885,-1.697823405265808,-1.527666800921299,1.6256314516067505,-0.05798560777773076
1.8571445941925049,-1.6023789844908656,-1.6978802680969238,-1.5276368793896218,1.6257133483886719,-0.05788165727724248
1.8641078472137451,-1.6018668613829554,-1.6979210376739502,-1.5276713234237214,1.6257563829421997,-0.057697598134176076
1.870854139328003,-1.6014915905394496,-1.6979477405548096,-1.5276487071863194,1.6258537769317627,-0.05750018755067998
1.8800007104873657,-1.6010452709593714,-1.6979674100875854,-1.5277059350958844,1.6258856058120728,-0.057383362446920216
1.8860796689987183,-1.600905557672018,-1.6981072425842285,-1.5277255338481446,1.6258926391601562,-0.05721027055849248
1.8918037414550781,-1.600823541680807,-1.6981581449508667,-1.527753860955574,1.6259208917617798,-0.057174030934469044
1.899019718170166,-1.6007396183409632,-1.6981399059295654,-1.5277824600091954,1.6259491443634033,-0.05703574815859014
1.9062168598175049,-1.6004616222777308,-1.6981945037841797,-1.5277898584357281,1.6259735822677612,-0.05679494539369756
1.9136414527893066,-1.6000501118102015,-1.6981065273284912,-1.5277975362590333,1.6259515285491943,-0.056542221699849904
1.9210838079452515,-1.5994283161559046,-1.6981065273284912,-1.527865045969822,1.625988483428955,-0.056223694478170216
1.9284424781799316,-1.5986596546568812,-1.6981017589569092,-1.5280135434916993,1.6260724067687988,-0.055904690419332326
1.9354727268218994,-1.5979272327818812,-1.6981819868087769,-1.5282056716135521,1.626242995262146,-0.055549446736471
1.9421366453170776,-1.5971538029112757,-1.6981275081634521,-1.5283616346171875,1.626369595527649,-0.055082146321431935
1.9480822086334229,-1.5964256725706996,-1.6981366872787476,-1.5285297383419056,1.626595377922058,-0.054615322743551076
1.9531515836715698,-1.5957261524596156,-1.698000431060791,-1.5286946345916768,1.62684965133667,-0.0541766325580042
1.9573581218719482,-1.5951014957823695,-1.6978518962860107,-1.5288013269058247,1.6271796226501465,-0.05377561250795537
1.960817575454712,-1.594494958917135,-1.6976550817489624,-1.5290307638100167,1.6278983354568481,-0.053443733845846
1.9636093378067017,-1.5940519771971644,-1.6976420879364014,-1.5292663288167496,1.6292390823364258,-0.053225342427388966
1.9658582210540771,-1.593666215936178,-1.6975922584533691,-1.529522543107607,1.631128191947937,-0.05301362672914678
1.9676251411437988,-1.5933309994139613,-1.6976478099822998,-1.529727042918541,1.6334123611450195,-0.052805725728170216
1.9688897132873535,-1.5929185352721156,-1.6976550817489624,-1.5298846562257786,1.6358762979507446,-0.052691284810201466
1.969556450843811,-1.5924741230406703,-1.6978893280029297,-1.5301229444197197,1.6382229328155518,-0.05257112184633428
1.9696359634399414,-1.5920263729491175,-1.6981998682022095,-1.530269944374897,1.6402846574783325,-0.052511040364400685
1.969068169593811,-1.5915051899352015,-1.6986167430877686,-1.5303615194610138,1.6420018672943115,-0.05235749879945928
1.9678887128829956,-1.5909487209715785,-1.699036955833435,-1.5304651384106656,1.6434656381607056,-0.052375618611471
1.9660009145736694,-1.5904470882811488,-1.6992751359939575,-1.5306027469090004,1.644567608833313,-0.052311245595113576
1.9633530378341675,-1.5898915729918421,-1.699307918548584,-1.5306165416589756,1.6455554962158203,-0.05225068727602178
1.9598362445831299,-1.5894996128477992,-1.6990834474563599,-1.530697801416256,1.6465095281600952,-0.052244011555806935
1.9551445245742798,-1.5891968212523402,-1.6983972787857056,-1.530747053479292,1.6472537517547607,-0.05226022401918584
1.9499493837356567,-1.589163442651266,-1.697554588317871,-1.5307861131480713,1.6478135585784912,-0.05215341249574834
1.9441735744476318,-1.5891829929747523,-1.6964343786239624,-1.530757700358965,1.6482092142105103,-0.05223590532411748
1.9371484518051147,-1.589304586450094,-1.69509756565094,-1.5306990829161187,1.6485002040863037,-0.052228752766744435
1.9290542602539062,-1.589388986627096,-1.693715214729309,-1.5304499429515381,1.648667573928833,-0.05213958421816045
1.9196665287017822,-1.5895492039122523,-1.6922060251235962,-1.5301096600345154,1.6487798690795898,-0.0521472136126917
1.9076895713806152,-1.589696546594137,-1.6906174421310425,-1.529746515010931,1.6488037109375,-0.05223113695253545
1.8974287509918213,-1.58990540126943,-1.6894347667694092,-1.5294811365059395,1.6487798690795898,-0.05244332948793584
1.8848294019699097,-1.5902778110899867,-1.6883127689361572,-1.52916897580538,1.6486096382141113,-0.0529707113849085
1.853193998336792,-1.5909935436644496,-1.6860660314559937,-1.5286125887981434,1.6475682258605957,-0.05463105836977178
1.8417019844055176,-1.5912748775877894,-1.685509204864502,-1.5285253313234826,1.6469587087631226,-0.055247131978170216
1.829158902168274,-1.5918165645995082,-1.6851258277893066,-1.5283857148936768,1.6463103294372559,-0.055865112935201466
1.8115308284759521,-1.5926500759520472,-1.6849863529205322,-1.5282861676863213,1.645322561264038,-0.05654365221132451
1.798857569694519,-1.5932537517943324,-1.6852848529815674,-1.5280570288053532,1.6445910930633545,-0.05688840547670537
1.7867950201034546,-1.5938354931273402,-1.6858347654342651,-1.5277124729803582,1.6438651084899902,-0.05720264116396123
1.7756009101867676,-1.5945011578001917,-1.686538815498352,-1.5273161765984078,1.6433483362197876,-0.057368103657857716
1.7655086517333984,-1.5951272449889125,-1.6873183250427246,-1.5268340048244973,1.6428982019424438,-0.057531181965963185
1.7565659284591675,-1.5956460438170375,-1.6879210472106934,-1.526244593118765,1.6425575017929077,-0.057703797017232716
1.748957872390747,-1.5962277851500453,-1.6881569623947144,-1.5257362511805077,1.6424556970596313,-0.05788642564882451
1.7427420616149902,-1.5966550312437953,-1.687988519668579,-1.52526834354315,1.6423587799072266,-0.05791932741274053
1.7376046180725098,-1.5969921551146449,-1.6874487400054932,-1.5247357834926625,1.6423617601394653,-0.05798846880067998
1.7333816289901733,-1.5972725353636683,-1.6864633560180664,-1.5239568513682862,1.6423707008361816,-0.05792266527284795
1.729806900024414,-1.597410341302389,-1.6849229335784912,-1.5224062104574223,1.6423333883285522,-0.05782062212099248
1.7273601293563843,-1.597506662408346,-1.6832140684127808,-1.520326604401209,1.6424858570098877,-0.05768710771669561
1.7252589464187622,-1.597602983514303,-1.6810517311096191,-1.5170608435622235,1.6425608396530151,-0.05761129060854131
1.7234503030776978,-1.5977198086180628,-1.678302526473999,-1.5119159457138558,1.6426527500152588,-0.057375733052388966
1.7223979234695435,-1.5977994404234828,-1.67607843875885,-1.506909230058529,1.6428489685058594,-0.05727702776064092
1.7213338613510132,-1.5979320011534632,-1.6733499765396118,-1.4990332138589402,1.643200159072876,-0.057174030934469044
1.7204891443252563,-1.5981346569456996,-1.6703948974609375,-1.4890665796450158,1.6435825824737549,-0.05714589754213506
1.7200056314468384,-1.5982262096800746,-1.6681486368179321,-1.480113075380661,1.6438684463500977,-0.05701333681215459
1.7195688486099243,-1.5983263454832972,-1.6658806800842285,-1.4695463118008156,1.6442327499389648,-0.056965176259176076
1.719177007675171,-1.5983010731139125,-1.6634207963943481,-1.4563287210515519,1.6445231437683105,-0.056931320820943654
1.7189981937408447,-1.598340173760885,-1.6613836288452148,-1.4436155420592804,1.6447649002075195,-0.05688220659364873
1.7189503908157349,-1.5986129246153773,-1.6594116687774658,-1.4290770453265687,1.6450104713439941,-0.05688220659364873
1.7189009189605713,-1.5988818607726039,-1.657928705215454,-1.4133598816445847,1.6451761722564697,-0.05682689348329717
1.7186157703399658,-1.5990320644774378,-1.6566462516784668,-1.3968713891557236,1.6453509330749512,-0.05681783357729131
1.7180243730545044,-1.5992890797057093,-1.6557209491729736,-1.3792975854924698,1.645521879196167,-0.05681306520570928
1.7174195051193237,-1.5996414623656214,-1.655030369758606,-1.3608919245055695,1.645615816116333,-0.056847397481099904
1.716787338256836,-1.6000257931151332,-1.6545835733413696,-1.3418215376189728,1.645728588104248,-0.05695039430727178
1.7161980867385864,-1.600476404229635,-1.6544010639190674,-1.3222091656974335,1.645981788635254,-0.05711394945253545
1.7157714366912842,-1.600877424279684,-1.6544519662857056,-1.3024322551539917,1.6461639404296875,-0.05724984804262334
1.7153031826019287,-1.6011597118773402,-1.6544488668441772,-1.2827262741378327,1.6464004516601562,-0.05742055574526006
1.7148423194885254,-1.6015922031798304,-1.6544667482376099,-1.2572016876987,1.6466410160064697,-0.05761748949159795
1.7146186828613281,-1.6018115482726039,-1.654689073562622,-1.240790234213211,1.6466848850250244,-0.05771094957460576
1.714417576789856,-1.6019836864867152,-1.6550573110580444,-1.2225079101375123,1.646655797958374,-0.057889763508931935
1.7143065929412842,-1.6020876369872035,-1.6553515195846558,-1.2080969673446198,1.6465535163879395,-0.05793315569032842
1.7140573263168335,-1.6022120914854945,-1.6560733318328857,-1.1896251899055024,1.646378755569458,-0.05800468126405889
1.7136057615280151,-1.602347036401266,-1.6570720672607422,-1.1655936700156708,1.6460294723510742,-0.0580976645099085
1.7134047746658325,-1.602445741693014,-1.657468318939209,-1.155893550520279,1.6459927558898926,-0.05808383623232061
1.7131779193878174,-1.6025124988951625,-1.658220887184143,-1.138138012295105,1.6458218097686768,-0.05812436739076787
1.712969422340393,-1.6025949917235316,-1.6590168476104736,-1.1203588408282776,1.6457741260528564,-0.05816775957216436
1.7128088474273682,-1.6027165851988734,-1.6597050428390503,-1.1024598342231293,1.6457514762878418,-0.058182541524068654
1.7126646041870117,-1.6027914486327113,-1.6603447198867798,-1.0840865236571808,1.6458978652954102,-0.058265511189596
1.7125204801559448,-1.602950235406393,-1.660957932472229,-1.0669167798808594,1.6461009979248047,-0.058182541524068654
1.712363362312317,-1.6029249630370082,-1.661483645439148,-1.0489569467357178,1.646501064300537,-0.05823690096010381
1.7123448848724365,-1.602913042108053,-1.6617274284362793,-1.0410726231387635,1.6467158794403076,-0.058079067860738576
1.7122652530670166,-1.6028834782042445,-1.6619306802749634,-1.0300344389728089,1.6470580101013184,-0.057868305836812794
1.7122020721435547,-1.6029235325255335,-1.6621161699295044,-1.0211960238269349,1.6474422216415405,-0.05741626421083623
1.7121093273162842,-1.6029087505736292,-1.6622031927108765,-1.014904038315155,1.6477200984954834,-0.05669624010194951
1.7119935750961304,-1.6029249630370082,-1.6623873710632324,-1.0107928079417725,1.6479778289794922,-0.055874172841207326
1.7116590738296509,-1.6030861339964808,-1.6631048917770386,-1.0083661836436768,1.6481835842132568,-0.054938618336812794
1.7114880084991455,-1.6033255062498988,-1.6640729904174805,-1.0084341329387208,1.6483373641967773,-0.054220024739400685
1.711382508277893,-1.6035453281798304,-1.6656932830810547,-1.0098974865726014,1.6484901905059814,-0.05352241197694951
1.7113178968429565,-1.6038109264769496,-1.6682575941085815,-1.0138564866832276,1.6486170291900635,-0.0529711882220667
1.711289644241333,-1.6040002308287562,-1.671021580696106,-1.019178883438446,1.6487095355987549,-0.05244332948793584
1.7112054824829102,-1.6044427357115687,-1.6733343601226807,-1.0236880344203492,1.648781657218933,-0.052086655293599904
1.7110395431518555,-1.6050402126707972,-1.676169514656067,-1.029873327617981,1.6487605571746826,-0.051795307789937794
1.7106313705444336,-1.6055871448912562,-1.6787967681884766,-1.036557750110962,1.648695945739746,-0.051604572926656544
1.7097229957580566,-1.6061679325499476,-1.6812012195587158,-1.0442423981479187,1.6486318111419678,-0.051398579274312794
1.7081695795059204,-1.6068135700621546,-1.6828917264938354,-1.053207055931427,1.648590087890625,-0.05119640031923467
1.7061512470245361,-1.6075788937010707,-1.6838431358337402,-1.0634954136661072,1.648657202720642,-0.0510943571673792
1.7040379047393799,-1.60833801845693,-1.683852195739746,-1.0753269058516999,1.6486437320709229,-0.05096561113466436
1.70213782787323,-1.609215875665182,-1.6832085847854614,-1.0884249073318024,1.6486884355545044,-0.05089408556093389
1.7001957893371582,-1.610176225701803,-1.6819169521331787,-1.102907584314682,1.6486732959747314,-0.05086833635439092
1.698520541191101,-1.6110488377013148,-1.6797349452972412,-1.118873969917633,1.6487635374069214,-0.05078107515443975
1.6969624757766724,-1.6118165455260218,-1.6765658855438232,-1.1361423891833802,1.6488364934921265,-0.05076200166811162
1.6956984996795654,-1.612530370751852,-1.672393798828125,-1.1551860135844727,1.6488518714904785,-0.05059701601137334
1.6946089267730713,-1.6130548916258753,-1.667067289352417,-1.1757664245418091,1.6488990783691406,-0.050471131001607716
1.6937501430511475,-1.6134730778136195,-1.660509705543518,-1.197894499903061,1.648891568183899,-0.050281826649801076
1.6930415630340576,-1.6135574779906214,-1.6532381772994995,-1.2216974061778565,1.6488037109375,-0.0500720183001917
1.6924599409103394,-1.6137424908080042,-1.6454559564590454,-1.2466440361789246,1.6485767364501953,-0.04995423952211553
1.691977620124817,-1.6139632664122523,-1.6369324922561646,-1.2725346845439454,1.6482665538787842,-0.049805466328756154
1.6914392709732056,-1.6140815220274867,-1.6278245449066162,-1.2984181207469483,1.6478338241577148,-0.049648586903707326
1.691016674041748,-1.6142627201476039,-1.618980884552002,-1.323963613515236,1.647364616394043,-0.049561325703756154
1.6906371116638184,-1.6144873104491175,-1.6101958751678467,-1.3488129836371918,1.6469345092773438,-0.04939490953554326
1.6902832984924316,-1.6146437130370082,-1.6009280681610107,-1.3727038514665146,1.646496295928955,-0.04934436479677373
1.6899995803833008,-1.614777227441305,-1.5918775796890259,-1.395314173107483,1.646073341369629,-0.04923087755312139
1.6898226737976074,-1.6148110828795375,-1.5833666324615479,-1.4170345228961487,1.6456859111785889,-0.049009148274556935
1.6897246837615967,-1.6150928936400355,-1.574798345565796,-1.437823401098587,1.6452924013137817,-0.04881030717958623
1.6895543336868286,-1.6153770885863246,-1.5662765502929688,-1.457462304537632,1.6448967456817627,-0.04861337343324834
1.6895071268081665,-1.6155687771239222,-1.558566927909851,-1.4763393190554162,1.6443337202072144,-0.048443142567769826
1.6894372701644897,-1.6158415279784144,-1.5507025718688965,-1.4961025950363656,1.6436368227005005,-0.048258606587545216
1.6893162727355957,-1.6159407101073207,-1.5450212955474854,-1.5101677936366578,1.642925500869751,-0.04819375673402959
1.6891872882843018,-1.616133829156393,-1.5379517078399658,-1.5272872944227238,1.64205801486969,-0.04801637331117803
1.6890758275985718,-1.6161819897093714,-1.5337566137313843,-1.537581057553627,1.6415125131607056,-0.04791433015932256
1.6882604360580444,-1.6162902317442835,-1.5291200876235962,-1.5493005246720095,1.640838861465454,-0.04785138765443975
1.6867380142211914,-1.6164213619627894,-1.5249031782150269,-1.560064591733255,1.6403888463974,-0.047812763844625294
1.6840267181396484,-1.616913457910055,-1.5207886695861816,-1.5702119674281967,1.6399506330490112,-0.04777270952333623
1.6804916858673096,-1.617638727227682,-1.5169320106506348,-1.579799314538473,1.6396528482437134,-0.047684494649068654
1.6766570806503296,-1.6184379063048304,-1.5135166645050049,-1.5886618099608363,1.6393990516662598,-0.04769355455507451
1.67264986038208,-1.6190744839110316,-1.5105900764465332,-1.5965758762755335,1.639062523841858,-0.04762775102724248
1.6687194108963013,-1.619697710076803,-1.5081181526184082,-1.6034375629820765,1.6386431455612183,-0.047571961079732716
1.6650487184524536,-1.6202894649901332,-1.5060834884643555,-1.6093398533263148,1.6380807161331177,-0.047661606465474904
1.6617778539657593,-1.6208020649352015,-1.5045076608657837,-1.6142851314940394,1.6372126340866089,-0.047724548970357716
1.6589453220367432,-1.6212884388365687,-1.5032548904418945,-1.6183253727354945,1.6358588933944702,-0.04789621034731084
1.656521201133728,-1.6217872105040492,-1.5025423765182495,-1.6215845547118128,1.6342418193817139,-0.04809266725649053
1.6544389724731445,-1.6223083935179652,-1.502210021018982,-1.6242038212218226,1.6322245597839355,-0.04824430147279912
1.6527318954467773,-1.622690340081686,-1.502175211906433,-1.6263214550414027,1.6299889087677002,-0.04831153551210576
1.6513258218765259,-1.6231171093382777,-1.502575159072876,-1.6279598675169886,1.627764105796814,-0.04832345644106084
1.6501623392105103,-1.6237522564330042,-1.503231406211853,-1.6291972599425257,1.625827670097351,-0.04830819765199834
1.6492435932159424,-1.6248189411559046,-1.5039242506027222,-1.6302348575987757,1.6241133213043213,-0.04823476472963506
1.648569107055664,-1.6266480884947718,-1.5046671628952026,-1.631066461602682,1.6226474046707153,-0.04826528230776006
1.6479814052581787,-1.6288687191405238,-1.5053783655166626,-1.631636758843893,1.6214599609375,-0.04817659059633428
1.6475257873535156,-1.6315199337401332,-1.5062100887298584,-1.63209929088735,1.6204917430877686,-0.04817802110780889
1.6471858024597168,-1.634411951104635,-1.5071016550064087,-1.6323286495604457,1.6197104454040527,-0.04815370241274053
1.6469383239746094,-1.6376191578307093,-1.5079602003097534,-1.6324626408019007,1.6191368103027344,-0.048151795064107716
1.646815538406372,-1.6411119900145472,-1.5087634325027466,-1.6324736080565394,1.6188066005706787,-0.04809266725649053
1.6466792821884155,-1.644771238366598,-1.5094181299209595,-1.6323238811888636,1.6186058521270752,-0.04806644121278936
1.646583080291748,-1.6485725841917933,-1.5100350379943848,-1.6320892773070277,1.6184521913528442,-0.04801398912538701
1.6465040445327759,-1.6525026760497035,-1.5107555389404297,-1.6317411861815394,1.6183772087097168,-0.04790097871889287
1.6463584899902344,-1.6565619907774867,-1.5113451480865479,-1.6313492260374964,1.6183222532272339,-0.0478442350970667
1.6462547779083252,-1.6607386074461878,-1.51190185546875,-1.6307317219176234,1.6184043884277344,-0.04773074785341436
1.646175503730774,-1.6650015316405238,-1.5125041007995605,-1.6300398312010707,1.6185048818588257,-0.04776937166322881
1.6460161209106445,-1.6695038280882777,-1.51335608959198,-1.6293708286681117,1.6186976432800293,-0.04770976701845342
1.6461247205734253,-1.674471994439596,-1.514505386352539,-1.628634592095846,1.618962049484253,-0.047666374837056935
1.6461679935455322,-1.679052015344137,-1.5159595012664795,-1.6276713810362757,1.6192162036895752,-0.04763776460756475
1.646247386932373,-1.6839553318419398,-1.5179239511489868,-1.626075883904928,1.6195266246795654,-0.04754001299013311
1.6463584899902344,-1.688976903954977,-1.520015001296997,-1.623758455316061,1.61985445022583,-0.0474780241595667
1.6465067863464355,-1.6943098507323207,-1.522270917892456,-1.6206098995604457,1.620104432106018,-0.04749614397157842
1.646583080291748,-1.6997415028014125,-1.5247607231140137,-1.6163975201048792,1.6203484535217285,-0.04745084444154912
1.6466597318649292,-1.7055827579894007,-1.5275614261627197,-1.6109782658019007,1.6206201314926147,-0.04738742509950811
1.6466368436813354,-1.7110825977721156,-1.530373215675354,-1.6049300632872523,1.620750904083252,-0.047434631978170216
1.6466578245162964,-1.7162219486632289,-1.53303861618042,-1.598710676232809,1.6208957433700562,-0.047401253377096
1.6466984748840332,-1.7222615681090296,-1.5363489389419556,-1.5908595524229945,1.621023178100586,-0.04738742509950811
1.646787166595459,-1.727640291253561,-1.5396322011947632,-1.58343567470693,1.621057391166687,-0.04739505449403936
1.646837830543518,-1.7330266437926234,-1.5431410074234009,-1.5747524700560511,1.6211576461791992,-0.047401253377096
1.646964192390442,-1.738290926019186,-1.5468541383743286,-1.5655437156422813,1.621177077293396,-0.047286335621969044
1.6470177173614502,-1.743340631524557,-1.550889253616333,-1.5557357187247653,1.6212321519851685,-0.0471418539630335
1.6470987796783447,-1.7484375439085902,-1.5552940368652344,-1.5448827997646113,1.6213011741638184,-0.04692060152162725
1.6470952033996582,-1.75278963665151,-1.5593087673187256,-1.5353150156191369,1.6213042736053467,-0.04689342180360967
1.6471903324127197,-1.7585202656187953,-1.564759612083435,-1.5230222952416916,1.6213443279266357,-0.04680234590639287
1.6472172737121582,-1.761874338189596,-1.5681631565093994,-1.5154661808959027,1.621373176574707,-0.04672557512392217
1.6473193168640137,-1.7656270466246546,-1.5718050003051758,-1.50738878667865,1.621361255645752,-0.04662496248354131
1.6473581790924072,-1.769421239892477,-1.5754003524780273,-1.4995582413724442,1.6213757991790771,-0.04655677476991826
1.647329568862915,-1.7731496296324671,-1.578661561012268,-1.492492751484253,1.621378779411316,-0.0464399496661585
1.6473655700683594,-1.776745935479635,-1.5818121433258057,-1.4858328786543389,1.6214203834533691,-0.046317402516500294
1.647438883781433,-1.7801557979979457,-1.5847878456115723,-1.4797608640841027,1.6214367151260376,-0.046242539082662404
1.6474015712738037,-1.7832757435240687,-1.5877032279968262,-1.4743720454028626,1.621401071548462,-0.046222988759176076
1.6474299430847168,-1.786266943017477,-1.5904546976089478,-1.4693413165262719,1.6214412450790405,-0.04619914690126592
1.6474180221557617,-1.7894360027708949,-1.5932537317276,-1.4640010607293625,1.6213757991790771,-0.046160523091451466
1.647458553314209,-1.7919217548766078,-1.5952186584472656,-1.4601663512042542,1.6214276552200317,-0.046135727559224904
1.6474494934082031,-1.794640680352682,-1.5973448753356934,-1.4558824461749573,1.6214040517807007,-0.04601651826967412
1.6474659442901611,-1.7974354229369105,-1.599281668663025,-1.4518368628672143,1.62144935131073,-0.045760456715719044
1.6474659442901611,-1.8004023037352503,-1.6011327505111694,-1.4478688103011628,1.6214128732681274,-0.04517060915102178
1.6474732160568237,-1.803885122338766,-1.602846622467041,-1.4436286848834534,1.621362328529358,-0.043743435536519826
1.6474688053131104,-1.8065463505186976,-1.60392427444458,-1.440324993138649,1.6214128732681274,-0.04177552858461553
1.647508144378662,-1.8099528751769007,-1.6051559448242188,-1.436044455771782,1.6214323043823242,-0.038256470357076466
1.6474913358688354,-1.8131596050658167,-1.6061100959777832,-1.4320513171008606,1.621396541595459,-0.03443366685976201
1.647486925125122,-1.8172441921629847,-1.6073110103607178,-1.4266715210727234,1.6213703155517578,-0.0291064421283167
1.6476893424987793,-1.8200184307494105,-1.6080259084701538,-1.4226766687682648,1.6213191747665405,-0.02537089983095342
1.6480536460876465,-1.8235918484129847,-1.608734369277954,-1.4177579146674653,1.6212157011032104,-0.02108461061586553
1.648465871810913,-1.8273207149901332,-1.6093950271606445,-1.4128366124681015,1.6211822032928467,-0.01725179353822881
1.6487925052642822,-1.8310815296568812,-1.6098694801330566,-1.4084189993194123,1.62110435962677,-0.013960663472310841
1.6490893363952637,-1.8348781071104945,-1.6101760864257812,-1.4043852996877213,1.6211798191070557,-0.011150662099019826
1.6492884159088135,-1.838815828362936,-1.6103358268737793,-1.4008429211429139,1.621121883392334,-0.008878533040181935
1.6494637727737427,-1.8427015743651332,-1.6103583574295044,-1.3977309626391907,1.6211426258087158,-0.006954018269674123
1.6496435403823853,-1.8465100727477015,-1.6105281114578247,-1.3949287247708817,1.6212154626846313,-0.005472962056295216
1.6498135328292847,-1.850278993646139,-1.6109426021575928,-1.3922860485366364,1.6211860179901123,-0.004319016133443654
1.649888277053833,-1.8539139233031214,-1.6114089488983154,-1.3893898886493226,1.621291995048523,-0.0033476988421838882
1.6499418020248413,-1.8575178585448207,-1.6121747493743896,-1.3861597937396546,1.621249794960022,-0.002599541340963185
1.650115966796875,-1.8607412777342738,-1.613527774810791,-1.382321299319603,1.621175765991211,-0.0020030180560510757
1.6502572298049927,-1.8648463688292445,-1.616431474685669,-1.3751390439322968,1.6211758852005005,-0.0013902823077600601
1.6503288745880127,-1.8674975834288539,-1.6190943717956543,-1.3683940482190629,1.6212009191513062,-0.0010336081134241226
1.6504265069961548,-1.86918367962026,-1.6210682392120361,-1.363627867107727,1.6211934089660645,-0.0009153524981897476
1.650447130203247,-1.8712507687010707,-1.6242438554763794,-1.356333853011467,1.621246576309204,-0.0007098356830042007
1.6504201889038086,-1.8732549152769984,-1.6274049282073975,-1.3492494535497208,1.621249794960022,-0.0006249586688440445
1.6504369974136353,-1.8755437336363734,-1.631125569343567,-1.3411270093968888,1.6213037967681885,-0.0004251638995569351
1.6504369974136353,-1.878000875512594,-1.6348062753677368,-1.3334070158055802,1.6212610006332397,-0.000291172658101857
1.650439739227295,-1.8805080852904261,-1.638188123703003,-1.3261533987573166,1.6212892532348633,-0.00020438829530888825
1.6504831314086914,-1.8829218349852503,-1.6413593292236328,-1.3193489474109192,1.6213130950927734,-0.00021821657289677887
1.6505954265594482,-1.8853112659850062,-1.6446048021316528,-1.3129173976233979,1.6213011741638184,-0.0002129713641565445
1.650804042816162,-1.8878499470152796,-1.6480365991592407,-1.3065458101085206,1.6211771965026855,-0.00013906160463506012
1.6510604619979858,-1.8902789554991664,-1.6519209146499634,-1.299816445713379,1.621150016784668,-9.85304461877945e-05
1.6512551307678223,-1.8927184544005335,-1.6563420295715332,-1.2923208636096497,1.6210774183273315,-4.1309987203419496e-05
1.6513842344284058,-1.8950616321959437,-1.661301851272583,-1.2836857301047822,1.6209979057312012,-6.705919374638825e-05
1.6514923572540283,-1.8974634609618128,-1.6667935848236084,-1.2734228831580658,1.6210391521453857,-8.408223287403871e-06
1.6515761613845825,-1.8999091587462367,-1.6723204851150513,-1.2613077920726319,1.6209735870361328,2.7508735001902096e-05
1.6516646146774292,-1.9022828541197718,-1.678009033203125,-1.24750970423732,1.6210272312164307,-1.4607106344044496e-05
1.6516988277435303,-1.9047137699522914,-1.6840133666992188,-1.2321686011603852,1.621030330657959,-5.6568776265919496e-05
1.6518380641937256,-1.9071713886656703,-1.690398097038269,-1.215765581732132,1.6211154460906982,-1.9375477926075746e-05
1.6521321535110474,-1.9098826847472132,-1.6968507766723633,-1.198811338548996,1.621133804321289,1.3858583770343103e-05
1.6524152755737305,-1.9126531086363734,-1.70296311378479,-1.1819513899138947,1.621161937713623,-4.3217335836231996e-05
1.6527013778686523,-1.915352006951803,-1.7087805271148682,-1.1654717785171052,1.6212334632873535,2.384185791015625e-06
1.6531273126602173,-1.918039461175436,-1.7144938707351685,-1.149957762365677,1.6212486028671265,6.67572021484375e-06
1.6535500288009644,-1.9208342037596644,-1.7205513715744019,-1.1351550382426758,1.621297836303711,-2.209340230763246e-06
1.6539723873138428,-1.923472066918844,-1.7270270586013794,-1.1210562747767945,1.6213173866271973,1.3828277587890625e-05
1.6543954610824585,-1.9259816608824671,-1.733572006225586,-1.1072259110263367,1.6213239431381226,-2.209340230763246e-06
1.65477454662323,-1.9285112820067347,-1.7401082515716553,-1.0936252635768433,1.6213929653167725,-6.977711812794496e-06
1.6551058292388916,-1.931300779382223,-1.746787428855896,-1.0798381727984925,1.6213973760604858,-2.209340230763246e-06
1.655455231666565,-1.9341827831664027,-1.7540068626403809,-1.066088930969574,1.621331810951233,-2.209340230763246e-06
1.6556601524353027,-1.9372226200499476,-1.761558175086975,-1.0522679847529908,1.6212172508239746,-6.133714784795075e-05
1.6557514667510986,-1.940359731713766,-1.7687249183654785,-1.0385238093188782,1.6210861206054688,-2.209340230763246e-06
1.6559422016143799,-1.9437629185118617,-1.7755711078643799,-1.0250491064837952,1.6208575963974,1.844882899604272e-05
1.656054139137268,-1.9489127598204554,-1.785517930984497,-1.0062037271312256,1.6206598281860352,2.384185791015625e-06
1.6561776399612427,-1.951003213922018,-1.7895177602767944,-0.9989822071841736,1.6205426454544067,3.034869223483838e-05
1.656219244003296,-1.9549633465208949,-1.796136736869812,-0.9863501352122803,1.6204562187194824,4.710481152869761e-05
1.6563724279403687,-1.95900358776235,-1.8020449876785278,-0.9735447329333802,1.620212197303772,-7.7549611226857e-05
1.65647554397583,-1.9631864033141078,-1.8076958656311035,-0.9608174723437806,1.620002031326294,9.298324584960938e-06
1.6565220355987549,-1.9676605663695277,-1.8133283853530884,-0.9479817909053345,1.6197376251220703,9.298324584960938e-06
1.6565594673156738,-1.9724294147887171,-1.8187049627304077,-0.9350704711726685,1.6195693016052246,2.1191839550738223e-05
1.6565594673156738,-1.9774695835509242,-1.823777198791504,-0.9220636647990723,1.6192117929458618,-1.1269246236622621e-05
1.6566119194030762,-1.9825183353819789,-1.828096628189087,-0.909356490974762,1.6189019680023193,1.7189995560329407e-07
1.6565864086151123,-1.9876061878600062,-1.8318688869476318,-0.8971076768687745,1.6185736656188965,4.250502388458699e-05
1.6566286087036133,-1.9925233326353968,-1.835147500038147,-0.8857149642756958,1.6182827949523926,7.258844561874866e-05
1.6565982103347778,-1.9973327122130335,-1.8381409645080566,-0.8753830951503296,1.6180860996246338,3.798699253820814e-05
1.6566251516342163,-2.0018278561034144,-1.840981125831604,-0.8660062712481995,1.6177928447723389,5.441986286314204e-05
1.6566433906555176,-2.006259103814596,-1.843550205230713,-0.8575512331775208,1.6176300048828125,3.797483441303484e-05
1.6566416025161743,-2.010238309899801,-1.845900297164917,-0.8501644295505066,1.6175034046173096,5.158329076948576e-05
1.656696081161499,-2.013991495172018,-1.8482526540756226,-0.8438215416720887,1.617302656173706,-1.603761781865387e-05
1.6566370725631714,-2.0175568066039027,-1.8508034944534302,-0.8381028336337586,1.6172329187393188,-6.133714784795075e-05
1.656679630279541,-2.0205394230284632,-1.853305697441101,-0.8333900731853028,1.6171200275421143,2.1219253540039062e-05
1.6566705703735352,-2.02270569423818,-1.8553560972213745,-0.8301404279521485,1.6170473098754883,-5.547200338185121e-06
1.6566450595855713,-2.024996419946188,-1.8574328422546387,-0.8271280092052002,1.6169872283935547,-9.2808400289357e-05
1.6566898822784424,-2.0270401440062464,-1.8593981266021729,-0.8247473400882264,1.6168968677520752,-0.0001252333270471695
1.6566495895385742,-2.028802534142965,-1.861510992050171,-0.8228220504573365,1.6169037818908691,-0.00030213991274052887
1.6566870212554932,-2.0304233036436976,-1.8636205196380615,-0.8213346761516114,1.6167018413543701,-0.0005148092852991226
1.6566959619522095,-2.0320288143553675,-1.8659024238586426,-0.8200619977763672,1.6164989471435547,-0.000699345265523732
1.6567034721374512,-2.0335174999632777,-1.8680970668792725,-0.8190336984447022,1.616248369216919,-0.000775639210836232
1.65665864944458,-2.035009046594137,-1.870248556137085,-0.8181167405894776,1.616140365600586,-0.0009987990008752945
1.6566660404205322,-2.0363999805846156,-1.8724782466888428,-0.8173857492259522,1.6160085201263428,-0.0010603109942834976
1.656708002090454,-2.037670751611227,-1.8748306035995483,-0.8168183130076905,1.6157724857330322,-0.001111332570211232
1.656691551208496,-2.03878178218984,-1.8772180080413818,-0.8162858051112671,1.6154117584228516,-0.001237217579976857
1.656691551208496,-2.0397659740843714,-1.8795136213302612,-0.8158322137645264,1.6151529550552368,-0.0013120810138147476
1.656691551208496,-2.0403477154173792,-1.8811886310577393,-0.8156610888293763,1.614994764328003,-0.0013812224017542007
1.6566370725631714,-2.0409699879088343,-1.8830689191818237,-0.8153621119311829,1.614708423614502,-0.0013654867755334976
1.6566542387008667,-2.04141964534902,-1.884857177734375,-0.8152273458293458,1.6141197681427002,-0.0014684836017053726
1.656708002090454,-2.0416089497008265,-1.8866032361984253,-0.8150876325419922,1.61293625831604,-0.0017092863665979507
1.6566705703735352,-2.041516443292135,-1.8879151344299316,-0.8149677079967041,1.610853672027588,-0.0017679373370569351
1.6566870212554932,-2.0411373577513636,-1.8893029689788818,-0.8148548764041443,1.6068028211593628,-0.0017851034747522476
1.6566370725631714,-2.040671011010641,-1.8902220726013184,-0.814847545032837,1.602444052696228,-0.0018299261676233414
1.6566497087478638,-2.0400034389891566,-1.8911304473876953,-0.8148954671672364,1.5962235927581787,-0.0017893950091760757
1.6567034721374512,-2.0392753086485804,-1.8918074369430542,-0.81504841268573,1.5890109539031982,-0.0018084684955042007
1.6567471027374268,-2.0384565792479457,-1.8923766613006592,-0.8151852649501343,1.5812911987304688,-0.0018222967730920914
1.6568803787231445,-2.0377046070494593,-1.8927669525146484,-0.8152662080577393,1.5733314752578735,-0.0017727057086389664
1.6568667888641357,-2.036966463128561,-1.8931183815002441,-0.8153398793986817,1.5655250549316406,-0.0017860571490686539
1.6568593978881836,-2.036389013329977,-1.8933848142623901,-0.8153562110713501,1.5582417249679565,-0.0016930739032190445
1.6568458080291748,-2.0359002552428187,-1.8937219381332397,-0.8153518003276368,1.551153540611267,-0.0017154852496545914
1.6568548679351807,-2.0355082950987757,-1.894074559211731,-0.8152513068965455,1.5454418659210205,-0.0016048590289514664
1.6568429470062256,-2.0352379284300746,-1.894406795501709,-0.8151477140239258,1.5394729375839233,-0.0016182104693811539
1.6568832397460938,-2.0350986919798792,-1.894595980644226,-0.8150891226581116,1.5334711074829102,-0.0015481154071252945
1.6568968296051025,-2.034905096093649,-1.8948116302490234,-0.8150438827327271,1.5270936489105225,-0.0015638510333459976
1.656826138496399,-2.034835001031393,-1.8950293064117432,-0.815051869755127,1.5202218294143677,-0.0017092863665979507
1.6568713188171387,-2.0346957645811976,-1.8951642513275146,-0.8151546877673645,1.5129050016403198,-0.0017936865435999039
1.6569163799285889,-2.0345808468260707,-1.895312786102295,-0.815096454029419,1.504888892173767,-0.0018938223468225601
1.6569342613220215,-2.03450932125234,-1.8954365253448486,-0.8150564593127747,1.4964314699172974,-0.0020015875445764664
1.6570870876312256,-2.0343758068480433,-1.895552158355713,-0.8150275510600586,1.4880260229110718,-0.0020526091205042007
1.6572835445404053,-2.0343014202513636,-1.895674467086792,-0.8149436277202149,1.479691505432129,-0.0020707289325159195
1.6574468612670898,-2.0342008076109828,-1.8957233428955078,-0.8148462337306519,1.4715090990066528,-0.0021246115313928726
1.6575371026992798,-2.0341907940306605,-1.895817518234253,-0.8147817415050049,1.4636387825012207,-0.002126042042867482
1.657481074333191,-2.0341440639891566,-1.8958685398101807,-0.8148006361773987,1.45610773563385,-0.0021289030658167007
1.657599925994873,-2.0341578922667445,-1.8959240913391113,-0.8147110503963013,1.4485747814178467,-0.002091709767476857
1.6576461791992188,-2.0342189274229945,-1.8961429595947266,-0.8147123616984864,1.44062077999115,-0.002133671437398732
1.6577045917510986,-2.0341531238951625,-1.8963764905929565,-0.8146465581706543,1.4319432973861694,-0.002148930226461232
1.6578545570373535,-2.0341412029662074,-1.8966090679168701,-0.8146478694728394,1.4225995540618896,-0.0021670500384729507
1.657909870147705,-2.0341741047301234,-1.8967019319534302,-0.8146074575236817,1.4125831127166748,-0.002224747334615529
1.6579084396362305,-2.0341106853880824,-1.896880030632019,-0.8145746153644104,1.4020737409591675,-0.0021231810199182632
1.657989501953125,-2.034128805200094,-1.8969674110412598,-0.8146119874766846,1.3916499614715576,-0.0021126906024377945
1.6580181121826172,-2.03410067180776,-1.8970229625701904,-0.8145787876895447,1.3815302848815918,-0.0020125547992151382
1.6581231355667114,-2.034104963342184,-1.8970783948898315,-0.8145669263652344,1.3694032430648804,-0.0020096937762659195
1.6581066846847534,-2.0340734920897425,-1.8971467018127441,-0.8145520252040406,1.3625388145446777,-0.0019677321063440445
1.6580839157104492,-2.0339447460570277,-1.8972522020339966,-0.814609245663025,1.3535748720169067,-0.0019834677325647476
1.6581544876098633,-2.0337730846800746,-1.8973677158355713,-0.8145595353892823,1.3446446657180786,-0.0020168463336389664
1.6581122875213623,-2.0338193378844203,-1.8976409435272217,-0.8145550054362793,1.3354755640029907,-0.0020392576800745132
1.6581364870071411,-2.0337730846800746,-1.8977681398391724,-0.8145759862712403,1.3263427019119263,-0.0020888487445276382
1.6582279205322266,-2.0338016949095667,-1.8977916240692139,-0.8145259779742737,1.3167238235473633,-0.002072159443990529
1.6581857204437256,-2.0338269672789515,-1.8977704048156738,-0.8145760458758851,1.306915283203125,-0.0020435492144983414
1.6582143306732178,-2.0338059864439906,-1.8977501392364502,-0.8145396870425721,1.2968181371688843,-0.001996819172994435
1.658200740814209,-2.0338059864439906,-1.8977502584457397,-0.8145687145045777,1.2880663871765137,-0.002003494893209279
1.658217191696167,-2.0338627300658167,-1.897709608078003,-0.8144886058619996,1.2791004180908203,-0.0018890539752405289
1.6582262516021729,-2.0338221989073695,-1.8977183103561401,-0.8145687145045777,1.270396113395691,-0.0018089453326624039
1.6582801342010498,-2.033874650994772,-1.8977704048156738,-0.8145595353892823,1.261775255203247,-0.001729313527242482
1.6586084365844727,-2.0338779888548792,-1.8978517055511475,-0.8145215076259156,1.2517844438552856,-0.0016363302813928726
1.6590912342071533,-2.0338937244811,-1.8980621099472046,-0.81462116659198,1.241891860961914,-0.0017107168780725601
1.6595574617385864,-2.033823629418844,-1.8985462188720703,-0.8146101993373414,1.229634404182434,-0.0016239325152795914
1.6600053310394287,-2.0338298283019007,-1.8990302085876465,-0.814659909611084,1.2176940441131592,-0.0016701857196252945
1.6604253053665161,-2.033680101434225,-1.8995558023452759,-0.8146748107722779,1.2042433023452759,-0.0015896002398889664
1.6607941389083862,-2.0336114368834437,-1.9001857042312622,-0.8146794599345704,1.1905136108398438,-0.0016015211688440445
1.6611132621765137,-2.0333949528136195,-1.9007694721221924,-0.8146626514247437,1.1766552925109863,-0.001572910939351857
1.6614429950714111,-2.0332194767394007,-1.901244878768921,-0.8146626514247437,1.1633296012878418,-0.0016029516803186539
1.6617634296417236,-2.033024927178854,-1.9017651081085205,-0.8147099179080506,1.1489512920379639,-0.001561466847554982
1.661890983581543,-2.0329038105406703,-1.9020719528198242,-0.8147218984416504,1.1383429765701294,-0.001511875783101857
1.6620770692825317,-2.0328084431090296,-1.9024277925491333,-0.814643458729126,1.1263713836669922,-0.0015490690814417007
1.6621140241622925,-2.0328170261778773,-1.9026645421981812,-0.8146102589419861,1.114280343055725,-0.0015862623797815445
1.6622883081436157,-2.0327965221800746,-1.9026919603347778,-0.8146193784526368,1.102026104927063,-0.0015657583819788101
1.6624473333358765,-2.0326930485167445,-1.902798056602478,-0.8146284383586426,1.0888795852661133,-0.0015404860125940445
1.6629239320755005,-2.03247131923818,-1.9027352333068848,-0.8145336669734498,1.0752027034759521,-0.0014651457415979507
1.6635336875915527,-2.032332559625143,-1.9027714729309082,-0.8145879072001954,1.060371994972229,-0.0013297239886682632
1.6646403074264526,-2.03218998531484,-1.902843952178955,-0.8146481078914185,1.0444343090057373,-0.001153294240133107
1.6660865545272827,-2.0319839916624964,-1.9030019044876099,-0.8147441309741517,1.0272194147109985,-0.0009606520282190445
1.6678344011306763,-2.031783243218893,-1.9031628370285034,-0.8148880761912842,1.0089482069015503,-0.0007551352130334976
1.6697032451629639,-2.031642576257223,-1.9032725095748901,-0.8150757116130372,0.9897099733352661,-0.0002496878253381851
1.6716572046279907,-2.0315586529173792,-1.903343915939331,-0.815182165508606,0.9701545238494873,0.0005249798996374011
1.6739909648895264,-2.0313884220519007,-1.9034711122512817,-0.8154075902751465,0.9489061236381531,0.0016805052291601896
1.6769134998321533,-2.031013151208395,-1.9038089513778687,-0.8155857485583802,0.9260748028755188,0.003208140842616558
1.6789793968200684,-2.0306884251036585,-1.9039487838745117,-0.8158819240382691,0.9097614288330078,0.004196938127279282
1.682222843170166,-2.0305072269835414,-1.9042999744415283,-0.8161637347987671,0.8843654990196228,0.005547756794840097
1.68391752243042,-2.0303622684874476,-1.9043740034103394,-0.8163483899882813,0.8693532943725586,0.006415138952434063
1.686049222946167,-2.0302797756590785,-1.9044817686080933,-0.8165407937816163,0.8496748208999634,0.007212400436401367
1.6878336668014526,-2.030151506463522,-1.9046108722686768,-0.816730872993805,0.8303143382072449,0.007903771474957466
1.6893013715744019,-2.030067583123678,-1.904794692993164,-0.8169654172709961,0.81145179271698,0.008486747741699219
1.6905649900436401,-2.0300213299193324,-1.905076026916504,-0.8170359891704102,0.7925661206245422,0.00894233025610447
1.6916863918304443,-2.0299087963499964,-1.9055578708648682,-0.8171438735774537,0.773604691028595,0.009357583709061146
1.6926755905151367,-2.029816289941305,-1.9061859846115112,-0.8171964448741456,0.7546113133430481,0.009682671166956425
1.6935145854949951,-2.029781480828756,-1.9069652557373047,-0.8172055047801514,0.7356285452842712,0.009874296374619007
1.694331169128418,-2.0297051868834437,-1.907848596572876,-0.8172464531711121,0.7170701622962952,0.010012936778366566
1.6952120065689087,-2.029600759545797,-1.9088929891586304,-0.8172083061984559,0.6992425322532654,0.010089000687003136
1.6960283517837524,-2.029581209222311,-1.9099386930465698,-0.817181722526886,0.6821855902671814,0.01016545295715332
1.6967206001281738,-2.0295235119261683,-1.9109797477722168,-0.8170000475696106,0.6666772365570068,0.010201454162597656
1.697239637374878,-2.029536863366598,-1.9119460582733154,-0.8169056338122864,0.6520195007324219,0.010133814997971058
1.6978189945220947,-2.0295988521971644,-1.9127545356750488,-0.8167432707599183,0.6382166743278503,0.010072716511785984
1.698164463043213,-2.029405256310934,-1.9134202003479004,-0.8166443270495911,0.6248205304145813,0.00991368293762207
1.6984766721725464,-2.0291220150389613,-1.9141244888305664,-0.8166080874255677,0.6109620332717896,0.009560493752360344
1.6986597776412964,-2.028599878350729,-1.9148173332214355,-0.816615418796875,0.596516489982605,0.009358874522149563
1.6988261938095093,-2.028185030023092,-1.9155875444412231,-0.8166847986033936,0.5807359218597412,0.008970570750534534
1.6990470886230469,-2.027905603448385,-1.9167885780334473,-0.8167824906161805,0.5642505884170532,0.008549611084163189
1.699350118637085,-2.0276218853392542,-1.9184907674789429,-0.816732720737793,0.5468429327011108,0.008371198549866676
1.699645757675171,-2.027447362939352,-1.9205421209335327,-0.8167086404613038,0.5293818116188049,0.008359265513718128
1.6999340057373047,-2.0271321735777796,-1.9228432178497314,-0.8165932458690186,0.5125025510787964,0.008368025533854961
1.7000644207000732,-2.0267421207823695,-1.9249093532562256,-0.8164355319789429,0.49704426527023315,0.008387461304664612
1.7000988721847534,-2.0263482532896937,-1.9268451929092407,-0.8162477773479004,0.4833071529865265,0.008398452773690224
1.7001696825027466,-2.0261484585204066,-1.9285565614700317,-0.8160199683955689,0.4716533124446869,0.008539119735360146
1.7003421783447266,-2.025914331475729,-1.9298912286758423,-0.8158801358989258,0.4615854024887085,0.00864267349243164
1.7005778551101685,-2.025778432885641,-1.930953860282898,-0.8158071798137208,0.4528672397136688,0.008747252635657787
1.7012004852294922,-2.025649686852926,-1.9318771362304688,-0.8158202928355713,0.4446144998073578,0.008714675903320312
1.7020471096038818,-2.025579114953512,-1.9326809644699097,-0.8158081334880372,0.43603116273880005,0.008491185493767262
1.703016996383667,-2.0253755054869593,-1.933294653892517,-0.815803663139679,0.426638126373291,0.007961304858326912
1.703933835029602,-2.024985452691549,-1.9338104724884033,-0.815815882091858,0.41615650057792664,0.007355379872024059
1.70475172996521,-2.0246712170042933,-1.9343879222869873,-0.8158648175052186,0.40371108055114746,0.006622464396059513
1.7054498195648193,-2.024447103539938,-1.934839129447937,-0.8159805697253724,0.39171361923217773,0.005832361988723278
1.7061822414398193,-2.0242582760252894,-1.9352405071258545,-0.8161378067782898,0.3781428337097168,0.005080449394881725
1.7069505453109741,-2.0241524181761683,-1.93564772605896,-0.8163004678538819,0.3635472059249878,0.0044611128978431225
1.707990288734436,-2.023999353448385,-1.9361355304718018,-0.8164926332286377,0.3482106924057007,0.0038363379426300526
1.7091330289840698,-2.024037023583883,-1.936540126800537,-0.8167808812907715,0.3321019411087036,0.0034014545381069183
1.7105302810668945,-2.0240518055357875,-1.9369099140167236,-0.8171476286700745,0.31553441286087036,0.003026519203558564
1.7120041847229004,-2.0240518055357875,-1.9373431205749512,-0.8174382013133545,0.29854312539100647,0.002693608170375228
1.7134343385696411,-2.0240971050658167,-1.9378489255905151,-0.8177142900279541,0.2817170023918152,0.002424029167741537
1.7149877548217773,-2.02406706432485,-1.9383808374404907,-0.8179788154414673,0.2656010389328003,0.002081032143905759
1.7162920236587524,-2.0241624317564906,-1.9389046430587769,-0.818164662723877,0.2510303854942322,0.0016925206873565912
1.7181817293167114,-2.0243035755553187,-1.940094232559204,-0.8185476821712037,0.22711987793445587,0.0011844635009765625
1.7188061475753784,-2.024379869500631,-1.9407871961593628,-0.8185485762408753,0.21816174685955048,0.0008725665975362062
1.719345211982727,-2.024491926232809,-1.941437005996704,-0.8185742658427735,0.21093814074993134,0.0004779478767886758
1.719760775566101,-2.024494787255758,-1.9421221017837524,-0.8184270423701783,0.20494969189167023,0.00018013313820119947
1.7201027870178223,-2.024470945397848,-1.9425811767578125,-0.8184138101390381,0.2008846253156662,-0.00012857118715459137
1.7204148769378662,-2.0244304142394007,-1.942858099937439,-0.8183058065227051,0.19777068495750427,-0.0003641287433069351
1.7206552028656006,-2.024367948571676,-1.942713975906372,-0.8182188433459778,0.1957908272743225,-0.0005491415606897476
1.72072172164917,-2.0239607296385707,-1.9425482749938965,-0.8181615632823487,0.19490554928779602,-0.0008586088763635757
1.7207380533218384,-2.022614141503805,-1.9421310424804688,-0.8183403772166749,0.19508862495422363,-0.0012419859515588882
1.7207937240600586,-2.0199748478331507,-1.9415627717971802,-0.8189903062633057,0.19587041437625885,-0.0018599669085901382
1.7208504676818848,-2.016153951684469,-1.9408642053604126,-0.8200994294932862,0.19748984277248383,-0.0029166380511682632
1.720874547958374,-2.01163448909902,-1.9399479627609253,-0.821381227379181,0.2000826895236969,-0.00502950349916631
1.7208240032196045,-2.0069686375060023,-1.9389069080352783,-0.8224909466556092,0.2034980207681656,-0.008954350148336232
1.720856785774231,-2.0020557842650355,-1.9375731945037842,-0.8232157987407227,0.20782259106636047,-0.015008274708883107
1.7209302186965942,-1.9969598255553187,-1.9360523223876953,-0.8232981723598023,0.21282875537872314,-0.02356893221010381
1.7209302186965942,-1.9914657078185023,-1.934306025505066,-0.8229992550662537,0.218389093875885,-0.034447495137349904
1.7209465503692627,-1.9852243862547816,-1.9320218563079834,-0.8227368158153077,0.22458401322364807,-0.04853183427919561
1.7208731174468994,-1.9791609249510707,-1.9298206567764282,-0.8224483293345948,0.2300485223531723,-0.06257707277406865
1.7208799123764038,-1.9715930424132289,-1.9271737337112427,-0.8221288484385987,0.23573322594165802,-0.07975513139833623
1.7208069562911987,-1.9641314945616664,-1.9248039722442627,-0.821888880138733,0.24012422561645508,-0.09573680559267217
1.7205853462219238,-1.9524160824217738,-1.9211350679397583,-0.8217368882945557,0.24555771052837372,-0.11947137514223272
1.72053062915802,-1.94667448619985,-1.9193761348724365,-0.8217039865306397,0.24753114581108093,-0.13034183183778936
1.7202727794647217,-1.9373790226378382,-1.9164036512374878,-0.8217008870891114,0.25021034479141235,-0.14834911028017217
1.7198256254196167,-1.9277740917601527,-1.9133713245391846,-0.8217159074595948,0.25247612595558167,-0.16668731371034795
1.7193048000335693,-1.9177667103209437,-1.910286784172058,-0.8217750948718567,0.2542818784713745,-0.1856907049762171
1.7186378240585327,-1.9068943462767542,-1.9067329168319702,-0.8218934696963807,0.2558189332485199,-0.20605260530580694
1.717880368232727,-1.897149225274557,-1.9035106897354126,-0.8221231263927002,0.2568458020687103,-0.2244795004474085
1.7169184684753418,-1.8871008358397425,-1.9000664949417114,-0.8222878736308594,0.2576490640640259,-0.24333745638002569
1.7157745361328125,-1.8757225475706996,-1.8960455656051636,-0.8225205701640625,0.25843822956085205,-0.26493913332094365
1.714593529701233,-1.8652473888792933,-1.8919018507003784,-0.8227532666972657,0.25897106528282166,-0.28564531007875615
1.7134286165237427,-1.8548947773375453,-1.8876984119415283,-0.8229497236064454,0.25936582684516907,-0.3062222639666956
1.712348461151123,-1.844792982141012,-1.8833876848220825,-0.8230818671039124,0.25969159603118896,-0.3264244238482874
1.7113559246063232,-1.8353225193419398,-1.879163384437561,-0.8232456606677552,0.2598778307437897,-0.34591466585268194
1.710415005683899,-1.8268820248045863,-1.8755931854248047,-0.8233490747264405,0.2600322365760803,-0.3633382956134241
1.7095800638198853,-1.817472597161764,-1.8718338012695312,-0.823408917789795,0.26002031564712524,-0.38160545030702764
1.7088627815246582,-1.809216638604635,-1.8686169385910034,-0.8234856885722657,0.26002323627471924,-0.3974259535418909
1.7081468105316162,-1.801429887811178,-1.8655033111572266,-0.8235410016826172,0.2599380612373352,-0.4117501417743128
1.7074652910232544,-1.7939149341978968,-1.8627219200134277,-0.8235936325839539,0.25989559292793274,-0.42494279543031865
1.7067855596542358,-1.7871204815306605,-1.8601356744766235,-0.8235891622355958,0.2598157525062561,-0.4369261900531214
1.7060683965682983,-1.7810207806029261,-1.8579025268554688,-0.8236324948123475,0.2597109079360962,-0.44784242311586553
1.7053251266479492,-1.7756816349425257,-1.8556807041168213,-0.8237122458270569,0.25964024662971497,-0.4581254164325159
1.7044190168380737,-1.771069665948385,-1.8532363176345825,-0.8239917320064087,0.2595505714416504,-0.4676478544818323
1.703543782234192,-1.7667514286436976,-1.8505744934082031,-0.8241100472262879,0.2595202326774597,-0.47684985796083623
1.702274203300476,-1.7624346218504847,-1.8476204872131348,-0.8242691916278382,0.2593803107738495,-0.4861963430987757
1.7004120349884033,-1.7575823269286097,-1.84425950050354,-0.8244267267039795,0.25934088230133057,-0.4958727995501917
1.6979045867919922,-1.7522808514037074,-1.84029221534729,-0.8245647710612793,0.2593540549278259,-0.5058811346637171
1.6950404644012451,-1.7467953167357386,-1.8355822563171387,-0.8247133058360596,0.2593591809272766,-0.5163992086993616
1.6918821334838867,-1.7413517437376917,-1.8300540447235107,-0.8249808114818116,0.25927647948265076,-0.5268242994891565
1.688651204109192,-1.7360807857909144,-1.8236786127090454,-0.8252490323833008,0.25926584005355835,-0.5369985739337366
1.685530662536621,-1.7312222919859828,-1.8167781829833984,-0.82567252338443,0.25929510593414307,-0.5468571821795862
1.6826611757278442,-1.7266370258727015,-1.8099122047424316,-0.8260761660388489,0.25926584005355835,-0.5565403143512171
1.680145025253296,-1.7220426998534144,-1.8028171062469482,-0.8266675037196656,0.2592994272708893,-0.5661166349994105
1.6778780221939087,-1.7173072300352992,-1.7954888343811035,-0.8273760837367554,0.2592710554599762,-0.5761125723468226
1.6756287813186646,-1.712289949456686,-1.7877082824707031,-0.8280199331096192,0.259283185005188,-0.5865924994098108
1.6731016635894775,-1.707174917260641,-1.780141830444336,-0.8286097210696717,0.2591293752193451,-0.59766132036318
1.6697486639022827,-1.7025357685484828,-1.7727147340774536,-0.8290209335139771,0.259029746055603,-0.6092494169818323
1.6653780937194824,-1.698263784448141,-1.7648768424987793,-0.8292045158198853,0.2588289678096771,-0.6212285200702112
1.6602416038513184,-1.694280286828512,-1.756433367729187,-0.8293618124774476,0.2586643099784851,-0.6340044180499476
1.654788613319397,-1.6903664074339808,-1.748044729232788,-0.8295385998538514,0.2585211396217346,-0.6475136915790003
1.6495076417922974,-1.686509748498434,-1.739964246749878,-0.8296137017062684,0.2583060562610626,-0.6616476217852991
1.6446396112442017,-1.682535787621969,-1.731626033782959,-0.829599456196167,0.2579972445964813,-0.6765115896808069
1.640371561050415,-1.678673883477682,-1.7230645418167114,-0.8297294539264222,0.2577612102031708,-0.6915300528155726
1.6365643739700317,-1.6749426327147425,-1.7150681018829346,-0.8297567528537293,0.25747212767601013,-0.7065385023700159
1.632961392402649,-1.670826097527975,-1.7061926126480103,-0.8298005026629944,0.25722020864486694,-0.7236116568194788
1.6308822631835938,-1.6679679356017054,-1.700446605682373,-0.8298061651042481,0.2569766044616699,-0.7345684210406702
1.6288995742797852,-1.6644469700255335,-1.6940068006515503,-0.8295679849437256,0.25665226578712463,-0.7468870321856897
1.6270949840545654,-1.661192079583639,-1.688760757446289,-0.8292358678630372,0.25629350543022156,-0.7575209776507776
1.6256529092788696,-1.6583734951415003,-1.6846662759780884,-0.8286518615535279,0.2558252513408661,-0.7666638533221644
1.6242952346801758,-1.6556340656676234,-1.6811034679412842,-0.8276903194240113,0.2553437352180481,-0.7749746481524866
1.6233985424041748,-1.6537453136839808,-1.6789090633392334,-0.8269469898990174,0.25500231981277466,-0.780341927205221
1.6225003004074097,-1.6515284977354945,-1.6765766143798828,-0.8259411019137879,0.25488829612731934,-0.7862232367144983
1.62210214138031,-1.65037264446401,-1.675628662109375,-0.8254291576198121,0.2549002170562744,-0.7890194098102015
1.6216058731079102,-1.6491934261717738,-1.6747558116912842,-0.8247299951365967,0.2548547387123108,-0.7919648329364222
1.6212550401687622,-1.6481300793089808,-1.6744556427001953,-0.8240695756724854,0.25495171546936035,-0.7942979971515101
1.6208933591842651,-1.6473552189269007,-1.6745742559432983,-0.8234223288348694,0.2551042437553406,-0.7959526220904749
1.6208343505859375,-1.646721979180807,-1.6746864318847656,-0.8228985828212281,0.2552766799926758,-0.7971652189837855
1.62091064453125,-1.6462232075133265,-1.6747132539749146,-0.8224754494479676,0.2554003596305847,-0.7981179396258753
1.6212258338928223,-1.6458069286742152,-1.6747419834136963,-0.8221407693675538,0.2555099427700043,-0.7988680044757288
1.621889591217041,-1.64552702526235,-1.6748415231704712,-0.8219248217395325,0.255648136138916,-0.7994983831988733
1.6231223344802856,-1.6453396282591761,-1.6750941276550293,-0.8218553227237244,0.2557799816131592,-0.8000734488116663
1.6247824430465698,-1.645149370233053,-1.6753062009811401,-0.8218735021403809,0.25589731335639954,-0.8005207220660608
1.6278239488601685,-1.6444727383055628,-1.6757302284240723,-0.821793870334961,0.2561463713645935,-0.8009675184832972
1.6296045780181885,-1.64390291790151,-1.6759467124938965,-0.8219006818583985,0.25632497668266296,-0.8011587301837366
1.632986307144165,-1.6430064640440882,-1.6764472723007202,-0.8220688861659546,0.2567078769207001,-0.8013203779803675
1.6373252868652344,-1.641770978967184,-1.677196979522705,-0.8222802442363282,0.25696733593940735,-0.8016589323626917
1.642558217048645,-1.6403452358641566,-1.678112268447876,-0.8224845093539734,0.2573890686035156,-0.8019445578204554
1.648728847503662,-1.6387635670103968,-1.6793193817138672,-0.8227051061442872,0.25778552889823914,-0.8022320906268519
1.655849575996399,-1.6370216808714808,-1.6808643341064453,-0.8229351800731202,0.2582220435142517,-0.8025053183185022
1.6637295484542847,-1.6353041134276332,-1.6825908422470093,-0.823011116390564,0.25866827368736267,-0.802748982106344
1.6719205379486084,-1.6332251034178675,-1.6846845149993896,-0.823251799946167,0.2590058147907257,-0.8029525915728968
1.680331826210022,-1.630749364892477,-1.6872413158416748,-0.8233581346324463,0.25936752557754517,-0.8031442801104944
1.689139723777771,-1.6276079616942347,-1.6902426481246948,-0.8234633964351197,0.2596057951450348,-0.8031023184405726
1.6985158920288086,-1.6241213283934535,-1.6938261985778809,-0.8234976095012208,0.25983577966690063,-0.8031590620623987
1.70852530002594,-1.6204725704588832,-1.6977648735046387,-0.8235578101924439,0.26001882553100586,-0.8031213919269007
1.719097375869751,-1.616497655908102,-1.701822280883789,-0.8236074608615418,0.26020511984825134,-0.8031352202044886
1.7303502559661865,-1.6122023067870082,-1.7060612440109253,-0.8235590022853394,0.26031169295310974,-0.8031042257892054
1.742655634880066,-1.6073972187437953,-1.710694432258606,-0.8236324948123475,0.2604406476020813,-0.8030965963946741
1.7528570890426636,-1.603490491906637,-1.7146742343902588,-0.8236944836429139,0.2605922818183899,-0.803039852772848
1.7663981914520264,-1.5984775028624476,-1.7199666500091553,-0.8236821454814454,0.2607288360595703,-0.80292255083193
1.777083396911621,-1.5946361027159632,-1.7241911888122559,-0.8237138551524659,0.26074665784835815,-0.8028581778155726
1.7905105352401733,-1.5898848972716273,-1.7293039560317993,-0.823688344364502,0.26080819964408875,-0.8027709166156214
1.803512692451477,-1.5854226551451625,-1.733786940574646,-0.8237453264049073,0.2607690989971161,-0.8026950995074671
1.8166934251785278,-1.5809790096678675,-1.7379103899002075,-0.8237166565707703,0.2608640789985657,-0.8026726881610315
1.8300039768218994,-1.5768305263915003,-1.7418162822723389,-0.8237498563579102,0.26084423065185547,-0.8025816122638147
1.843005657196045,-1.5730592213072718,-1.7454884052276611,-0.8237334054759522,0.26090294122695923,-0.8025081793414515
1.8559986352920532,-1.5696615913514798,-1.7490395307540894,-0.8237075370601197,0.26098397374153137,-0.8024786154376429
1.8686273097991943,-1.5662369502573092,-1.7525148391723633,-0.823725776081421,0.26108741760253906,-0.8023865858661097
1.8811393976211548,-1.5628963841921468,-1.7560116052627563,-0.8236836952022095,0.26113736629486084,-0.8024137655841272
1.8936959505081177,-1.559595962320902,-1.759356141090393,-0.823613242512085,0.2611236572265625,-0.8023594061480921
1.9062206745147705,-1.556647695866861,-1.7625603675842285,-0.8234118980220337,0.2611069083213806,-0.8023160139666956
1.9186780452728271,-1.5539447751692315,-1.7653716802597046,-0.8232457202724,0.2611086666584015,-0.8023160139666956
1.9306950569152832,-1.551494811927416,-1.768142580986023,-0.8230654758265992,0.26108741760253906,-0.8023083845721644
1.9424583911895752,-1.5493109461716195,-1.7710301876068115,-0.8228626412204285,0.2610514461994171,-0.8023026625262659
1.9539144039154053,-1.5471799162081261,-1.7741056680679321,-0.8227350872806092,0.2609900236129761,-0.8022368589984339
1.96485435962677,-1.5449530457011242,-1.7775384187698364,-0.822685496216156,0.26095813512802124,-0.8019354979144495
1.9754564762115479,-1.542784785186388,-1.7808603048324585,-0.8225503128818055,0.26091939210891724,-0.8015731016742151
1.985735535621643,-1.5405484114638348,-1.784245252609253,-0.8225009602359314,0.26091641187667847,-0.8010967413531702
1.9957102537155151,-1.5387834918550034,-1.7873159646987915,-0.8224319380572815,0.2608669400215149,-0.8005717436419886
2.0056307315826416,-1.5372238096645852,-1.7899540662765503,-0.8223765653422852,0.2608549892902374,-0.799896542225973
2.0154507160186768,-1.5359584850123902,-1.7921452522277832,-0.8223765653422852,0.26085948944091797,-0.7992551962481897
2.0251829624176025,-1.5348860633424302,-1.7939631938934326,-0.8222368520549317,0.26086854934692383,-0.7986128965960901
2.035156488418579,-1.534088460063078,-1.7952748537063599,-0.8220147651484986,0.26076942682266235,-0.7979992071734827
2.0452582836151123,-1.53337915361438,-1.7963945865631104,-0.8218570512584229,0.26084405183792114,-0.7973969618426722
2.055262804031372,-1.5327849251082917,-1.797374963760376,-0.8216962975314637,0.26080358028411865,-0.796889607106344
2.065347671508789,-1.5323170286468049,-1.7981568574905396,-0.8214820188334961,0.26080358028411865,-0.7964542547809046
2.0755491256713867,-1.5320924532464524,-1.79873788356781,-0.821330265407898,0.26080358028411865,-0.7960470358477991
2.085561990737915,-1.5318554279259224,-1.7992247343063354,-0.8212521833232422,0.26080358028411865,-0.7957680861102503
2.095379590988159,-1.5316902262023468,-1.7995980978012085,-0.8211066883853455,0.2607872486114502,-0.7956979910479944
2.105165719985962,-1.5316155788353463,-1.7998690605163574,-0.8210809987834473,0.26080358028411865,-0.7955887953387659
2.115056037902832,-1.53152700633321,-1.8000973463058472,-0.8209430736354371,0.26076337695121765,-0.7956317106830042
2.125201463699341,-1.531447486286499,-1.8002005815505981,-0.8209158939174195,0.26077529788017273,-0.7956588904010218
2.1356890201568604,-1.5313469928554078,-1.80031156539917,-0.8208425802043458,0.26075562834739685,-0.7956455389605921
2.146360158920288,-1.5312133443406601,-1.8003921508789062,-0.8207783860019227,0.26078280806541443,-0.7956674734698694
2.1571877002716064,-1.5310636323741456,-1.8005114793777466,-0.820791558628418,0.26076656579971313,-0.7957742849933069
2.1679458618164062,-1.5307379451445122,-1.8005691766738892,-0.8207478684237977,0.2607679069042206,-0.7958233992206019
2.177835702896118,-1.5304140907577057,-1.8006953001022339,-0.8207553190043946,0.2607678472995758,-0.7959225813495081
2.188915491104126,-1.5298787404647847,-1.800779104232788,-0.8206942242434998,0.2607678472995758,-0.7958725134478968
2.1988525390625,-1.5293075417033215,-1.8008053302764893,-0.8207193177989502,0.2607872486114502,-0.7958858648883265
2.2095367908477783,-1.528539714669325,-1.8008131980895996,-0.8207162183574219,0.2607665956020355,-0.795840088521139
2.2208127975463867,-1.527752475147583,-1.8007893562316895,-0.8206833165935059,0.26086705923080444,-0.7957699934588831
2.2314844131469727,-1.5269817386618634,-1.8008311986923218,-0.8207324904254456,0.2612568140029907,-0.7956736723529261
2.242217540740967,-1.5260065470686932,-1.8012386560440063,-0.8206907671741028,0.26183295249938965,-0.7956064383136194
2.2529749870300293,-1.5250124049237748,-1.8017593622207642,-0.8206833165935059,0.26256969571113586,-0.7956455389605921
2.263948917388916,-1.5237179857543488,-1.8025457859039307,-0.8207329672626038,0.26336127519607544,-0.7956317106830042
2.2753288745880127,-1.5220863235047837,-1.8033854961395264,-0.8206878465465088,0.2641099989414215,-0.7956965605365198
2.35308837890625,-1.5079912033728142,-1.8115806579589844,-0.8206713956645508,0.2668899595737457,-0.7961443106280726
2.352678060531616,-1.5133082580617447,-1.8005465269088745,-0.8204568785480042,0.27453574538230896,-0.7992637793170374
2.351430654525757,-1.5246143204024811,-1.7769267559051514,-0.820110098724701,0.29012078046798706,-0.8058069388019007
2.349576711654663,-1.5379762810519715,-1.7510628700256348,-0.8199178141406556,0.307463675737381,-0.813082520161764
2.3467345237731934,-1.5535778005472203,-1.7212331295013428,-0.8196549576571961,0.3274277150630951,-0.8214066664325159
2.343050003051758,-1.5683128985441108,-1.6934560537338257,-0.8192500633052369,0.34584149718284607,-0.8291295210467737
2.3390002250671387,-1.5797845325865687,-1.6718143224716187,-0.818885402088501,0.36013421416282654,-0.8349879423724573
2.334186553955078,-1.5903588734068812,-1.6513841152191162,-0.8186103862575074,0.37336984276771545,-0.8402689138995569
2.329340696334839,-1.5997845135130824,-1.6348410844802856,-0.8185143035701294,0.38432589173316956,-0.8447688261615198
2.3243067264556885,-1.6078626118102015,-1.6206034421920776,-0.8182905477336426,0.3932916522026062,-0.8483994642840784
2.319631576538086,-1.6150251827635707,-1.6095443964004517,-0.8181407612613221,0.4007164537906647,-0.8513019720660608
2.31516432762146,-1.6211444340147914,-1.600154161453247,-0.8178869050792237,0.4066612422466278,-0.8536632696734827
2.3112952709198,-1.62632479290151,-1.5924367904663086,-0.8170600694468995,0.4113485813140869,-0.8556202093707483
2.3078551292419434,-1.6310397587218226,-1.5864927768707275,-0.8154661816409607,0.41499063372612,-0.8572166601764124
2.3046979904174805,-1.6353470287718714,-1.5815256834030151,-0.8126507562449952,0.4179157316684723,-0.8585551420794886
2.301206588745117,-1.6396066151061,-1.577560305595398,-0.8089200419238587,0.42020344734191895,-0.8596413771258753
2.2973380088806152,-1.643491884271139,-1.5742603540420532,-0.8044999998858948,0.42192888259887695,-0.8605211416827601
2.2931129932403564,-1.6475612125792445,-1.5715124607086182,-0.79969675958667,0.42337334156036377,-0.8612244764911097
2.288980007171631,-1.6519676647581996,-1.568764090538025,-0.79471708953891,0.4245185852050781,-0.8617213408099573
2.2852706909179688,-1.6562758884825648,-1.5659096240997314,-0.7903660100749512,0.42519474029541016,-0.8622506300555628
2.281468391418457,-1.661314149896139,-1.5623518228530884,-0.7857965987971802,0.42600497603416443,-0.8626802603351038
2.27836012840271,-1.666164060632223,-1.5586304664611816,-0.7821144026568909,0.4266599714756012,-0.8631370703326624
2.2755985260009766,-1.6710955105223597,-1.5547614097595215,-0.7789486211589356,0.4271622598171234,-0.8635342756854456
2.2731456756591797,-1.6758867702879847,-1.5508049726486206,-0.7762161058238526,0.4274330139160156,-0.8640063444720667
2.2707326412200928,-1.6805006466307582,-1.5472919940948486,-0.7740618747523804,0.42754387855529785,-0.8644912878619593
2.2677555084228516,-1.6855069599547328,-1.5433928966522217,-0.7717818778804322,0.42769479751586914,-0.8648646513568323
2.2646830081939697,-1.6903454265990199,-1.5400041341781616,-0.7696367663196106,0.4277770519256592,-0.8652971426593226
2.2614216804504395,-1.6949550114073695,-1.5368014574050903,-0.767508403663971,0.427832692861557,-0.8657806555377405
2.2580716609954834,-1.6993352375426234,-1.5337015390396118,-0.7652571362308045,0.42805933952331543,-0.8663094679461878
2.2555463314056396,-1.702963491479391,-1.531141757965088,-0.7635380786708375,0.4282015562057495,-0.866760555897848
2.2530720233917236,-1.7067214451231898,-1.5284396409988403,-0.7618596714786072,0.4283977448940277,-0.8673027197467249
2.2507002353668213,-1.7105499706664027,-1.5256397724151611,-0.7603370112231751,0.42846915125846863,-0.8679636160479944
2.248901605606079,-1.7137471638121546,-1.52300226688385,-0.7592497032931824,0.4285486936569214,-0.8684776465045374
2.24717116355896,-1.716649671594137,-1.5202659368515015,-0.7583496135524292,0.4286429286003113,-0.8690016905414026
2.24507999420166,-1.7201000652708949,-1.5170220136642456,-0.757531003361084,0.42878690361976624,-0.869415585194723
2.2427217960357666,-1.7238122425475062,-1.5137664079666138,-0.7569685739329834,0.4289228022098541,-0.869791332875387
2.2401351928710938,-1.727666517297262,-1.5103410482406616,-0.7563911837390442,0.42904356122016907,-0.8700254599200647
2.2368459701538086,-1.7323762379088343,-1.5061225891113281,-0.7557099026492615,0.4291553497314453,-0.8703392187701624
2.2335076332092285,-1.7371474705138148,-1.5020380020141602,-0.7549584072879334,0.42922264337539673,-0.8704851309405726
2.2303695678710938,-1.7418414554991664,-1.4983433485031128,-0.7540961068919678,0.42922157049179077,-0.8706377188311976
2.2274158000946045,-1.7470346889891566,-1.4944992065429688,-0.7529394191554566,0.4294458329677582,-0.8708518187152308
2.2247416973114014,-1.752434869805807,-1.4906680583953857,-0.7514258188060303,0.42979276180267334,-0.8709343115435999
2.222290515899658,-1.75834383587026,-1.486621379852295,-0.7492975753596802,0.43041878938674927,-0.8710058371173304
2.2201998233795166,-1.7639361820616664,-1.4830737113952637,-0.7465855640224,0.43141189217567444,-0.8710573355304163
2.2181241512298584,-1.7696062527098597,-1.4797608852386475,-0.7431383293918152,0.43272465467453003,-0.8711217085467737
2.2152457237243652,-1.7759291134276332,-1.4762076139450073,-0.7387148898890992,0.434514582157135,-0.8711579481707972
2.2128374576568604,-1.780675550500387,-1.4736137390136719,-0.7351465386203309,0.43614718317985535,-0.8711941877948206
2.209214925765991,-1.787058492700094,-1.4702656269073486,-0.7303105157664795,0.4389457702636719,-0.8712461630450647
2.205474853515625,-1.793140550652975,-1.4673094749450684,-0.7256667178920289,0.44233238697052,-0.8712294737445276
2.201948642730713,-1.799077650109762,-1.4642647504806519,-0.7210275095752259,0.4463573694229126,-0.87128192583193
2.1989426612854004,-1.80458464244985,-1.461440920829773,-0.7167115372470398,0.4501412808895111,-0.8712571302997034
2.195794105529785,-1.810071130792135,-1.458543062210083,-0.7122783821872254,0.4541611075401306,-0.8712657133685511
2.192575216293335,-1.8159405193724574,-1.4555367231369019,-0.7079906624606629,0.45817428827285767,-0.8713071982013147
2.1893622875213623,-1.8212601147093714,-1.452643871307373,-0.704490677719452,0.4613563120365143,-0.8712495009051722
2.1863622665405273,-1.8264552555479945,-1.4498858451843262,-0.7013716858676453,0.4641825556755066,-0.8712895552264612
2.183586835861206,-1.831224103967184,-1.4473708868026733,-0.6988962453654786,0.46642810106277466,-0.8712690512286585
2.1811606884002686,-1.8354655704894007,-1.4449001550674438,-0.6968203347972413,0.46835172176361084,-0.8712938467608851
2.1791012287139893,-1.8395444355406703,-1.4426711797714233,-0.6951219004443665,0.4698239862918854,-0.8713343779193323
2.177292823791504,-1.843377252618307,-1.440676212310791,-0.6937362116626282,0.4710499942302704,-0.87128192583193
2.175960063934326,-1.84708895305776,-1.4390037059783936,-0.6925693315318604,0.472047358751297,-0.8712976614581507
2.174767255783081,-1.8505217037596644,-1.4375460147857666,-0.6913342040828248,0.4728128910064697,-0.8712690512286585
2.1738922595977783,-1.8534161053099574,-1.4363412857055664,-0.6899094146541138,0.47336316108703613,-0.8713019529925745
2.1732072830200195,-1.85646452526235,-1.435311198234558,-0.6876595181277771,0.47390294075012207,-0.8712685743915003
2.1724956035614014,-1.8597809276976527,-1.434432029724121,-0.6843732756427308,0.4743099510669708,-0.8713110128985804
2.171891450881958,-1.8629514179625453,-1.4337191581726074,-0.680582122211792,0.4745022654533386,-0.8713396231280726
2.1713879108428955,-1.865903993646139,-1.4332070350646973,-0.6766725343516846,0.474773645401001,-0.8713396231280726
2.170616388320923,-1.8695761166014613,-1.4328871965408325,-0.6716631215861817,0.4750129282474518,-0.8712971846209925
2.169508934020996,-1.8733307323851527,-1.4324979782104492,-0.6670980018428345,0.475165456533432,-0.8712638060199183
2.1681647300720215,-1.876658102075094,-1.432205319404602,-0.663269655113556,0.47533106803894043,-0.8712847868548792
2.1667473316192627,-1.8799926243224085,-1.4317958354949951,-0.6599734586528321,0.4755701422691345,-0.8712685743915003
2.1651763916015625,-1.8832365475096644,-1.4314372539520264,-0.6569118064692994,0.4757242202758789,-0.8713305632220667
2.1637566089630127,-1.8860060177245082,-1.4311798810958862,-0.654383973484375,0.47591105103492737,-0.8713272253619593
2.162492275238037,-1.88865389446401,-1.4308905601501465,-0.6522236627391358,0.47612178325653076,-0.8713062445269983
2.1613733768463135,-1.891036172906393,-1.4306857585906982,-0.6503935617259522,0.47635531425476074,-0.8713181654559534
2.160473346710205,-1.8931766949095667,-1.4305388927459717,-0.6488422316363831,0.4764420986175537,-0.8713133970843714
2.1596405506134033,-1.8951221905150355,-1.4304594993591309,-0.647722141151764,0.47655272483825684,-0.8712971846209925
2.159043312072754,-1.8969046078123988,-1.4304145574569702,-0.646607057457306,0.4766436815261841,-0.8712995688067835
2.1585693359375,-1.8984552822508753,-1.4304389953613281,-0.6454991859248658,0.4767739474773407,-0.8713486830340784
2.1581478118896484,-1.8998118839659632,-1.4305616617202759,-0.6438494485667725,0.4767661988735199,-0.8712638060199183
2.1578731536865234,-1.901177545587057,-1.4307085275650024,-0.6415250462344666,0.47690704464912415,-0.8712804953204554
2.157667875289917,-1.9025727711119593,-1.4310147762298584,-0.6388614934733887,0.4769890010356903,-0.8713133970843714
2.1575450897216797,-1.9041172466673792,-1.4314906597137451,-0.6354949635318299,0.4771568775177002,-0.8713348547564905
2.1574323177337646,-1.9058453045287074,-1.432146430015564,-0.6315756601146241,0.47716885805130005,-0.8713019529925745
2.157360315322876,-1.9074722729124964,-1.4328110218048096,-0.6277908247760315,0.4772317409515381,-0.8712943235980433
2.157228469848633,-1.90958895305776,-1.4337968826293945,-0.6232288044742127,0.4772959053516388,-0.8713086287127894
2.157076597213745,-1.911238809625143,-1.4345614910125732,-0.619678334598877,0.477293998003006,-0.8712943235980433
2.1568350791931152,-1.9131137333311976,-1.4354461431503296,-0.6158799690059205,0.4772958755493164,-0.8713067213641565
2.156782388687134,-1.9150496921935023,-1.436103105545044,-0.6120044153979798,0.47730326652526855,-0.8713396231280726
2.1566250324249268,-1.916760107079977,-1.436641812324524,-0.6088789266398926,0.477265864610672,-0.8713067213641565
2.1564884185791016,-1.918398996392721,-1.4370672702789307,-0.6059680742076416,0.4772929847240448,-0.8713062445269983
2.1563141345977783,-1.9200817547240199,-1.4374417066574097,-0.603409008388855,0.47724372148513794,-0.8712399641620081
2.156121015548706,-1.921309610406393,-1.4376015663146973,-0.6015462440303345,0.47720035910606384,-0.8713086287127894
2.1560568809509277,-1.9223362408080042,-1.437755823135376,-0.5997988742640992,0.47721388936042786,-0.8713019529925745
2.1560773849487305,-1.9232403240599574,-1.4379441738128662,-0.5984780949405213,0.47718530893325806,-0.8713210264789026
2.1560611724853516,-1.9237262211241664,-1.4380950927734375,-0.5975009959987183,0.47716888785362244,-0.8712847868548792
2.1561179161071777,-1.9242102108397425,-1.438246488571167,-0.5966480535319825,0.4771478772163391,-0.8713133970843714
2.1560568809509277,-1.9243508778014125,-1.4383782148361206,-0.5960963529399415,0.4770699143409729,-0.8712447325335901
2.156076192855835,-1.9242474041380824,-1.4384286403656006,-0.5957803887179871,0.4771285057067871,-0.8712757269488733
2.1560556888580322,-1.923990388909811,-1.4386941194534302,-0.5957415860942383,0.47712117433547974,-0.8713133970843714
2.1561331748962402,-1.9232374630370082,-1.4393337965011597,-0.5957620900920411,0.47708338499069214,-0.8712976614581507
2.156170129776001,-1.922743936578268,-1.4399118423461914,-0.5957697194865723,0.4771120548248291,-0.8713167349444788
2.1561295986175537,-1.921751161614889,-1.4412771463394165,-0.5958016675761719,0.4770805835723877,-0.8714798132525843
2.1560537815093994,-1.920727392236227,-1.4426043033599854,-0.5960210126689454,0.47707605361938477,-0.8716900984393519
2.1560261249542236,-1.9196421108641566,-1.4440546035766602,-0.5963841837695618,0.4770522117614746,-0.871868912373678
2.15590500831604,-1.9185849628844203,-1.4455827474594116,-0.5967796009830018,0.4770669639110565,-0.8719967047320765
2.155804395675659,-1.9173695049681605,-1.4471890926361084,-0.5972675842097779,0.47708967328071594,-0.8722365538226526
2.155689239501953,-1.9159041843810023,-1.4486631155014038,-0.5977387589267273,0.4770088195800781,-0.8725240866290491
2.155656099319458,-1.913985391656393,-1.4504714012145996,-0.598257915382721,0.47692519426345825,-0.8728378454791468
2.155773162841797,-1.9113499126830042,-1.4525880813598633,-0.5987861913493653,0.4767901599407196,-0.8730424086200159
2.1561570167541504,-1.908353944818014,-1.4549269676208496,-0.5995642703822632,0.4765901267528534,-0.8733752409564417
2.1568784713745117,-1.9043742618956507,-1.4578042030334473,-0.6003298920444031,0.4762444496154785,-0.8737576643573206
2.1579911708831787,-1.8995005093016566,-1.4613291025161743,-0.6011670392802735,0.47611624002456665,-0.8741090933429163
2.1595664024353027,-1.8939601383604945,-1.4655375480651855,-0.6020093125155945,0.4758181869983673,-0.8743856588946741
2.1619210243225098,-1.8875724277892054,-1.4705228805541992,-0.6030194920352479,0.4756990373134613,-0.874674145375387
2.164928913116455,-1.8812619648375453,-1.4756206274032593,-0.6039378207973023,0.4754699766635895,-0.8750165144549769
2.1685919761657715,-1.8752981624998988,-1.4805501699447632,-0.6048095983317872,0.47524115443229675,-0.875552002583639
2.173635482788086,-1.868387838403219,-1.4859528541564941,-0.6058654946139832,0.4750348925590515,-0.8771951834308069
2.17885422706604,-1.8615180454649867,-1.4911576509475708,-0.6068639320186158,0.47473442554473877,-0.8805215994464319
2.1840929985046387,-1.8542396030821742,-1.4967204332351685,-0.607738272552826,0.4743202328681946,-0.885451618825094
2.1888461112976074,-1.8470355472960414,-1.5022205114364624,-0.6082709592631836,0.47394949197769165,-0.8918927351581019
2.193312883377075,-1.8392864666380824,-1.5087887048721313,-0.6086724561503907,0.47344091534614563,-0.9002397696124476
2.197282552719116,-1.831200738946432,-1.5154592990875244,-0.6088025730899354,0.4729757606983185,-0.9098342100726526
2.201141357421875,-1.8217455349364222,-1.5230292081832886,-0.6089130204967041,0.4723854959011078,-0.9206865469561976
2.20438289642334,-1.8117295704283656,-1.5314223766326904,-0.6089776915362854,0.4719202220439911,-0.9311545530902308
2.207733392715454,-1.8006164036192835,-1.5414276123046875,-0.6090043944171448,0.4713956415653229,-0.9414399305926722
2.2117412090301514,-1.7883221111693324,-1.5519566535949707,-0.6091357630542298,0.47100672125816345,-0.9508679548846644
2.2162864208221436,-1.7758337459959925,-1.562644124031067,-0.6092770260623475,0.4704936742782593,-0.9589203039752405
2.221853733062744,-1.7619625530638636,-1.5757819414138794,-0.6095175904086609,0.46951887011528015,-0.966196362172262
2.2284202575683594,-1.7467061481871546,-1.5896086692810059,-0.609628753071167,0.4672001600265503,-0.9727180639850062
2.2349958419799805,-1.7322074375548304,-1.6037068367004395,-0.6097858113101502,0.4632498621940613,-0.9778087774859827
2.2414090633392334,-1.7186242542662562,-1.6162948608398438,-0.6100030702403565,0.4579699635505676,-0.9818576017962855
2.2485270500183105,-1.7046863041319789,-1.6292880773544312,-0.6103428167155762,0.451019823551178,-0.9854596296893519
2.2565464973449707,-1.6906801662840785,-1.6426700353622437,-0.6108215612224122,0.44251930713653564,-0.9887073675738733
2.2640371322631836,-1.6784359417357386,-1.6539311408996582,-0.6112339657596131,0.43459874391555786,-0.9916213194476526
2.270674228668213,-1.6680623493590296,-1.664367914199829,-0.6117964547923584,0.4274951219558716,-0.9942715803729456
2.2774806022644043,-1.6573907337584437,-1.674747109413147,-0.6123665136149903,0.42052724957466125,-0.9971025625811976
2.2828257083892822,-1.6487156353392542,-1.6829278469085693,-0.6128621858409424,0.41481417417526245,-0.9995992819415491
2.287099599838257,-1.6415235004820765,-1.6897133588790894,-0.6133023065379639,0.41035348176956177,-1.0016334692584437
2.2906131744384766,-1.6348043880858363,-1.6961554288864136,-0.6136403840831299,0.40641939640045166,-1.0033558050738733
2.2934858798980713,-1.6288720570006312,-1.7014987468719482,-0.6139233869365235,0.40296652913093567,-1.0048235098468226
2.2951138019561768,-1.6242128811278285,-1.7054489850997925,-0.6141320031932374,0.4004039168357849,-1.0058539549456995
2.295823574066162,-1.6206556759276332,-1.7086726427078247,-0.6143844884685059,0.39847803115844727,-1.0066259543048304
2.295520544052124,-1.6170836887755335,-1.7121185064315796,-0.6145313543132325,0.3967597782611847,-1.0073040167437952
2.2939586639404297,-1.614157339135641,-1.7150532007217407,-0.6146708291820069,0.3955112397670746,-1.0077255407916468
2.290492057800293,-1.6115857563414515,-1.7178655862808228,-0.6147331160357972,0.3944586217403412,-1.0077593962298792
2.2852141857147217,-1.609725137750143,-1.7202391624450684,-0.6148882073215027,0.3937690258026123,-1.0077803770648401
2.2772910594940186,-1.6080004177489222,-1.7222703695297241,-0.6148280662349244,0.39320826530456543,-1.0076106230365198
2.2671635150909424,-1.6065732441344203,-1.7240804433822632,-0.6149204534343262,0.3928109109401703,-1.0073640982257288
2.2550556659698486,-1.6054250202574671,-1.7253847122192383,-0.6150055688670655,0.3927132785320282,-1.00698167482485
2.241316556930542,-1.6045710049071253,-1.7265596389770508,-0.6150181454471131,0.39284348487854004,-1.0063985029803675
2.2261693477630615,-1.6038366756834925,-1.7275429964065552,-0.6150446695140381,0.39307865500450134,-1.005599323903219
2.2100400924682617,-1.6033202610411585,-1.7283616065979004,-0.6150894922069092,0.39348793029785156,-1.0048769156085413
2.19175386428833,-1.6029898128905238,-1.7291452884674072,-0.6150565904429932,0.3942444324493408,-1.0038664976703089
2.1728262901306152,-1.602910657922262,-1.7301390171051025,-0.6150894922069092,0.3953824043273926,-1.0024007002459925
2.1543147563934326,-1.6029325924315394,-1.7311186790466309,-0.6150968831828614,0.39665931463241577,-1.0000255743609827
2.138197422027588,-1.6031300030150355,-1.732154130935669,-0.6150757235339661,0.39843854308128357,-0.9968698660479944
2.1106462478637695,-1.6037632427611292,-1.7346810102462769,-0.6151303213885804,0.40404051542282104,-0.9896767775165003
2.0980947017669678,-1.604035039941305,-1.7360609769821167,-0.6151256722262879,0.4079386591911316,-0.9855979124652308
2.0821163654327393,-1.6044632397093714,-1.7381227016448975,-0.61516888559375,0.4144262969493866,-0.980109993611471
2.063185930252075,-1.6051327190794886,-1.740598440170288,-0.6152801078609009,0.42388617992401123,-0.9731219450580042
2.043651819229126,-1.6061989269652308,-1.7430708408355713,-0.6155135196498414,0.4357197880744934,-0.9657695929156702
2.0234556198120117,-1.607311864892477,-1.7453763484954834,-0.615763322716095,0.4495437741279602,-0.9583995977984827
2.0030667781829834,-1.6085692844786585,-1.7474029064178467,-0.616199330692627,0.4651455581188202,-0.9511540571795862
1.9833379983901978,-1.609716077844137,-1.7492855787277222,-0.6170177620700379,0.48169901967048645,-0.9442003409015101
1.963195562362671,-1.6107474766173304,-1.7508662939071655,-0.6185954374125977,0.4996128976345062,-0.9367907683001917
1.9468045234680176,-1.6115614376463832,-1.7519540786743164,-0.6205967229655762,0.5148496627807617,-0.9300978819476526
1.9306377172470093,-1.6123105488219203,-1.7529189586639404,-0.623331682091095,0.5303159356117249,-0.9226358572589319
1.9168028831481934,-1.6129023037352503,-1.7536323070526123,-0.6263902944377442,0.5436937212944031,-0.9153426329242151
1.9024287462234497,-1.6134425602354945,-1.7543435096740723,-0.6305027169040223,0.5575932264328003,-0.9065807501422327
1.8910346031188965,-1.6138197384276332,-1.754688024520874,-0.6347103279880066,0.5688642859458923,-0.898534123097555
1.8794093132019043,-1.6140643558897914,-1.7547924518585205,-0.6403739017299195,0.5808850526809692,-0.8885734716998499
1.8705517053604126,-1.6139980755248011,-1.754723310470581,-0.6464348596385499,0.5912225842475891,-0.878794018422262
1.8620058298110962,-1.613960405389303,-1.7544578313827515,-0.6546332401088257,0.6029558777809143,-0.8660872618304651
1.8551511764526367,-1.6140028438963832,-1.7542650699615479,-0.6638586682132264,0.6147992014884949,-0.8523200193988245
1.8491500616073608,-1.614019056359762,-1.753991723060608,-0.6745703977397461,0.6279235482215881,-0.8365548292743128
1.8435897827148438,-1.614056249658102,-1.7536197900772095,-0.6862264436534424,0.6417660117149353,-0.8195918242083948
1.836937427520752,-1.6140595875182093,-1.7530628442764282,-0.7011735004237671,0.659853994846344,-0.7982633749591272
1.830527424812317,-1.6141272983946742,-1.7524142265319824,-0.7159171265414734,0.677616536617279,-0.777722183858053
1.8228002786636353,-1.614448686639303,-1.7511236667633057,-0.7340142291835328,0.7005419731140137,-0.7532261053668421
1.8153903484344482,-1.6150266132750453,-1.749387502670288,-0.7521355909160157,0.72425776720047,-0.7289755980121058
1.8083771467208862,-1.6157709560790003,-1.7470180988311768,-0.7711960834315796,0.7499561309814453,-0.7043665091144007
1.8021880388259888,-1.6163956127562464,-1.744287133216858,-0.7906832855990906,0.777420163154602,-0.6796429792987269
1.796265959739685,-1.6170488796629847,-1.740864634513855,-0.8120513123324891,0.8083422183990479,-0.6535728613482874
1.7915303707122803,-1.6176148853697718,-1.7373569011688232,-0.8324822348407288,0.83857262134552,-0.628730599080221
1.787950873374939,-1.618147989312643,-1.7341089248657227,-0.8504146498492737,0.8659071922302246,-0.6068108717547815
1.7845559120178223,-1.6187602482237757,-1.7302824258804321,-0.8710243862918396,0.8975619673728943,-0.5814440886126917
1.7817522287368774,-1.6192833385863246,-1.7261725664138794,-0.8928867739490052,0.931186318397522,-0.5535357634173792
1.779687523841858,-1.619685789147848,-1.7226084470748901,-0.9121424716762085,0.9606233835220337,-0.5284073988543909
1.7780307531356812,-1.620016714135641,-1.7187832593917847,-0.9325015109828492,0.9917059540748596,-0.5012949148761194
1.7767904996871948,-1.6202846966185511,-1.7149602174758911,-0.9528024953654786,1.0223803520202637,-0.4740822950946253
1.7759193181991577,-1.6204782925047816,-1.7109261751174927,-0.9730609816363831,1.0522078275680542,-0.44676524797548467
1.7752282619476318,-1.6205769977965296,-1.7069412469863892,-0.9929437798312684,1.0814875364303589,-0.419260327016012
1.7745908498764038,-1.6206852398314417,-1.7023847103118896,-1.0133837026408692,1.111652135848999,-0.389716927205221
1.774085521697998,-1.6207505665221156,-1.6976046562194824,-1.0334593814662476,1.1404563188552856,-0.35940343538393194
1.7736732959747314,-1.6208507023253382,-1.6936231851577759,-1.0499884647182007,1.1633037328720093,-0.33402711549867803
1.7734111547470093,-1.620955606500143,-1.6888771057128906,-1.0692618650249024,1.1881004571914673,-0.30503827730287725
1.7732471227645874,-1.621071001092428,-1.683998465538025,-1.0892666739276429,1.2117491960525513,-0.27650338808168584
1.773305892944336,-1.621162553826803,-1.6780482530593872,-1.1126343768886109,1.2374781370162964,-0.24523955980409795
1.773364782333374,-1.6212746105589808,-1.6733481884002686,-1.1313518744758149,1.257097601890564,-0.22207576433290654
1.773322343826294,-1.621291299859518,-1.6677049398422241,-1.1529685717872162,1.2788267135620117,-0.19739991823305303
1.773313283920288,-1.6214171848692835,-1.6615872383117676,-1.175674394970276,1.300898551940918,-0.1736686865435999
1.7731740474700928,-1.6216479740538539,-1.6559457778930664,-1.1979122024825593,1.3217169046401978,-0.15299827257265264
1.7729341983795166,-1.6217872105040492,-1.651798129081726,-1.2157434982112427,1.3375072479248047,-0.13810426393617803
1.7727510929107666,-1.621716638604635,-1.6461796760559082,-1.2404852372458954,1.3573939800262451,-0.11991006532777959
1.772652268409729,-1.6217285595335902,-1.643013834953308,-1.2552611094764252,1.3679276704788208,-0.11044437090028936
1.772545576095581,-1.621803422967428,-1.6389108896255493,-1.2752245527556916,1.3812814950942993,-0.09889394441713506
1.7725591659545898,-1.6217404804625453,-1.6351526975631714,-1.2956863802722474,1.3939515352249146,-0.08837825456728154
1.7724615335464478,-1.62180819133901,-1.6317692995071411,-1.3164292138865967,1.4066758155822754,-0.07874519029726201
1.7723444700241089,-1.6217824421324671,-1.6283611059188843,-1.3373095405152817,1.4193741083145142,-0.06968957582582647
1.7721138000488281,-1.621775289575094,-1.6242848634719849,-1.3618685615113755,1.434971570968628,-0.059841457997457326
1.771765947341919,-1.621779581109518,-1.6214978694915771,-1.3788715165904541,1.4452921152114868,-0.05374128023256475
1.7713100910186768,-1.6217090092101039,-1.6179505586624146,-1.4006986630013962,1.4580397605895996,-0.04684907594789678
1.7710027694702148,-1.6217600307860316,-1.6152373552322388,-1.4189559829286118,1.4681693315505981,-0.04171735445131475
1.7706382274627686,-1.621746679345602,-1.6125470399856567,-1.4371558141759415,1.4776123762130737,-0.03703958192934209
1.770328164100647,-1.6217061481871546,-1.610215425491333,-1.4534565967372437,1.4854804277420044,-0.033275906239644826
1.7698777914047241,-1.6216746769347132,-1.6082911491394043,-1.4676935908249398,1.4919136762619019,-0.03015453020204717
1.7694534063339233,-1.6216355762877406,-1.6067118644714355,-1.4797518488815804,1.4973269701004028,-0.02758962312807256
1.7690143585205078,-1.6215864620604457,-1.6053669452667236,-1.489902065401413,1.5017989873886108,-0.02558023134340459
1.7687039375305176,-1.62156405071401,-1.6042261123657227,-1.4983941328576584,1.5053554773330688,-0.023977581654683888
1.7683711051940918,-1.6214753590025843,-1.6033978462219238,-1.5056823727539559,1.5082855224609375,-0.022767368947164357
1.7681504487991333,-1.6214710674681605,-1.602782964706421,-1.511986458008625,1.5104938745498657,-0.02174693742860967
1.7680110931396484,-1.6214753590025843,-1.6023881435394287,-1.5174984832159062,1.5122820138931274,-0.02100068727602178
1.7678911685943604,-1.6214190922179164,-1.6021442413330078,-1.5222905439189454,1.513705849647522,-0.02041942278017217
1.7677453756332397,-1.6215173206725062,-1.6019126176834106,-1.5265494000962754,1.5148885250091553,-0.0199359099017542
1.7675930261611938,-1.6214472256102503,-1.6016186475753784,-1.5300148253193875,1.515750765800476,-0.019604031239644826
1.7670495510101318,-1.6214472256102503,-1.601335883140564,-1.533086748128273,1.5164964199066162,-0.01930123964418584
1.7661830186843872,-1.6214844189085902,-1.6007393598556519,-1.535489783888199,1.5170422792434692,-0.01896983781923467
1.7645989656448364,-1.6214429340758265,-1.5999585390090942,-1.5376652044108887,1.5176416635513306,-0.018611733113424123
1.7620429992675781,-1.6214667759337367,-1.5985101461410522,-1.5407738362303753,1.518620491027832,-0.017896477376119435
1.7586731910705566,-1.6215516529478968,-1.5965768098831177,-1.5452430055341502,1.5201011896133423,-0.01697236696352178
1.7552666664123535,-1.6216355762877406,-1.5943074226379395,-1.5511387188783665,1.5220675468444824,-0.01601297060121709
1.7521010637283325,-1.6217228374876917,-1.5918785333633423,-1.5580086645535012,1.5246105194091797,-0.015039745961324513
1.7491211891174316,-1.6218906841673792,-1.5894756317138672,-1.5656892860173066,1.527320384979248,-0.014280144368306935
1.746648907661438,-1.6220742664732875,-1.5875648260116577,-1.5725118122496546,1.5297619104385376,-0.013538185750142873
1.7445721626281738,-1.6222096882262171,-1.5862468481063843,-1.5785914860167445,1.5318830013275146,-0.013049904500142873
1.7428584098815918,-1.6223818264403285,-1.5854111909866333,-1.583581110040182,1.5336580276489258,-0.012514416371480763
1.741270661354065,-1.6225587330260218,-1.584763765335083,-1.5880290470519007,1.5353151559829712,-0.012196842824117482
1.7399190664291382,-1.62268128017568,-1.5845180749893188,-1.5919581852354945,1.5366507768630981,-0.01185638109316045
1.7388709783554077,-1.6227380237975062,-1.5845463275909424,-1.5948068104186,1.5376547574996948,-0.011643234883443654
1.7379547357559204,-1.6227127514281214,-1.584588885307312,-1.5973192654051722,1.538556694984436,-0.01145345369447881
1.7373234033584595,-1.6227323017516078,-1.584676742553711,-1.5991598568358363,1.5391716957092285,-0.011333767567769826
1.7367644309997559,-1.6228863201537074,-1.5848397016525269,-1.6007243595519007,1.5397392511367798,-0.011203591023580373
1.7363651990890503,-1.623120447198385,-1.5850163698196411,-1.6018525562682093,1.5401870012283325,-0.011043850575582326
1.7360491752624512,-1.623364110986227,-1.5851267576217651,-1.6026693783202113,1.540530800819397,-0.010918442402974904
1.73587965965271,-1.6235705814757289,-1.5852733850479126,-1.6032148800291957,1.5407756567001343,-0.01077300706972295
1.7356890439987183,-1.623695512811178,-1.5854350328445435,-1.6035505733885707,1.5409184694290161,-0.01068431535829717
1.7356066703796387,-1.6237579784789027,-1.5856544971466064,-1.6038466892638148,1.5411396026611328,-0.010613743458883107
1.7354971170425415,-1.6239239178099574,-1.5859684944152832,-1.6040269337096156,1.5411999225616455,-0.010520760213033498
1.735342264175415,-1.6239916286864222,-1.5862396955490112,-1.6040789089598597,1.5413050651550293,-0.010514084492818654
1.7353262901306152,-1.624035497704977,-1.5864622592926025,-1.604025503198141,1.541343092918396,-0.010543171559469044
