zahirmahammad/RLHF-gello_software/csv/output11.csv
shoulder_pan_angle,shoulder_lift_angle,elbow_angle,wrist1_angle,wrist2_angle,wrist3_angle,end_eff_x,end_eff_y,end_eff_z,end_eff_roll,end_eff_pitch,end_eff_yaw,end_eff_w,end_eff_xq,end_eff_yq,end_eff_zq
1.53600787699983,-1.71744898620953,-1.5349814013667,-1.52255806060266,1.29111932420365,0.550526440867994,-20.1357446925412,232.418484018246,1079.23230869876,-1.57026907836006,0.032991549528807,0.049353908356779,0.706693904081359,-0.706896840328867,-0.005777229848503,0.029106815054016
1.59964519842038,-1.67142770384482,-1.53164288327064,-1.56323973199276,1.52276927331588,0.240843498173529,-20.0176988162984,232.396590311378,1079.25299101401,-1.57013590725318,0.029038710446975,0.05450739039169,0.70672336067733,-0.706816120116622,-0.008994543389705,0.029532389091239
1.62845246997878,-1.6498489334768,-1.5288149416854,-1.58152389908424,1.63327920039063,0.092167186255605,-19.9736090964881,232.385779260103,1079.26290474674,-1.57006960652444,0.027088619768039,0.056938384886668,0.706739662889691,-0.706771273525242,-0.010542301632894,0.02970312600309
1.63068682329214,-1.64769180031585,-1.52577713088478,-1.58411635676214,1.64788389016593,0.083252210165568,-19.9950693353981,232.383920080021,1079.26400874545,-1.57006225332768,0.026962701888606,0.057232283822932,0.706739763629179,-0.706766445279702,-0.010690581531279,0.029762556990127
1.6327504010544,-1.64453642507028,-1.52426258332222,-1.58654754665092,1.65496299207859,0.30717970474017,-19.9740214329422,232.383683529148,1079.26504202484,-1.57005696289616,0.030941922441262,0.057394844578526,0.706678498526419,-0.706783733732555,-0.009340704923576,0.031225064980628
1.63241758590354,-1.64374048174014,-1.52390142136749,-1.58964858580368,1.656703123455,0.558706839674217,-19.9606637263965,232.384054314155,1079.26531504429,-1.57005429169505,0.035393561318845,0.057422735355082,0.70660774865319,-0.706801772901743,-0.007776160390288,0.032806625791273
1.63225055422156,-1.64428513515651,-1.52377388751869,-1.59205875185418,1.65662137481269,0.760691452502242,-19.9654562912753,232.38396074058,1079.26519553739,-1.57005335287958,0.038949178695912,0.057421044417104,0.70654867898274,-0.706814197586385,-0.006518045044293,0.034061259619387
1.63217668562744,-1.64457017031675,-1.52776095224836,-1.59315476580204,1.65758984222866,0.93769863305768,-19.9352696321788,232.384789395545,1079.26525698981,-1.57005039928721,0.042122229943681,0.057439070196756,0.706494485147949,-0.70682259721804,-0.005402144502189,0.035187715928388
1.63214646426742,-1.64685989223126,-1.53234978232642,-1.59460290326262,1.65795663900117,1.12798214165136,-19.9305018792025,232.384913816945,1079.26483759816,-1.57004822990329,0.045508672329377,0.057447515937603,0.706434511716903,-0.706829991425689,-0.004207383732644,0.036386011028792
1.63115605529337,-1.6505067356544,-1.52872518255916,-1.5930392920207,1.6580728534831,1.34765065027878,-20.0188433696971,232.382622383175,1079.26391356409,-1.57005251270898,0.049188472372976,0.057434911724518,0.706365099075719,-0.706838117188821,-0.002901534968917,0.037680286510794
1.63185402344305,-1.65402007177308,-1.52319963065361,-1.59142183805841,1.65920465140566,1.55261228445246,-20.1300678207118,232.379233511289,1079.26301443488,-1.57005726745139,0.052579801929398,0.057469247739728,0.706297846176478,-0.706843718370832,-0.001714307819066,0.038889220034147
1.63203544036815,-1.65505963543774,-1.523470461231,-1.59190292097234,1.65953245626721,1.70947005917027,-20.1448376097307,232.378753405939,1079.26279254016,-1.57005715796181,0.055312463247985,0.057480159898509,0.706243874367372,-0.706845397408441,-0.000751665743358,0.039857359165878
1.63211709929324,-1.65656464558813,-1.52475796350633,-1.58651200022432,1.66403340806592,2.10332649781773,-20.1753795484177,232.377636893531,1079.26263106502,-1.57005770559628,0.062088650712807,0.057565154473574,0.7061027929136,-0.706844249546999,0.001614909960188,0.042278183354714
1.6321297429196,-1.65693941439949,-1.53204400153606,-1.57036891124989,1.66514038930943,2.3690335668705,-20.1489037410642,232.378332376292,1079.26264584864,-1.57006169211451,0.066565040955991,0.057587842180224,0.706004488437714,-0.706840377972064,0.003190021114286,0.043865318184204
1.63317075919105,-1.66026891824974,-1.53470264539315,-1.55493463250098,1.66674237557565,2.57328700807956,-20.2131968271942,232.376172516935,1079.26188014588,-1.57006901369725,0.069848946087943,0.057636063267752,0.705927834845886,-0.706836929170843,0.004334258915267,0.045040667732478
1.63251034447771,-1.65932160277992,-1.53149478734128,-1.55011669788537,1.66925642800796,2.68360537966121,-20.2356438175207,232.375562139611,1079.26210658889,-1.5700714308621,0.071650842330572,0.057669625449207,0.705885345351609,-0.706833703320954,0.004959626235961,0.045688041925926
1.63311432520836,-1.65739643681885,-1.5417074092842,-1.54799606555586,1.66836773645553,2.71394636933297,-20.1218008059025,232.37870943277,1079.26273073494,-1.57006667796277,0.072355161599082,0.057665387176931,0.705870987927727,-0.706830236070539,0.005210331389204,0.045934934692627
1.63346019318338,-1.65913151963155,-1.54290809204486,-1.54592570303774,1.66877783519039,2.73702368951887,-20.1449638118566,232.377946659552,1079.26235007379,-1.57006780671885,0.072712489150703,0.05767879013652,0.705862061464412,-0.706829734001328,0.005331945448352,0.046065688690812
1.63360330100548,-1.65716177469666,-1.54420736932986,-1.54415207636325,1.66540288613569,2.77767085567949,-20.1001200660449,232.379362564272,1079.26268185751,-1.57006848017811,0.073448047182296,0.057622868263823,0.705846127316432,-0.706827818606368,0.005611839252318,0.046305363153377
1.63364242384025,-1.65464775992929,-1.5472239427806,-1.53478433813,1.6615114559899,2.82466612516148,-20.0437292789847,232.381158088834,1079.26309785174,-1.57007208650976,0.074201375812078,0.05755598184875,0.70582891669908,-0.706826743125513,0.005901823685314,0.046547438502784
1.6336592413289,-1.65800179235414,-1.54872757487709,-1.49256521116094,1.65950730492053,2.90035170885052,-20.1545253487193,232.378095191247,1079.26193086017,-1.57009526041026,0.07475352863501,0.05752052129403,0.70580867662142,-0.706833166145137,0.006109093474502,0.046729714530264
1.63257467384301,-1.66047980353421,-1.55030437371952,-1.4750620205328,1.65197019478271,2.93626190287993,-20.1936074436596,232.377616117339,1079.26091658354,-1.57010771123757,0.07505928798202,0.057369584955296,0.705800656096659,-0.70683615163642,0.006270281512535,0.046784315353496
1.61105950963692,-1.67402366954133,-1.55668976789481,-1.4666032778055,1.63568656241569,2.9536438847349,-20.2546312538013,232.381824343956,1079.25709123895,-1.57012229569603,0.075090394797163,0.056709063429744,0.705810190029684,-0.706839088466995,0.006514383104699,0.046562232315198
1.56626590516033,-1.68760781598348,-1.55593537439936,-1.46310434382894,1.62893433494575,2.95961690582419,-20.2910675910623,232.391958732615,1079.25349100888,-1.57013396006296,0.074883526355689,0.055808646797746,0.705831738749757,-0.70684090027622,0.006759177720244,0.046171547372214
1.49313843000144,-1.72108199723327,-1.54245121619845,-1.45742818449659,1.62715762134998,2.95736982932774,-20.6523894927014,232.400605005179,1079.24465256456,-1.57016087954659,0.073926054171035,0.054499303651471,0.705874104905676,-0.706849186609581,0.006882701562294,0.045371839638579
1.43199107272152,-1.75847957027817,-1.52617360213837,-1.42321987641787,1.62570617165334,2.95123184548798,-21.1992581173552,232.402713858443,1079.23381918053,-1.57020514198397,0.072285704943495,0.053403455746068,0.705919877579462,-0.70686663382751,0.006688910598905,0.044406608681169
1.37507429952618,-1.80734043175348,-1.50054782992718,-1.40514061345017,1.62506678244985,2.93890579747209,-22.0002334266497,232.398921005601,1079.21877640837,-1.57025137269939,0.07045565314987,0.05239549481465,0.705965844184653,-0.70688561856954,0.006396970646477,0.043405389881404
1.33115270258913,-1.85667282333126,-1.48211412747865,-1.37374467280287,1.62569478914323,2.93622089845463,-22.8251130742255,232.392378843601,1079.20260948308,-1.57030043736615,0.068678781028949,0.051636442418565,0.70600297444366,-0.70690608173985,0.006035844172856,0.042510707604545
1.30008648941877,-1.91161469890497,-1.47492326696549,-1.31034761789988,1.62595054048172,2.9361084092852,-23.7504020378955,232.380849157854,1079.18358592157,-1.57036272794701,0.066486791200549,0.051094490342101,0.70603841180045,-0.70693278795785,0.005450953741959,0.041546136712598
1.26956127101819,-1.97403506129423,-1.47191394692627,-1.2395561137346,1.62605869858583,2.9351948971887,-24.774217888988,232.368031000955,1079.16083604234,-1.57043036387152,0.064094297337802,0.050559193092812,0.706074569797675,-0.706961401866495,0.004792758687911,0.040513054934772
1.25095879216124,-2.0294659081156,-1.4704700611802,-1.16778029265456,1.62512482155165,2.9327968180849,-25.7210470767149,232.353785151049,1079.13913598669,-1.5704944229193,0.061807977533596,0.050214176594693,0.706104618332933,-0.706988320587085,0.004104980076387,0.039584487629974
1.24211876890491,-2.08476331615176,-1.4719865382543,-1.09353222887075,1.62462435520556,2.93297630333477,-26.6849591069594,232.336098206057,1079.1164474077,-1.57055801812772,0.059577484465527,0.050047298131255,0.706129080787058,-0.707014620057699,0.003374032813411,0.038738407221589
1.23839180330482,-2.14523336181437,-1.4722518852738,-1.05554050061428,1.61364542590399,2.93796508849462,-27.6817728404499,232.316497694462,1079.09159026692,-1.570607992102,0.057951429891702,0.049787720750778,0.706147624362818,-0.707034397538844,0.002889884263567,0.038072849546294
1.23638957057285,-2.18161000681622,-1.47486194152515,-1.0430327606738,1.60327279770777,2.94038158424272,-28.2368031532042,232.305817035675,1079.07675550017,-1.57063184394922,0.057186316636711,0.049570377292494,0.706157809742771,-0.707043581412913,0.00269573732321,0.0377260483271
1.23473157841479,-2.22554474505749,-1.47883937651329,-1.00917792450958,1.59633609910532,2.94172305122102,-28.9454698120832,232.291551651909,1079.05778172101,-1.57066851094976,0.055921984895413,0.049418304118161,0.706171387891507,-0.707057914049109,0.002301773381995,0.037226051942212
1.23060698458958,-2.275849838987,-1.47726573403812,-0.961110300786152,1.58601006832969,2.94203234871777,-29.812488631692,232.275149283388,1079.03409296338,-1.570717700859,0.054183681562182,0.049163388190061,0.706190746989148,-0.70707679159785,0.001776375684023,0.03652237861953
1.2170823377846,-2.30634841630762,-1.47131233013895,-0.935579127836766,1.53560412738757,2.9421155421569,-30.2534127554693,232.274034816531,1079.01860380627,-1.57074923486877,0.053103780032331,0.04804590043086,0.706219299212588,-0.70708789160661,0.001789070263097,0.035746526972459
1.20836531510386,-2.32936003818866,-1.45821763916697,-0.921646811824626,1.50192960162109,2.94216076463611,-30.6642443102928,232.270775659531,1079.00575284998,-1.57077319142116,0.052231557907539,0.047304767665013,0.706239435644023,-0.707096466204767,0.001742288548285,0.035176859617626
1.2056189937183,-2.34356339494863,-1.44705889291964,-0.918805282928312,1.4407405615824,2.94216708169833,-30.8747198673312,232.270313207508,1078.99748459098,-1.57078652746521,0.051739601722469,0.046188192314941,0.706262783837325,-0.707100596780813,0.001962886670141,0.034608861213426
1.18657606911998,-2.3739457619857,-1.41718953801199,-0.91751276442163,1.37350706009753,2.94217080879116,-31.4252523811524,232.270430638425,1078.97891370628,-1.57081276555086,0.050665836976853,0.044681041581729,0.706297580509893,-0.707109420665548,0.002115664573999,0.033697461852703
1.17916733930911,-2.38588098998044,-1.40462395594993,-0.916167010129026,1.27780463567928,2.9421686452023,-31.5300670972549,232.275566206807,1078.97147215034,-1.57082169240442,0.050214777269925,0.04288096301319,0.706331905777457,-0.707110985566012,0.002592471790383,0.03290246286624
1.17549273029352,-2.39766884339106,-1.40127066171849,-0.887677291464424,1.19015331090347,2.94216981925791,-31.6297901709049,232.278517978692,1078.96451707422,-1.57083578800802,0.049453422319513,0.041286324273225,0.706365191067827,-0.707114822711523,0.002886864412719,0.032070396992037
1.17419139380165,-2.40399572980452,-1.40006433646519,-0.877043809262677,1.07368073618617,2.94216863597781,-31.5522399509688,232.284718189005,1078.96137841215,-1.57083787456677,0.049136312510251,0.039230683206797,0.706402003752025,-0.707112783274967,0.003501505691244,0.031232359535383
1.17373166787407,-2.42014414708515,-1.39762403664687,-0.84956969569572,0.925163568442487,2.94413581777399,-31.6193697832883,232.288061889755,1078.95315617598,-1.57084512271513,0.048366702912191,0.036630199799534,0.706451066141273,-0.707111842299268,0.004148723691453,0.03004199926313
1.17358007672936,-2.42499388591998,-1.39674895335628,-0.839825109853257,0.815156945607283,2.94483726557368,-31.5296661096773,232.292875333789,1078.95104403589,-1.57084316604132,0.048108892698001,0.03470767956124,0.706484088842534,-0.707107453145501,0.004737323353966,0.029271824095158
1.17449705844031,-2.42770156407662,-1.38766588708552,-0.840207232128326,0.627192396534299,2.94508033557139,-31.3274058669589,232.300707079115,1078.94952717626,-1.57083454778907,0.047913893209694,0.031443515901174,0.706536707065203,-0.707096306317575,0.005822555877381,0.028049830740256
1.17484404626819,-2.42863398337725,-1.38537268918068,-0.843168347056109,0.458965555513623,2.9442817423123,-31.0659497286372,232.308680494264,1078.94984734022,-1.57082433333107,0.047895241797231,0.028513967189007,0.706580898909721,-0.707083474306068,0.006851829900645,0.027008259592268
1.17602649783048,-2.42903871697861,-1.38335269012079,-0.845499188427829,0.286497356341597,2.94492189892829,-30.7907994259177,232.315736911651,1078.95046316924,-1.57081381747492,0.04790470757248,0.025524988558674,0.706624068266735,-0.707068691878185,0.007912033426006,0.02595555506837
1.17736448588809,-2.42719025551564,-1.382762918241,-0.846191992999529,0.14125516290351,2.94610222093254,-30.5181153348908,232.321676121895,1078.95210351381,-1.570804866414,0.047959334916908,0.023013830299512,0.706658580007802,-0.707054797061668,0.008819231944203,0.025087574640757
1.17872931592162,-2.42471753106584,-1.38165990172694,-0.852824751859246,0.092293656321026,2.98948808347651,-30.3969437610461,232.323729640246,1078.95341476797,-1.57080168142777,0.048856224255066,0.022183265352446,0.706658873661526,-0.707045790469052,0.009429968280992,0.025110996667517
1.17925252459111,-2.42289862084593,-1.37951455109488,-0.863161105754372,0.073161486063808,3.00715355064479,-30.337157412229,232.324774442832,1078.95413362657,-1.57080034817733,0.049339249026279,0.021858543435637,0.706657355220876,-0.707041453184131,0.009715540314959,0.025166924084931
1.18587557629676,-2.40550285383416,-1.34768322175209,-0.926460706238712,0.061806663327696,3.01068393476026,-30.2291522671803,232.324081009876,1078.95814214931,-1.57079880306366,0.050253702974384,0.021776035875781,0.706647371561218,-0.707035976359293,0.010068004020613,0.025460865938218
1.19026749939968,-2.37852558053224,-1.3309223263175,-0.965105921973523,0.056591143593467,3.01620750232722,-29.8830948350261,232.329332593347,1078.96804211482,-1.57079775080294,0.051202902469517,0.021761714721855,0.70663576495683,-0.707030672133194,0.010408637459546,0.025791173160506
1.19874988983977,-2.34633358769608,-1.32323108948881,-1.01056635568031,0.053266591840358,3.01970233577571,-29.3838180297934,232.336078709123,1078.98113790405,-1.57079653048595,0.052484951321407,0.021851799186494,0.706618335598196,-0.707023912031558,0.010830028664462,0.026275960327923
1.20868463670635,-2.30413471484404,-1.31809471102815,-1.05985290289807,0.052869656657004,3.02804818994565,-28.7068982741147,232.346112938717,1078.99834377755,-1.57079513629311,0.054137688394532,0.022018339765672,0.706594634484411,-0.707015176480606,0.011355432501562,0.02691870904487
1.21497138346536,-2.27188216725273,-1.31576290717827,-1.10044621996396,0.052764545956743,3.05539673357229,-28.1658049587376,232.354978285147,1079.01124498436,-1.57079400340839,0.055845712536682,0.022126292776267,0.706570301800345,-0.70700546526292,0.011921082423591,0.02756027024505
1.22264156302599,-2.23499765074618,-1.31316593429738,-1.13550269143387,0.052732703836421,3.06902351550035,-27.5682752811779,232.364622250569,1079.02558278894,-1.57079288890128,0.057293825616269,0.022259670614402,0.706548681699291,-0.70699708228978,0.012385859172948,0.028118970736487
1.23530217403532,-2.20977094406743,-1.29610542866698,-1.1907413055689,0.052698677508913,3.08197322023423,-27.2664392394103,232.36614067893,1079.033363074,-1.57079187127841,0.058626462921333,0.022480105934812,0.706526992968516,-0.706989725758403,0.01277903522148,0.028667614789749
1.24680419690936,-2.18863271287333,-1.28977965513432,-1.21316834666984,0.050904521956922,3.08997649674305,-26.9871827718456,232.367758171533,1079.04069165576,-1.57079144430436,0.059416098192831,0.022649566435265,0.706513315146211,-0.706985578369959,0.012998270634591,0.029006420987691
1.25647243628708,-2.16900008913989,-1.28705286922361,-1.23570779672398,0.05011446954585,3.09342668982671,-26.6952291892444,232.370465628731,1079.04767878462,-1.57079091662385,0.060164765373005,0.022804552103761,0.706500323669399,-0.706981502455633,0.013208141220848,0.029325634623982
1.26638854189986,-2.14687410002436,-1.28597518707165,-1.25609792369669,0.049798081411806,3.09582281138056,-26.3548130075076,232.374256862285,1079.05563787976,-1.57079032078086,0.060929822448819,0.02297213519153,0.706486782318309,-0.706977314731679,0.013419352454219,0.029655081251218
1.27453330357027,-2.12728274064208,-1.28020736065044,-1.28326828180895,0.049675557727368,3.09673683135501,-26.0765428755877,232.377434292104,1079.06201008341,-1.57078971380327,0.061661253222909,0.023112186996101,0.706474007833973,-0.706973101522339,0.013628408267654,0.029962918198643
1.27640425061054,-2.12357872608619,-1.27802570949978,-1.28874392540265,0.048800473451733,3.09694477808258,-26.0325698260409,232.377732808461,1079.06308831181,-1.57078972602266,0.061787020896806,0.023129567800119,0.706471857126269,-0.706972366242708,0.013666721658817,0.030013483250809
1.27738777049711,-2.12167284494675,-1.27688708026021,-1.29060345565312,0.04936916258318,3.09705584841674,-26.0136033727896,232.377796926898,1079.06366551825,-1.57078960950395,0.061834805354259,0.023156665869898,0.706470774073939,-0.706972183693545,0.01367403587183,0.03003993352067
1.27875538885429,-2.11288961091695,-1.27662647126009,-1.30039212871706,0.049547382597376,3.09709006090817,-25.8641967995383,232.380634561145,1079.06670524328,-1.57078930822262,0.062154994776417,0.023183664411191,0.706465655161347,-0.706970065155612,0.013777679926619,0.030162569306312
1.28111054138561,-2.10898291627506,-1.27747249530182,-1.30545623967441,0.04960253135993,3.09709812620475,-25.7952939520553,232.381325641435,1079.06812183645,-1.57078915172165,0.062326471470722,0.02322574180793,0.706462485776387,-0.706969117001986,0.013823423403926,0.030238001942525
1.28204228414047,-2.1074483307009,-1.27893908223788,-1.30638029084289,0.04962487946599,3.09710226798008,-25.7603746692337,232.381772145878,1079.06878767401,-1.57078908900855,0.062395051806893,0.023242397730184,0.706461218612439,-0.7069687357324,0.013841779000711,0.030268109416588
1.28228216927102,-2.10506002851574,-1.28327137429223,-1.30662233954087,0.049631949918201,3.09710260940832,-25.6855610319252,232.383360670165,1079.07001007563,-1.57078898245349,0.062516578763311,0.023246714564555,0.706459350346542,-0.706967885694944,0.01388321284849,0.030312560184954
1.28236086362218,-2.09662834256465,-1.28947771807139,-1.30670302367243,0.049634462130331,3.09710270572973,-25.4976294561423,232.387539410268,1079.07352931422,-1.57078875899255,0.062773470366174,0.023248145874416,0.70645550821587,-0.706966027719044,0.013973517910071,0.030403805022216
1.28238393666614,-2.08622185116793,-1.30250407149792,-1.30492941896618,0.049634135997636,3.09710358898771,-25.2225766130528,232.393688449673,1079.07827002747,-1.57078843074568,0.063151510693508,0.023248563536845,0.706449858295459,-0.706963260857476,0.014107006880368,0.030537483016237
1.28239324532331,-2.079463665068,-1.31335679392419,-1.30499534549497,0.049633115969238,3.09710280372886,-25.021269196282,232.398191610573,1079.08146437685,-1.57078816296793,0.063460015845454,0.023248725141914,0.706445231566195,-0.706960983005379,0.014216005455634,0.030646508681059
