zahirmahammad/RLHF-gello_software/csv/diffstartsamegoalsp100/pose5/output19.csv
shoulder_pan_angle,shoulder_lift_angle,elbow_angle,wrist1_angle,wrist2_angle,wrist3_angle,end_eff_x,end_eff_y,end_eff_z,end_eff_roll,end_eff_pitch,end_eff_yaw,end_eff_w,end_eff_xq,end_eff_yq,end_eff_zq
-1.3420217672931116,-1.5359223422459145,-1.398094892501831,-1.464684711103775,0.5485489368438721,1.255964994430542,-5.5221189870637435,233.08870237472243,1079.241517152945,-1.5705744099543935,0.04507769029016057,-0.013841280270257536,0.7070989623076611,-0.7067215138479918,0.02082921409044846,0.011040978589137818
-1.3403242270099085,-1.5314954866519948,-1.3754147291183472,-1.4644402501038094,0.4817189872264862,1.2327516078948975,-5.537167578607808,233.08977394726202,1079.2398554310887,-1.5706041681256906,0.04434994774936756,-0.014979160824982438,0.7070984401517921,-0.7067277477590155,0.020973928770027322,0.010381752950330605
-1.310028378163473,-1.534015492802002,-1.314366340637207,-1.4730174627951165,0.4823337197303772,1.1920422315597534,-6.210845007955784,233.09939189942557,1079.2392875492926,-1.5706120218572233,0.042679689919308886,-0.014440147346717816,0.7071014272061016,-0.7067532601231336,0.02019308680478209,0.009981993473798419
-1.259688679371969,-1.5492315788618107,-1.2748204469680786,-1.4789918449572106,0.627510666847229,1.1791740655899048,-7.2403666182387125,233.1095354107562,1079.2410470376474,-1.570565892543816,0.041603107829626944,-0.011026423922683602,0.7071055834716091,-0.7067805053111116,0.018606447356715128,0.010807925434907703
-1.1890595594989222,-1.5721308193602503,-1.2744792699813843,-1.486371063893177,0.8041483163833618,1.2480740547180176,-8.191100596790932,233.11036521241746,1079.2422707345127,-1.570504907881955,0.04252802638863391,-0.006708598906056376,0.7070963726125861,-0.7067894938498167,0.017407862497123786,0.012660866673489294
-1.087395970021383,-1.5961133442320765,-1.3008846044540405,-1.4908090990832825,0.9545725584030151,1.3566163778305054,-9.015416496751035,233.09924600882766,1079.2428131065853,-1.5704483728216891,0.04454133843484874,-0.0023063390174617115,0.7070720961973996,-0.7067898001424372,0.016564238048893662,0.014928335857966277
-0.9629128615008753,-1.6229402027525843,-1.3389030694961548,-1.4905261409333725,1.1358968019485474,1.4725557565689087,-9.940276912289207,233.08039089769008,1079.2441648078495,-1.570378466320636,0.04675401110539732,0.0030342748730633503,0.7070353742370589,-0.7067901354298819,0.015459707001871131,0.01759776962820988
-0.8231170813189905,-1.655919691125387,-1.383446455001831,-1.4856979188374062,1.334172248840332,1.5933853387832642,-11.007159471529075,233.0551721497641,1079.244831155578,-1.5703027470615163,0.04897884098205841,0.008938542402203094,0.7069847602650464,-0.7067906243164455,0.014160490031646402,0.02047053134161272
-0.6825349966632288,-1.7026754818358363,-1.425449252128601,-1.4348614823869248,1.510125994682312,1.7300254106521606,-12.36066216320957,233.02918399744064,1079.2404408537552,-1.5702632233345468,0.05039216363417817,0.014465663610708338,0.7069234298663857,-0.7068042936772165,0.012707363496336044,0.022923299465132226
-0.6045478026019495,-1.7324897251524867,-1.450575828552246,-1.3795593243888398,1.6126885414123535,1.8076870441436768,-13.213607839085267,233.0129386145961,1079.2363764394236,-1.5702565156674206,0.0507000238209731,0.01761756974009744,0.7068850871314385,-0.7068192804039476,0.011702398019212084,0.024146062226050882
-0.5350430647479456,-1.7874366245665492,-1.4632220268249512,-1.3320801717093964,1.7042182683944702,1.848235011100769,-14.508497098845444,233.00158561841576,1079.2236035782091,-1.5702725626311897,0.049840572976515146,0.020427451719130553,0.7068555345250819,-0.7068452264447834,0.010405238266243177,0.024835663472238253
-0.5015514532672327,-1.8305031261839808,-1.4756697416305542,-1.2703530055335541,1.7392863035202026,1.8717496395111084,-15.395234028619857,232.99780355665462,1079.2111745324112,-1.5703107899017217,0.048639659555425194,0.021622282577728424,0.7068421024522313,-0.7068706859684788,0.009557823893350748,0.024833918776249637
-0.48913318315614873,-1.8755156002440394,-1.4847556352615356,-1.2192101043513794,1.7508291006088257,1.8772423267364502,-16.196957635556636,233.00026361022591,1079.1967803596178,-1.5703540782175645,0.047216488123140894,0.022038429308640795,0.7068392203149698,-0.7068944674543338,0.008906965930292509,0.024478448988774687
-0.487495247517721,-1.9183584652342738,-1.4883040189743042,-1.1650914710811158,1.7549010515213013,1.8741064071655273,-16.959857739005944,233.00601849821425,1079.181681809343,-1.5704030601459822,0.04553212365214079,0.022135785507746357,0.7068411119094892,-0.7069194241106133,0.008276369257646955,0.023918027543821902
-0.49335033098329717,-1.9553119144835414,-1.4891185760498047,-1.1197670263103028,1.7559823989868164,1.855820894241333,-17.601018008215163,233.013418767708,1079.1678855712944,-1.570446455255259,0.043791838707273816,0.022050410783020183,0.7068473146134886,-0.7069413592760956,0.007690675599061581,0.0232732008412291
-0.49777394929994756,-1.9871531925597132,-1.485541820526123,-1.0984535974315186,1.7562856674194336,1.8412723541259766,-18.16076000686537,233.0197801785711,1079.1557745734997,-1.5704767856366124,0.042548231656136075,0.02197710293018378,0.7068517664220962,-0.7069564530085449,0.007276508216856304,0.022808031123036157
-0.4993966261493128,-2.010965486566061,-1.481953501701355,-1.0770696562579651,1.755636215209961,1.8359724283218384,-18.60200465304821,233.0242325718849,1079.1461646029006,-1.570503023509721,0.04160468301599535,0.02193631537135195,0.7068536326756099,-0.7069689352558951,0.006956999903442973,0.022460336346177556
-0.49990827242006475,-2.033128400842184,-1.4800012111663818,-1.0505266946605225,1.7551137208938599,1.8373732566833496,-19.016530672841164,233.02806150688727,1079.136903701036,-1.5705302220747719,0.040745398025453516,0.0219171538388067,0.7068538160980344,-0.7069814051927246,0.006659638419450569,0.022150047302177192
-0.5015214125262659,-2.0493632755675257,-1.4804916381835938,-1.036440448170044,1.7549381256103516,1.8371509313583374,-19.289690308952398,233.0310546779461,1079.1304055225837,-1.5705462112204076,0.04022111905440715,0.02188528650869553,0.7068542965180683,-0.7069886728831459,0.006485350471924122,0.021953590552143666
-0.5026114622699183,-2.067106386224264,-1.4814002513885498,-1.022045449619629,1.754931092262268,1.8356761932373047,-19.586343348803634,233.03406326153515,1079.1232836628415,-1.5705629226692477,0.03965057832069894,0.021865465374155235,0.7068548390257614,-0.7069963366278831,0.0062904418457199384,0.021745042699507965
-0.5038412253009241,-2.0847050152220667,-1.483400821685791,-0.9999194306186219,1.7540732622146606,1.8349186182022095,-19.882716011877534,233.0371795164051,1079.1159087472465,-1.5705832112981084,0.03897925895076155,0.02182823000804603,0.7068553268868428,-0.707005464326477,0.0060660205787235084,0.021494735600515364
-0.5044449011432093,-2.094654222527975,-1.4889419078826904,-0.9867056173137208,1.7535433769226074,1.8346843719482422,-20.013927443956703,233.03859404486417,1079.1121647589428,-1.5705926965187471,0.03866775587606885,0.0218080768396002,0.7068555287375573,-0.7070096921270027,0.005962902681228261,0.02137757056457347
-0.5145695845233362,-2.09753479580068,-1.4935648441314697,-0.9828079503825684,1.7533706426620483,1.8355399370193481,-19.98562414083096,233.04225188802124,1079.1114173846292,-1.5705938685682335,0.03864508938726346,0.02162831079731355,0.7068572745635237,-0.7070096357479645,0.006018423999271905,0.021306030337037474
-0.5267646948443812,-2.098304887811178,-1.4959540367126465,-0.9811280530742188,1.7533217668533325,1.8360072374343872,-19.930668963204706,233.04645383104156,1079.1113218478818,-1.5705939066440806,0.03865218488432355,0.02141461312305817,0.7068594582638114,-0.7070089804985847,0.006096475515685352,0.021233010705731095
