zahirmahammad/RLHF-gello_software/csv/diffstartsamegoalsp100/pose5/output49.csv
shoulder_pan_angle,shoulder_lift_angle,elbow_angle,wrist1_angle,wrist2_angle,wrist3_angle,end_eff_x,end_eff_y,end_eff_z,end_eff_roll,end_eff_pitch,end_eff_yaw,end_eff_w,end_eff_xq,end_eff_yq,end_eff_zq
-1.5084393660174769,-1.9549995861449183,-1.205789566040039,-1.3199563485435029,0.9950618743896484,1.4581502676010132,-14.225909688284592,233.3403275935008,1079.1313730263466,-1.5706232291105695,0.03540942312941933,-0.008954861010717581,0.7071061056154497,-0.7068716267164319,0.015684666222559106,0.009351469943535268
-1.4796927610980433,-2.0025512180724085,-1.1475143432617188,-1.2271973651698609,1.1021759510040283,1.4853943586349487,-15.95113730803023,233.3712926984335,1079.1071105035423,-1.5706713197880593,0.032419246163430594,-0.006585265094572195,0.7070919789681878,-0.7069281213229703,0.013789873910559393,0.009132575713267681
-1.4321578184710901,-2.0483485660948695,-1.0746582746505737,-1.175595150595047,1.1874431371688843,1.5337519645690918,-17.740397569576203,233.3949093161629,1079.07845638367,-1.570723266465179,0.030292169422674653,-0.004268992741516744,0.7070727513348734,-0.7069753772243569,0.01221894400893453,0.009199876385968413
-1.3431456724749964,-2.078961034814352,-1.0273786783218384,-1.1685353082469483,1.304091453552246,1.6097019910812378,-19.213352468472852,233.38869198928282,1079.058621426765,-1.5707498502964725,0.030135285065635033,-0.000680271736884285,0.707046526818026,-0.7070064190685468,0.010894755509262975,0.010413290201948913
-1.2430341879474085,-2.1061469517149867,-1.002546787261963,-1.1622197490981598,1.3969566822052002,1.6647379398345947,-20.441432141765752,233.368758616441,1079.0425746076896,-1.5707713731617627,0.030077958901096654,0.002687192003343083,0.7070207151053902,-0.7070316471890955,0.009683940306972864,0.011583591199108095
-1.1697114149676722,-2.126035352746481,-0.9938766360282898,-1.1565705400756379,1.454679250717163,1.6871684789657593,-21.242721484694933,233.35017421021624,1079.031949632628,-1.5707855057467077,0.02987257437251004,0.0049739478971300875,0.7070032812002311,-0.7070481610326209,0.008802833078724679,0.012319435144689632
-1.058862034474508,-2.1422296963133753,-1.0132901668548584,-1.1541907650283356,1.5676523447036743,1.7335755825042725,-21.987053144194693,233.3088733855172,1079.0280340445488,-1.5707842642879382,0.030697153993719223,0.008880433686394086,0.7069725999567781,-0.7070604475469916,0.007713306853532451,0.013991830558737359
-0.9701550642596644,-2.1474367580809535,-1.051451325416565,-1.153691605930664,1.6686501502990723,1.7664042711257935,-22.28042215368697,233.26844583370774,1079.0326473773152,-1.5707669840349057,0.031836306066464606,0.012191958304963365,0.7069458220049232,-0.7070623005674546,0.0069454424429724665,0.015564982984685137
-0.884930435811178,-2.150634904901022,-1.1056104898452759,-1.153571681385376,1.7798582315444946,1.7973278760910034,-22.407176812918625,233.22582806596512,1079.0410863136829,-1.5707374520244362,0.03326288228921569,0.015621338875004548,0.7069163872359325,-0.707058463321364,0.006237655325737914,0.01728127770060911
-0.8313759008990687,-2.1516324482359828,-1.1509790420532227,-1.1543659430793305,1.8555421829223633,1.8216625452041626,-22.381866252770475,233.19707795651476,1079.048841873407,-1.5707094074266736,0.03447539227702612,0.01787795323208694,0.7068952627146525,-0.7070517117706456,0.005868817823604773,0.018507333982382343
-0.7908156553851526,-2.1519886455931605,-1.2033041715621948,-1.1511652928641816,1.9177908897399902,1.833335518836975,-22.217259808620923,233.17306160361116,1079.0576573118233,-1.5706779866626028,0.035529718360565496,0.01967342327928905,0.706879281801297,-0.7070427336633993,0.005607142840912738,0.01951444805859287
-0.7685044447528284,-2.152097364465231,-1.2432433366775513,-1.1422152084163208,1.9594968557357788,1.8384807109832764,-22.055023622532687,233.15854549013267,1079.063933641005,-1.5706569706836668,0.0361580806171331,0.020791493247286106,0.7068694013520821,-0.7070366584021841,0.005434258358143372,0.020131615526810257
-0.7545865217791956,-2.152224203149313,-1.2795060873031616,-1.1200565260699769,1.9903428554534912,1.8417589664459229,-21.894580499410406,233.1484739838647,1079.0687039487411,-1.5706462981430531,0.03645902285142415,0.021573162044206153,0.7068621732650036,-0.7070341726043772,0.005264436842171975,0.02051420194534699
-0.7471416632281702,-2.152978082696432,-1.306556224822998,-1.0919571083835145,2.007126808166504,1.8432775735855103,-21.782802454507102,233.14275666793714,1079.0712238507558,-1.5706461364996442,0.03645403167458976,0.02199604173264758,0.7068579286560958,-0.7070352255368444,0.0051131784665426165,0.020661896138704408
-0.7449229399310511,-2.1571909389891566,-1.3212136030197144,-1.069376067524292,2.0145041942596436,1.8436498641967773,-21.785515535235056,233.14138084071485,1079.0704999222555,-1.570653036720354,0.03624881874404172,0.022163274488242568,0.7068558816207161,-0.7070386038835293,0.00498143013702956,0.0206485009242751
-0.7442315260516565,-2.1624442539610804,-1.329078197479248,-1.0582243365100403,2.017573118209839,1.8437623977661133,-21.82958935761016,233.14146620951038,1079.068850223313,-1.570658070437311,0.036101808580200984,0.022228722555940172,0.7068549436329837,-0.7070409079054829,0.00490626268206845,0.02061969437931257
-0.7440360228167933,-2.172699590722555,-1.335113286972046,-1.054964856510498,2.018456220626831,1.8431183099746704,-21.94982812465282,233.14288882192773,1079.0651501290658,-1.5706626116045346,0.035960100150068404,0.022247382546275684,0.7068546055555655,-0.7070429038095649,0.004849515505627042,0.020576223579294034
-0.7440074125873011,-2.1790415249266566,-1.3430525064468384,-1.0541333717158814,2.0186333656311035,1.8417094945907593,-21.984992527042955,233.14332215089013,1079.0635667495544,-1.5706621288256042,0.03594886871318808,0.022250987692897687,0.7068548546868892,-0.7070427691224843,0.004844274890439123,0.020573527601550783
-0.7439835707293909,-2.185211797753805,-1.3519259691238403,-1.0539103311351319,2.0187435150146484,1.8403066396713257,-22.008196667540144,233.14360631905603,1079.062229663658,-1.5706605956011543,0.03596764391630914,0.02225337808493956,0.706855178943121,-0.7070421875547995,0.004850083939459158,0.020581003493327442
-0.7439797560321253,-2.188916345635885,-1.3608055114746094,-1.0545814794353028,2.0187346935272217,1.839522123336792,-21.990063202730635,233.14336971804258,1079.0620128132175,-1.5706569991585573,0.03605592264083255,0.022253418305572033,0.7068555407954004,-0.7070407019263518,0.004881319406995394,0.020612204811242547
-0.743995491658346,-2.189949174920553,-1.3663883209228516,-1.0551287692836304,2.018725872039795,1.8393490314483643,-21.957629036213387,233.1429559422035,1079.0624456468818,-1.5706538634501328,0.03614181055441779,0.022253102449879745,0.7068557667403532,-0.7070393827529332,0.004911830782577925,0.020642436402269655
-0.743995491658346,-2.194428106347555,-1.3697290420532227,-1.0537393254092713,2.018754243850708,1.838500738143921,-22.003062735690683,233.1435442022053,1079.0609258416298,-1.5706554168050908,0.03608291647326767,0.022253539447891546,0.7068558206654352,-0.707040077066541,0.0048908370940163245,0.020621782795231802
-0.7439797560321253,-2.1970015964903773,-1.3731120824813843,-1.0528119963458558,2.0186727046966553,1.837990403175354,-22.016723160424313,233.14371971046668,1079.0602672358382,-1.57065549500639,0.036071955296895206,0.022252386896421922,0.7068559179138499,-0.707040128666832,0.00488736819650137,0.02061750220249932
