zahirmahammad/RLHF-gello_software/csv/diffstartsamegoalsp100/pose5/output9.csv
shoulder_pan_angle,shoulder_lift_angle,elbow_angle,wrist1_angle,wrist2_angle,wrist3_angle,end_eff_x,end_eff_y,end_eff_z,end_eff_roll,end_eff_pitch,end_eff_yaw,end_eff_w,end_eff_xq,end_eff_yq,end_eff_zq
-1.4419048468219202,-1.4704104226878663,-1.1565427780151367,-1.612518926660055,0.6379045844078064,1.274888038635254,-6.039119835834232,233.1196080085293,1079.253689946969,-1.5705437490562237,0.044915328866321824,-0.0140239704568048,0.7071116912861486,-0.7067104616408899,0.020836552129797292,0.010918678908409595
-1.4419639746295374,-1.4717965883067627,-1.1734157800674438,-1.5959979496397914,0.463918536901474,1.2278659343719482,-5.6426444494266645,233.11254906791484,1079.2471642811952,-1.5706127899859674,0.04407725200203453,-0.0170641022880731,0.7071071410473145,-0.706711500716203,0.021614242551824453,0.009548316828446412
-1.4212091604815882,-1.4724359822324296,-1.2841973304748535,-1.52125886947427,0.4462094008922577,1.2335916757583618,-4.8857694707156725,233.0898613886406,1079.2486120102708,-1.5706149747347602,0.04479512215318574,-0.017010942586212986,0.7071026340743074,-0.7067050511298476,0.021849156463617268,0.009820893776218515
-1.3034442106830042,-1.4726315450719376,-1.36409330368042,-1.582644601861471,0.7205729484558105,1.4233437776565552,-5.0522083250460765,233.06735588452133,1079.2581523537729,-1.5704723919516683,0.05056800846196704,-0.010160810554220563,0.7070769369547941,-0.7066663167783258,0.021469894116955414,0.014281652712053866
-1.1023576895343226,-1.48710289717231,-1.358935832977295,-1.7125665150084437,1.0547573566436768,1.6646583080291748,-6.5006004048444375,233.05131889265536,1079.2684514875505,-1.5702865375736017,0.056702064974700706,-0.0008089284428661173,0.707010810416148,-0.7066342653132487,0.02033544036206379,0.019753452994042617
-0.9583843390094202,-1.5172237058034916,-1.350893497467041,-1.758968015710348,1.2735096216201782,1.7882285118103027,-7.936489227183839,233.0407457734975,1079.2723558755165,-1.5701775433812295,0.0590003750750101,0.00552787745832017,0.7069574342371568,-0.7066353737883151,0.01891018695947118,0.02280437495355417
-0.8290756384478968,-1.5923530064024867,-1.348912239074707,-1.7255507908263148,1.4791544675827026,1.8430190086364746,-10.096905929907225,233.03730637350694,1079.2654825398665,-1.5701275462831565,0.058025820991869745,0.011376167782729152,0.7069174351911773,-0.7066780932675967,0.01649985006187737,0.02452686825375658
-0.7390678564654749,-1.6739121876158656,-1.3737890720367432,-1.6217957935728968,1.6170368194580078,1.8716830015182495,-11.974469711331876,233.03417937617084,1079.2515599323694,-1.5701444326567242,0.05572537601143647,0.015352252917228162,0.7068906825403108,-0.706732342638546,0.014281273620429398,0.025119793591999492
-0.6899288336383265,-1.7743283710875453,-1.3941835165023804,-1.4913717296770592,1.686759114265442,1.8868381977081299,-13.953965773621775,233.04176042028223,1079.2257005232739,-1.5702246965052056,0.052317696407714914,0.017422329770644337,0.7068789750775064,-0.7067971467645926,0.01234379460066299,0.024648299204242496
-0.6559746901141565,-1.855237146417135,-1.4118951559066772,-1.3780870151570817,1.711163878440857,1.892516851425171,-15.474033613988635,233.0480150632577,1079.2007313766746,-1.570308591159592,0.04933774876357851,0.018436607559463428,0.7068732192278473,-0.7068500199445906,0.010930610655115084,0.02395460276226179
-0.6394580046283167,-1.923798223535055,-1.4213649034500122,-1.2926922601512452,1.7177729606628418,1.8923676013946533,-16.716893261346346,233.05632280720673,1079.177068230224,-1.570382434665956,0.046814464261048724,0.018836665453651993,0.706872158867217,-0.7068913264235565,0.009896125405789914,0.023204963854695178
-0.6342647711383265,-1.9759322605528773,-1.4145336151123047,-1.2353784006885071,1.7191283702850342,1.8933178186416626,-17.73280847260721,233.06574878334266,1079.1567175934756,-1.570443086092477,0.044802498641439474,0.018948187893428885,0.7068724560837301,-0.7069228621916547,0.009144604715114048,0.022533840008272542
-0.6221759955035608,-2.0180050335326136,-1.400111198425293,-1.1883579951575776,1.7194651365280151,1.8957135677337646,-18.661281466531257,233.07153330557324,1079.1384267322987,-1.5704973025088684,0.04303843649948252,0.019162687344171238,0.7068705416347982,-0.706950718056238,0.008444438927741637,0.021986610923293577
-0.6150949637042444,-2.0445901356139125,-1.3820745944976807,-1.167152152662613,1.7196226119995117,1.8969614505767822,-19.30739701647687,233.07584436816015,1079.1256676942155,-1.570531795305051,0.04191182566901735,0.019287564494176523,0.7068692742003123,-0.7069680510504982,0.008001575004528447,0.02163281726523257
-0.6076067129718226,-2.0844794712462367,-1.343496561050415,-1.1515692931464692,1.7195559740066528,1.9017184972763062,-20.334152957035524,233.08388831704883,1079.1048302060162,-1.5705811178129145,0.04035410558944847,0.019415087797990352,0.7068671296025548,-0.7069919703509127,0.007405198968122243,0.021127659004773897
-0.6009920279132288,-2.1074024639525355,-1.322643756866455,-1.1428418916514893,1.7196093797683716,1.9089993238449097,-20.922048297137597,233.08742100442683,1079.0924966270336,-1.5706086370889336,0.03956523898678882,0.019530394126639303,0.7068644774509688,-0.70700497036205,0.007085229290055907,0.020889756514451706
-0.594708267842428,-2.128986974755758,-1.3107439279556274,-1.1394284528544922,1.720377802848816,1.9136862754821777,-21.402319225291862,233.08980480025895,1079.0818360442408,-1.5706279054007832,0.0390033418906078,0.01965273551402527,0.7068622404045614,-0.7070141619293707,0.006843111846372478,0.020734506066260885
-0.5894578138934534,-2.141571184197897,-1.3120930194854736,-1.138568477039673,1.7231898307800293,1.9152932167053223,-21.619784739085897,233.08971328316554,1079.0767631919045,-1.5706339840065167,0.03882037633160198,0.01979321979131553,0.7068605319271779,-0.707017407431372,0.0067286960868863255,0.020719523199597665
-0.584975544606344,-2.1453153095641078,-1.3295303583145142,-1.1382931631854554,1.725072979927063,1.9130860567092896,-21.55197529056668,233.08704422975222,1079.0776613061507,-1.5706267502774822,0.03901592913446712,0.019904591866265652,0.7068599010094603,-0.7070145673094796,0.006758541252163318,0.020827963828185775
-0.5827754179583948,-2.1458212337889613,-1.3498220443725586,-1.1375266474536438,1.7263176441192627,1.9090111255645752,-21.39832333798971,233.08449737046254,1079.0802421162539,-1.5706166186099686,0.03927660222752565,0.01996509854848061,0.7068601285913431,-0.7070103069860467,0.006829423209943406,0.02094142788697713
-0.5809920469867151,-2.1467701397337855,-1.3666695356369019,-1.1306052666953583,1.7262996435165405,1.9063178300857544,-21.28814457719548,233.08264131804376,1079.0818508845114,-1.5706118960837687,0.039386206044938595,0.01999608722346866,0.7068603241086889,-0.7070083691169353,0.006857270588943674,0.020991094293549246
-0.5818055311786097,-2.1473685703673304,-1.3896666765213013,-1.0915522140315552,1.725873589515686,1.9054656028747559,-21.164212190824472,233.0817409532747,1079.083038717234,-1.570620704714544,0.039080792052637356,0.01997410515288977,0.7068606371329533,-0.707012446455101,0.006756964302047774,0.02087543204317918
-0.5826314131366175,-2.147508283654684,-1.4062564373016357,-1.0704922837070008,1.7257530689239502,1.903350591659546,-21.057112936821838,233.08099736091367,1079.0842766593576,-1.5706231426025352,0.038963457388281116,0.01995748580713391,0.7068611719815554,-0.7070136472332282,0.006721328130963984,0.02082810406604803
-0.5827921072589319,-2.1544934711852015,-1.408594012260437,-1.0653683704188843,1.7257137298583984,1.9010251760482788,-21.156979878007213,233.08208097242274,1079.0815033946365,-1.570628287689852,0.03875240343276399,0.019953787784010996,0.7068615856401482,-0.7070161583409662,0.006647960054749365,0.020752234052926755
-0.5829108397113245,-2.1595078907408656,-1.4085214138031006,-1.0636231464198609,1.7257678508758545,1.8996107578277588,-21.24046455976741,233.08297627421547,1079.0793570224819,-1.570631877140103,0.03860852601009959,0.01995251717950156,0.7068618210302469,-0.7070178989388279,0.0065975016788270046,0.02070095460423042
-0.5836852232562464,-2.162413259545797,-1.4075208902359009,-1.062433199291565,1.7256838083267212,1.8992164134979248,-21.29430374961841,233.08384831372305,1079.077973492088,-1.5706345660441443,0.038512744819913916,0.019937430057346255,0.706862016983472,-0.7070191147326927,0.0065689422529761595,0.020661784684154156
-0.5841763655291956,-2.1637970409789027,-1.4069186449050903,-1.0618123573115845,1.7257753610610962,1.899113416671753,-21.320850864570765,233.0843170983762,1079.0772953496526,-1.5706359289810043,0.03846546913051046,0.01993040314679953,0.7068620959308994,-0.707019728410847,0.00655469715377773,0.020642599624330685
-0.5843642393695276,-2.164272447625631,-1.4058818817138672,-1.061593310242035,1.7256929874420166,1.8990851640701294,-21.336829509155994,233.08456208952248,1079.0769499187616,-1.5706368474056114,0.038434774534188615,0.019925651075438196,0.7068621370194292,-0.7070201379231172,0.0065455150012424836,0.02063007641455723
