zahirmahammad/RLHF-gello_software/csv/diffstartsamegoalsp100/pose10/output20.csv
shoulder_pan_angle,shoulder_lift_angle,elbow_angle,wrist1_angle,wrist2_angle,wrist3_angle,end_eff_x,end_eff_y,end_eff_z,end_eff_roll,end_eff_pitch,end_eff_yaw,end_eff_w,end_eff_xq,end_eff_yq,end_eff_zq
-0.8818252722369593,-1.8888308010497035,-1.2073689699172974,-1.4422979962876816,2.2030444145202637,1.4596344232559204,-17.591515953207843,233.12472939199162,1079.1833905686447,-1.570285497933972,0.03874470390540371,0.023076024464031474,0.706949581955498,-0.7069045392290348,0.005545239579547154,0.021852032132912137
-0.7905271689044397,-1.9384633503355921,-1.2105331420898438,-1.4037302446416398,2.1994094848632812,1.4852553606033325,-18.79061314435213,233.10806493176491,1079.1632831268166,-1.5703433549936199,0.037708839748045724,0.024604044628945224,0.7069237343758642,-0.7069315116841061,0.004638200362839549,0.022026317474816804
-0.6905124823199671,-1.9916683636107386,-1.1984606981277466,-1.3956207495978852,2.18619441986084,1.4950306415557861,-20.14342826773063,233.08718889506065,1079.1401064488946,-1.5703949839943463,0.03659964368876935,0.02611715314839774,0.706901023176539,-0.7069552282836001,0.003710551934992201,0.022169358104885288
-0.6271556059466761,-2.0312138996519984,-1.182665228843689,-1.3956004095128556,2.130720615386963,1.49861741065979,-21.073020880654386,233.07575869443505,1079.1207587680055,-1.57044112126744,0.035697058852732014,0.026253143546675784,0.7068931606409184,-0.7069733630338385,0.0033428051750839637,0.0218986084781288
-0.5808642546283167,-2.063206811944479,-1.166844367980957,-1.3958475452712555,2.012460947036743,1.512738585472107,-21.70300383776517,233.0705664588757,1079.1031885009368,-1.5704900051089612,0.03511455031035685,0.02499549641496611,0.7068957302765844,-0.7069894702055959,0.0035808650097171914,0.021248363252911365
-0.5595920721637171,-2.0807415447630824,-1.1604132652282715,-1.3959003251842041,1.9103734493255615,1.518801212310791,-21.947747204073966,233.0701122468448,1079.09330749129,-1.5705194624953085,0.03480376541169395,0.023584068780628176,0.7069033524070859,-0.7069978033735715,0.003969598220391337,0.020639735234172785
-0.5443862120257776,-2.1023532352843226,-1.1587203741073608,-1.3959204268506546,1.7920629978179932,1.50810968875885,-22.164211283136385,233.07239245869667,1079.0822182702916,-1.5705493241846658,0.034211524960210356,0.021783542734692303,0.7069169837897162,-0.7070058294529721,0.004396371609117095,0.019794116950237032
-0.5266593138324183,-2.123270174066061,-1.1566505432128906,-1.3959241670421143,1.7198528051376343,1.5078045129776,-22.463189046345192,233.0714558721124,1079.0719934811682,-1.5705713227021751,0.033805554809239864,0.02083191788062615,0.7069224807920091,-0.7070123783801137,0.004589014088499042,0.019314344872711678
-0.5078814665423792,-2.1528688869872035,-1.1605846881866455,-1.3959363263896485,1.6621198654174805,1.5116510391235352,-22.878919357746312,233.0700511220128,1079.0590788759157,-1.5705918695656937,0.03342538165970954,0.020151373697409207,0.7069253616329445,-0.7070189429740453,0.004694972250279565,0.018939498186683643
-0.4933579603778284,-2.1701632938780726,-1.1642351150512695,-1.3950418841889878,1.6305873394012451,1.5134358406066895,-23.13006318933868,233.0674729758943,1079.0516818017647,-1.5706029729541549,0.03320300319363715,0.019854159824724153,0.7069263331315176,-0.7070226910255814,0.004721307075902723,0.018755883334752484
-0.4824579397784632,-2.1807338200011195,-1.1645464897155762,-1.3953488630107422,1.6019675731658936,1.5138940811157227,-23.290543038168618,233.06544976494803,1079.046761017152,-1.5706112252570361,0.03303746643621768,0.019544631389601795,0.7069278511121134,-0.7070252658776992,0.004772121746197798,0.018587995766564835
-0.4766348044024866,-2.1873074970641078,-1.164534568786621,-1.3957406443408509,1.5855835676193237,1.5132155418395996,-23.390329176782195,233.06450672145397,1079.0436851170869,-1.5706161113740826,0.03291761524724975,0.019360152327411326,0.7069289441204339,-0.7070268381679518,0.004794915523768429,0.018480445344130167
-0.4741290251361292,-2.1956478557982386,-1.1643391847610474,-1.3965354722789307,1.5806539058685303,1.5120635032653809,-23.525661715757384,233.06475587010598,1079.0399319604362,-1.5706204011069815,0.03276247083538631,0.01931770495422807,0.706929250049359,-0.7070286232441909,0.00475502623061985,0.018410623661924586
-0.47297841707338506,-2.2043377361693324,-1.1650537252426147,-1.397166983490326,1.5790728330612183,1.5120028257369995,-23.65936534010083,233.06542427656024,1079.036182492141,-1.5706241116191115,0.032633291365805714,0.019310070987968008,0.7069291961388195,-0.7070302222412964,0.004712016048075337,0.018362281685784437
-0.4657710234271448,-2.21439852337026,-1.1655654907226562,-1.3973983091166993,1.578636646270752,1.5145916938781738,-23.844061798989124,233.0637302866367,1079.03176349773,-1.5706286422497195,0.03251591421851023,0.019428111104171256,0.706927588449715,-0.7070323732178757,0.004628743714290557,0.018362533654050047
-0.45882970491518194,-2.2251063785948695,-1.1664674282073975,-1.3974342954209824,1.5785287618637085,1.5271376371383667,-24.03558682686733,233.06215272905894,1079.027085694023,-1.5706333531002583,0.03256442981045284,0.01954725998017695,0.706924381210497,-0.7070342014330099,0.004603733186301219,0.01842180487604669
-0.4544943014727991,-2.2312814197936,-1.1678657531738281,-1.3974617582610627,1.5784387588500977,1.5365170240402222,-24.13978961152665,233.0610243756163,1079.024519565692,-1.5706356463852165,0.032645272602250856,0.019621307941034342,0.7069221416608549,-0.7070349964970878,0.004606118745778716,0.018476553469012363
-0.45315486589540654,-2.232786317864889,-1.1759161949157715,-1.3958487522653122,1.5784506797790527,1.5391825437545776,-24.103032300810973,233.06012559795522,1079.025099696454,-1.5706332718609355,0.03277785100815444,0.01964497874479072,0.7069215354162143,-0.7070339055243748,0.004644649013138548,0.018531768379629457
-0.4526875654803675,-2.233309408227438,-1.184239149093628,-1.3933759790709992,1.5785048007965088,1.5392423868179321,-24.046252715705528,233.05946277888793,1079.0261300444968,-1.5706307032749964,0.03287183528871904,0.019654163718630595,0.706921486523587,-0.7070328002056503,0.0046746562647094715,0.018568223217261953
