zahirmahammad/RLHF-gello_software/csv/diffstartsamegoalsp100/pose10/output90.csv
shoulder_pan_angle,shoulder_lift_angle,elbow_angle,wrist1_angle,wrist2_angle,wrist3_angle,end_eff_x,end_eff_y,end_eff_z,end_eff_roll,end_eff_pitch,end_eff_yaw,end_eff_w,end_eff_xq,end_eff_yq,end_eff_zq
-1.1036303679095667,-1.6228510342040003,-1.066237211227417,-1.6754490337767542,2.0419578552246094,2.035212516784668,-12.959787289900838,233.1296169851937,1079.2613131222556,-1.5700995299177776,0.05503610759423238,0.016408444849468656,0.7069019324497411,-0.7067286607244743,0.013664889745831334,0.025249332617853414
-0.9746087233172815,-1.6755825481810511,-1.1262717247009277,-1.6734572849669398,2.1255581378936768,2.052161455154419,-13.961697765338677,233.1026716161284,1079.2535356064618,-1.5700675567023226,0.05542352036691947,0.020121093547635,0.7068599819414896,-0.706739106783656,0.012490373822330363,0.026698154132738298
-0.8729928175555628,-1.729774614373678,-1.2380651235580444,-1.6232592068114222,2.1536054611206055,1.963128685951233,-14.41846159504637,233.0763839123776,1079.2463594121903,-1.5700531407779317,0.05399836669985693,0.022383695354927718,0.7068538411687706,-0.7067558268379278,0.01118704047190023,0.026994417590893972
-0.8329499403582972,-1.7621494732298792,-1.3161648511886597,-1.56875989496287,2.1524925231933594,1.8501331806182861,-14.521748797548174,233.06545637446894,1079.2412932225968,-1.570059366863801,0.051873203374467075,0.02306136781735442,0.7068710015518423,-0.7067729895407187,0.010195929119540112,0.026483418400196943
-0.8161056677447718,-1.7918898067870082,-1.3624855279922485,-1.5417798154852171,2.1481151580810547,1.729141354560852,-14.707759479053973,233.06313627364585,1079.2348458041902,-1.5700677610623022,0.04958017254229057,0.023276999917776146,0.7068951706249385,-0.706788167083515,0.00930868861833358,0.025749814253145428
-0.8112319151507776,-1.8321739635863246,-1.3815077543258667,-1.5296669018319626,2.1357100009918213,1.609663724899292,-15.208287392136938,233.06949695874619,1079.222809840197,-1.5700937875200671,0.04691295657837938,0.023142846102258693,0.7069213558334729,-0.7068085643570031,0.008412503416969178,0.02476044838882902
-0.8094289938556116,-1.8764430485167445,-1.3637006282806396,-1.5281088215163727,2.0398616790771484,1.528618574142456,-15.912879963192696,233.08493985457915,1079.2035632819138,-1.5701649453619761,0.04438967743681126,0.021497533596686002,0.7069462882630393,-0.7068373206019984,0.008100770516911101,0.023287877368534902
-0.7973893324481409,-1.9171997509398402,-1.3425312042236328,-1.5297344487956543,1.9151597023010254,1.498430848121643,-16.57608522653261,233.09762074062107,1079.1839965873492,-1.5702387685599155,0.04281228036883989,0.019527996047810196,0.7069603902512069,-0.7068618029639108,0.008238194853585273,0.0220347514627492
-0.7884462515460413,-1.9602357349791468,-1.3251888751983643,-1.5278280538371583,1.8528976440429688,1.4909372329711914,-17.344934550315468,233.1086693655798,1079.165278135078,-1.5702920909040077,0.04159558375718227,0.01859522634289152,0.7069648202948134,-0.706881806762588,0.008137039273835786,0.021275401886620058
-0.7716620604144495,-2.001482149163717,-1.310652732849121,-1.523408868615963,1.8264973163604736,1.4894980192184448,-18.15964897048184,233.11510533505043,1079.1478120848024,-1.5703328080862722,0.0405205111189053,0.018425761820277237,0.7069635333159537,-0.7068998059574391,0.007816343742115725,0.020835826579773616
-0.7528112570392054,-2.039015909234518,-1.2981479167938232,-1.5006803956678887,1.8198349475860596,1.4908217191696167,-18.97210270597704,233.1191542386322,1079.1312925945138,-1.570374880341625,0.039274284381223476,0.018636833424236603,0.7069593543067684,-0.7069201794759921,0.007300625001044123,0.020470273138933827
-0.7357409636126917,-2.074153562585348,-1.289860725402832,-1.4690320205739518,1.8190127611160278,1.494161605834961,-19.72844183070038,233.12235772175583,1079.1154686702891,-1.5704167091494088,0.03802296838335814,0.01891882463145665,0.7069544092626957,-0.7069403490373536,0.006758052671549465,0.020127961920326207
-0.7257664839373987,-2.103415151635641,-1.2883058786392212,-1.4361379009536286,1.8199511766433716,1.4962904453277588,-20.309339591031662,233.1257124513229,1079.102379030337,-1.5704518649818366,0.03694871978254403,0.019107985427468187,0.7069508221860729,-0.7069568997916508,0.0063109813795969305,0.0198153567073588
-0.7199762503253382,-2.1302195988097132,-1.2866039276123047,-1.4122214031270524,1.8215360641479492,1.496115803718567,-20.820662184626332,233.1297008186294,1079.0902908602231,-1.5704806770578381,0.03603117268457448,0.01923565196269423,0.7069484093563503,-0.7069702826723921,0.005941126898981936,0.019536349142411272
-0.7134016195880335,-2.141841550866598,-1.2858161926269531,-1.4007626932910462,1.8221144676208496,1.495753288269043,-21.061031155015122,233.12993810275663,1079.084912092416,-1.5704938352896585,0.035608471064489576,0.01936002230591823,0.7069466647713601,-0.7069765311289394,0.005747569875302265,0.019430981500440002
-0.6987894217120569,-2.1533590755858363,-1.2855503559112549,-1.3928521138480683,1.8230977058410645,1.496431827545166,-21.32248076828177,233.12696862870374,1079.0797443196632,-1.5705046171389239,0.035276758594309024,0.019631834725872113,0.7069434354194242,-0.7069820434501436,0.005534090551038607,0.01940987372999904
-0.687728230153219,-2.1665169201292933,-1.2873077392578125,-1.3766349417022248,1.8237545490264893,1.4970285892486572,-21.59224101896145,233.12550944027402,1079.0737875785053,-1.570519865895994,0.03480539637239549,0.019835821291512533,0.706940634008003,-0.7069892605284165,0.005295164643506161,0.0193154528096982
-0.6784556547748011,-2.18298401455068,-1.2882106304168701,-1.3581625533154984,1.8238128423690796,1.4971177577972412,-21.91787692349986,233.1254180976378,1079.0661176052174,-1.5705387794720862,0.0342132028730896,0.019998023487581302,0.7069380849387782,-0.7069978913678361,0.00502825035869905,0.019163568635738655
-0.6678074041949671,-2.193984647790426,-1.291648507118225,-1.3464845430902024,1.823837161064148,1.4971965551376343,-22.12802265231855,233.1232838071272,1079.061390778194,-1.5705494726098825,0.033878933509053,0.02018393130543895,0.7069357247456535,-0.7070029541084663,0.004844235499924689,0.019111183706430997
-0.6639583746539515,-2.1998630962767542,-1.2935887575149536,-1.3423504394343873,1.8248491287231445,1.4961820840835571,-22.230012591087313,233.12274120213254,1079.0589684727217,-1.5705538259103184,0.03372040653143106,0.020268619748630198,0.7069348910278371,-0.7070050763542417,0.0047582030816721585,0.019085108336776714
-0.6630647818194788,-2.2020112476744593,-1.293777585029602,-1.340363324885704,1.8252310752868652,1.4957704544067383,-22.270511132857155,233.12279994367336,1079.0579827483168,-1.5705559708095096,0.03364437724049228,0.020290807954355044,0.7069346463689519,-0.7070060671472749,0.004723455978020749,0.019066088843065633
-0.6627934614764612,-2.203320165673727,-1.2939789295196533,-1.3394811910441895,1.8253474235534668,1.495703935623169,-22.29256140456602,233.12293035443892,1079.0574067448663,-1.5705570625321594,0.03360850646592125,0.020297537008425022,0.7069345381961367,-0.7070065534022277,0.004708383359333725,0.019055793813413713
-0.6634071508990687,-2.204034467736715,-1.2952907085418701,-1.3392502230456849,1.8254172801971436,1.494033694267273,-22.29075312155019,233.12317322036026,1079.0572843108853,-1.5705568496880582,0.03358574850462371,0.020288045477062967,0.7069349206279824,-0.7070065093330594,0.00470369373506337,0.019044396095374568
-0.6639583746539515,-2.204226156274313,-1.297461986541748,-1.3391784590533753,1.8254272937774658,1.4914551973342896,-22.273080142351187,233.1232082901069,1079.0575250759352,-1.5705557872209366,0.03357402613334761,0.020278624448369083,0.7069354975122127,-0.7070061391705077,0.00470288932387025,0.019036921084577843
-0.6648991743670862,-2.2042862377562464,-1.3018584251403809,-1.339154602294304,1.8254785537719727,1.4901633262634277,-22.23260393877011,233.12314583419104,1079.0581591140888,-1.5705533810979129,0.033626707629487086,0.020263174409531542,0.7069359935449153,-0.7070051281863547,0.004727001424897414,0.019050071033690334
-0.6661637465106409,-2.2043220005431117,-1.3072105646133423,-1.3391581189683457,1.8254246711730957,1.489689588546753,-22.181987014022504,233.1231107443732,1079.058943249192,-1.5705504283212963,0.03371124208959361,0.020240260439263656,0.7069364500363832,-0.7070038296952038,0.0047650201295384486,0.019071837599885733
