zahirmahammad/RLHF-gello_software/csv/90close/output9.csv
shoulder_pan_angle,shoulder_lift_angle,elbow_angle,wrist1_angle,wrist2_angle,wrist3_angle,end_eff_x,end_eff_y,end_eff_z,end_eff_roll,end_eff_pitch,end_eff_yaw,end_eff_w,end_eff_xq,end_eff_yq,end_eff_zq,gripper_pos
-1.5464547316180628,-1.5551690117320796,-1.5412006378173828,-1.572390695611471,1.5937588214874268,1.5783042907714844,0.01568627450980392,-0.12246698795266085,-0.3014658630261839,0.31730363981365906,2.1703470331525323,2.204623757655035,-0.01738322100745268,0.01568627450980392,0.01568627450980392
-1.5451844374286097,-1.5558468553102394,-1.5407301187515259,-1.5723597011961878,1.5937713384628296,1.5777854919433594,0.0196078431372549,-0.1219664094239219,-0.301807477797026,0.3172539750722968,2.16801166373663,2.207095986950037,-0.017212110310789945,0.0196078431372549,0.0196078431372549
-1.5426443258868616,-1.5565570418587704,-1.5402270555496216,-1.5723277531065882,1.593775749206543,1.577287197113037,0.0196078431372549,-0.12117119105227304,-0.3023455347937083,0.3171965034519598,2.1648846181726547,2.210393120067467,-0.01699051792373607,0.0196078431372549,0.0196078431372549
-1.5401065985309046,-1.5577824872783204,-1.5390266180038452,-1.5723277531065882,1.5937995910644531,1.5771193504333496,0.0196078431372549,-0.12036044437091244,-0.30298837531871164,0.31723152517133085,2.1617124269955785,2.2133589244695764,-0.01693273593716928,0.0196078431372549,0.0196078431372549
-1.536539379750387,-1.5593901540017505,-1.537131428718567,-1.5723124943175257,1.5937588214874268,1.5770184993743896,0.01568627450980392,-0.11884854449113783,-0.30396434671402967,0.3173418492597432,2.1559569571416493,2.2186062556858763,-0.017158505190159823,0.01568627450980392,0.01568627450980392
-1.528130833302633,-1.5603950082189222,-1.5357345342636108,-1.572177072564596,1.5938376188278198,1.5769597291946411,0.0196078431372549,-0.11563358608507288,-0.3054727465711595,0.31751676734243467,2.143683225209977,2.2294128301072895,-0.017696075191225267,0.0196078431372549,0.0196078431372549
-1.5136850515948694,-1.5609381238794704,-1.534998893737793,-1.571261545220846,1.5938050746917725,1.5769705772399902,0.0196078431372549,-0.11042668474086158,-0.3075876815227438,0.31756912111726754,2.1243636777521413,2.246865519147297,-0.01791611422788892,0.0196078431372549,0.0196078431372549
-1.4920676390277308,-1.5612503870255132,-1.5349786281585693,-1.5703838852681038,1.5937800407409668,1.5773661136627197,0.0196078431372549,-0.10325488081809236,-0.31016872235224446,0.3175386144508272,2.0984757140060855,2.270511683333828,-0.01751447105651218,0.0196078431372549,0.0196078431372549
-1.4663885275470179,-1.5614217084697266,-1.535585880279541,-1.56977598942861,1.5937985181808472,1.5778777599334717,0.0196078431372549,-0.0951375375103092,-0.31275297043424993,0.3172847502447371,2.0692615648127837,2.2973289352984665,-0.016087233813461107,0.0196078431372549,0.0196078431372549
-1.4396355787860315,-1.5615053933909913,-1.5368380546569824,-1.5690085126883169,1.593832015991211,1.5781461000442505,0.0196078431372549,-0.08655429303504647,-0.3152124901257291,0.31690206411771493,2.038262451896832,2.3255305381309674,-0.014325714571225032,0.0196078431372549,0.0196078431372549
-1.411464039479391,-1.5615533155253907,-1.5382080078125,-1.5683722298457106,1.5937670469284058,1.5783486366271973,0.0196078431372549,-0.07737345504887833,-0.3175491762389901,0.31654847602737335,2.004630890333057,2.355057581817518,-0.012561814387016706,0.0196078431372549,0.0196078431372549
-1.3804352919207972,-1.5615614888123055,-1.5396515130996704,-1.567533962228783,1.5937588214874268,1.5784924030303955,0.0196078431372549,-0.06710882800503146,-0.31984030375872063,0.3162084275828328,1.9670494506038203,2.3869862917405147,-0.010716121254373741,0.0196078431372549,0.0196078431372549
-1.3473814169513147,-1.5615737478113552,-1.5406737327575684,-1.5668072968586166,1.593827724456787,1.5789837837219238,0.0196078431372549,-0.05657740886016561,-0.3218613925600294,0.3159651450457096,1.9282441866136104,2.418575658701765,-0.009192497231564359,0.0196078431372549,0.0196078431372549
-1.3130105177508753,-1.5616683999872585,-1.541750431060791,-1.5659116788632055,1.5938602685928345,1.5794669389724731,0.0196078431372549,-0.045188133094124366,-0.32368883207155885,0.31562918906928294,1.885938115808258,2.4520119070553497,-0.007448398194318229,0.0196078431372549,0.0196078431372549
-1.2759383360492151,-1.5622512384182592,-1.5429197549819946,-1.5648160886815567,1.593815803527832,1.5797111988067627,0.0196078431372549,-0.03267496113202029,-0.32530404610151287,0.31519089730143374,1.8391142373209035,2.487952170033085,-0.005369471530152437,0.0196078431372549,0.0196078431372549
-1.23491079012026,-1.5631613547778507,-1.543726921081543,-1.5640607637218018,1.593750238418579,1.5798585414886475,0.0196078431372549,-0.01879759993393772,-0.3265687093313811,0.31475218256118603,1.7865353262252455,2.5268712985822783,-0.0029656735873184637,0.0196078431372549,0.0196078431372549
-1.1925471464740198,-1.5643785756877442,-1.5441818237304688,-1.5635775013691564,1.5937845706939697,1.5799269676208496,0.0196078431372549,-0.004952706785515728,-0.3272723847627357,0.31423594167212066,1.7337036932932666,2.564840848173682,-0.00014346053971478026,0.0196078431372549,0.0196078431372549
-1.1510117689715784,-1.565705837947764,-1.5445051193237305,-1.5633772176555176,1.5937845706939697,1.580013394355774,0.0196078431372549,0.008497813967162988,-0.32734417836707275,0.3137236238197759,1.6818188187539913,2.600844218866125,0.0026678963907750615,0.0196078431372549,0.0196078431372549
-1.1101062933551233,-1.5668857258609314,-1.545098900794983,-1.5636530679515381,1.5938245058059692,1.5799975395202637,0.01568627450980392,0.02189816889727126,-0.3268497985186273,0.3132874216357403,1.629171793156377,2.635841522247955,0.005299972086983162,0.01568627450980392,0.01568627450980392
-1.0706856886493128,-1.5683167737773438,-1.5450760126113892,-1.5636530679515381,1.5937631130218506,1.5799784660339355,0.0196078431372549,0.035222896182233496,-0.3259592064255481,0.3127229611763055,1.576503337379186,2.6695789005756323,0.008166191424682662,0.0196078431372549,0.0196078431372549
-1.0301650206195276,-1.5707579980047122,-1.545015811920166,-1.5634372991374512,1.5938538312911987,1.579966425895691,0.0196078431372549,0.048283855988721446,-0.32479091579555736,0.31184693258284346,1.5250389432566098,2.702193920183686,0.011425160877815725,0.0196078431372549,0.0196078431372549
-0.9903300444232386,-1.575740476647848,-1.5444129705429077,-1.5632897301441808,1.593828797340393,1.5800659656524658,0.0196078431372549,0.06173192070334124,-0.32341484553555144,0.3103082035282549,1.473476925535973,2.735937297668051,0.016235989500632167,0.0196078431372549,0.0196078431372549
-0.9504883925067347,-1.5827824078001917,-1.5438905954360962,-1.5636840386180957,1.5937296152114868,1.5804457664489746,0.0196078431372549,0.07521981385783622,-0.3215686691301655,0.30839268728018776,1.4218090184955008,2.769874494001769,0.02197788360250682,0.0196078431372549,0.0196078431372549
-0.9110501448260706,-1.5885302029051722,-1.543495774269104,-1.5636876102401693,1.5938200950622559,1.580500602722168,0.0196078431372549,0.08826935345364892,-0.3190021386466312,0.3069650895680788,1.3693221765604187,2.8012186384164908,0.026020984785292408,0.0196078431372549,0.0196078431372549
-0.8719695250140589,-1.5918909511961878,-1.543347716331482,-1.5639732426828523,1.5937800407409668,1.5803066492080688,0.0196078431372549,0.10100937990876292,-0.3155826114135006,0.3060624614267644,1.3151291553487048,2.8308001102814075,0.028951711415622035,0.0196078431372549,0.0196078431372549
-0.8347023169146937,-1.5937935314574183,-1.5432673692703247,-1.564819818628468,1.593775749206543,1.5800862312316895,0.0196078431372549,0.11261686650035373,-0.31178427956316457,0.3057129725667183,1.263329847924401,2.856339855729156,0.030497600818273126,0.0196078431372549,0.0196078431372549
-0.798293415700094,-1.5945927105345667,-1.542768955230713,-1.5653950258022924,1.5938081741333008,1.5795482397079468,0.0196078431372549,0.1237428133464092,-0.3076637167794958,0.30547007609694105,1.2119854184557983,2.8799761534595505,0.03148906918576213,0.0196078431372549,0.0196078431372549
-0.7615483442889612,-1.595769544641012,-1.5426818132400513,-1.5653516778587182,1.593832015991211,1.5790749788284302,0.0196078431372549,0.13494233922217455,-0.3031852406806869,0.304990728819745,1.159972677645228,2.9032438892536794,0.03298721833366867,0.0196078431372549,0.0196078431372549
-0.7269628683673304,-1.5984937153258265,-1.5421632528305054,-1.5655872759274025,1.5937875509262085,1.578787088394165,0.0196078431372549,0.1458660458404999,-0.29864250012422483,0.30424491347910665,1.1097352137629557,2.9257766277887316,0.03480909791051889,0.0196078431372549,0.0196078431372549
-0.6928790251361292,-1.6022244892516078,-1.540964961051941,-1.5658902924372633,1.5938245058059692,1.578608751296997,0.01568627450980392,0.15646268025782092,-0.2939138868570644,0.30358061666942737,1.0605335689224675,2.946687574207056,0.036415704201105986,0.01568627450980392,0.01568627450980392
-0.6598075071917933,-1.6053687534727992,-1.5393290519714355,-1.5660389226726075,1.5938169956207275,1.5785356760025024,0.0196078431372549,0.16622425854998737,-0.289067625849329,0.30317967260418904,1.0135310033731098,2.9649404526106804,0.037288917807553244,0.0196078431372549,0.0196078431372549
-0.6275227705584925,-1.6071659527220667,-1.5382121801376343,-1.5661985080553968,1.5937557220458984,1.5785164833068848,0.0196078431372549,0.17566447128714388,-0.2837373791057089,0.3029390774599412,0.9662017213306701,2.982071953303015,0.03797783014190576,0.0196078431372549,0.0196078431372549
-0.596720043812887,-1.608119627038473,-1.5377883911132812,-1.5667942327312012,1.5938081741333008,1.5784578323364258,0.0196078431372549,0.18421981113299074,-0.2783324923953762,0.30270626254575717,0.9214214526816357,2.9978474443842784,0.0387347980350881,0.0196078431372549,0.0196078431372549
-0.5675061384784144,-1.6087423763670863,-1.5377764701843262,-1.5676972072436293,1.5938081741333008,1.5784995555877686,0.0196078431372549,0.19211459084933566,-0.27296644781674917,0.30242339102447996,0.8790236238587336,3.012484944609104,0.03948083724244465,0.0196078431372549,0.0196078431372549
-0.5399029890643519,-1.6096192799010218,-1.537722110748291,-1.568432072909065,1.5937962532043457,1.5784685611724854,0.0196078431372549,0.19964860866861966,-0.2676313085326154,0.3020482085135653,0.8380051876629916,3.0261588857706547,0.040301941760172794,0.0196078431372549,0.0196078431372549
-0.5132086912738245,-1.6111556492247523,-1.537752628326416,-1.5688040790012856,1.5937789678573608,1.5784757137298584,0.0196078431372549,0.2069158905163935,-0.26231820204840245,0.3015365744648374,-0.7977123365300135,-3.0375090515445793,-0.040976440124250224,0.0196078431372549,0.0196078431372549
-0.4838908354388636,-1.6129428348936976,-1.5377204418182373,-1.56855662286792,1.5938081741333008,1.5784564018249512,0.0196078431372549,0.21488764077623615,-0.2562025937195815,0.30116606559850284,-0.7522427876683739,-3.0477531431908123,-0.041201205630453624,0.0196078431372549,0.0196078431372549
-0.4544938246356409,-1.6140967808165492,-1.5368034839630127,-1.5681287329974403,1.5938200950622559,1.578425407409668,0.0196078431372549,0.2227177120985636,-0.2497593661007552,0.30125188070598646,-0.7065378115676396,-3.0589871856456607,-0.04101559622688742,0.0196078431372549,0.0196078431372549
-0.4243391195880335,-1.614906450311178,-1.5357418060302734,-1.567441777592041,1.5938093662261963,1.5784528255462646,0.0196078431372549,0.23055516219146063,-0.2429931926146939,0.3011654034635852,-0.6597611993685663,-3.069232907690379,-0.04088190213089133,0.0196078431372549,0.0196078431372549
-0.39349681535829717,-1.6174870930113734,-1.5348999500274658,-1.5668949168505897,1.5938376188278198,1.578452706336975,0.0196078431372549,0.23852858646555072,-0.2360597022048028,0.30037305078190724,-0.6121508586982972,-3.0764846592819364,-0.04141005111211748,0.0196078431372549,0.0196078431372549
-0.36380225816835576,-1.623216291467184,-1.5336507558822632,-1.5664512201077123,1.593775749206543,1.578437328338623,0.0196078431372549,0.24633665303270733,-0.22958937048493253,0.29879194506671897,-0.5673597996435855,-3.080002250142976,-0.04249944074574202,0.0196078431372549,0.0196078431372549
-0.3373301664935511,-1.632427831689352,-1.5299016237258911,-1.5657953408411522,1.593738317489624,1.5784517526626587,0.0196078431372549,0.253988406393142,-0.22390235704431374,0.2972378607879649,-0.5272499851015561,-3.0824419726976635,-0.043357983685632734,0.0196078431372549,0.0196078431372549
-0.3131659666644495,-1.6439806423582972,-1.5217115879058838,-1.5652595323375245,1.5937221050262451,1.5778979063034058,0.0196078431372549,0.2618023841229294,-0.2187368465961067,0.2963343099932037,-0.49007262583998557,-3.0862198149451148,-0.04353317186901118,0.0196078431372549,0.0196078431372549
-0.29168874422182256,-1.6569425068297328,-1.5095125436782837,-1.5651398611119767,1.5937919616699219,1.5774140357971191,0.0196078431372549,0.2694218433851232,-0.2140834696698158,0.29621635009323466,-0.4565963449481577,-3.091380414483325,-0.04304328118998234,0.0196078431372549,0.0196078431372549
-0.2711237112628382,-1.6697284183897914,-1.4942249059677124,-1.5664815127714355,1.5938245058059692,1.5765836238861084,0.0196078431372549,0.27640612369981615,-0.20948021476810597,0.2964342434543901,-0.4247480849986405,-3.0959893451548495,-0.04315441492820394,0.0196078431372549,0.0196078431372549
-0.2538979689227503,-1.6783977947630824,-1.484918236732483,-1.568859296883904,1.594420075416565,1.5755935907363892,0.0196078431372549,0.2811860893366642,-0.2053079261155163,0.29598954265856586,-0.3983167593046931,-3.0969223121320875,-0.04446134343410845,0.0196078431372549,0.0196078431372549
-0.2382128874408167,-1.6829201183714808,-1.4827756881713867,-1.5705304919432201,1.595335841178894,1.5752928256988525,0.0196078431372549,0.28486778334221585,-0.2005124046999827,0.2945195791379539,-0.37147579534569825,-3.094316863400048,-0.046827385658619866,0.0196078431372549,0.0196078431372549
-0.2184985319720667,-1.6839548550047816,-1.4898298978805542,-1.571916242639059,1.5965375900268555,1.575303554534912,0.0196078431372549,0.287854062436788,-0.19426580601402904,0.29165782491903325,-0.33870187370971666,-3.0873227872091764,-0.04966609391439742,0.0196078431372549,0.0196078431372549
-0.1972749868976038,-1.6817013225951136,-1.5027860403060913,-1.5723072491087855,1.597376823425293,1.5753179788589478,0.0196078431372549,0.29020106283290104,-0.1876658843809559,0.28866191450493134,-0.3050505620312788,-3.079892419510855,-0.051592014562840384,0.0196078431372549,0.0196078431372549
-0.1761863867389124,-1.6783291302123011,-1.5149973630905151,-1.572411676446432,1.597901463508606,1.5759196281433105,0.0196078431372549,0.2923845711659946,-0.18133211201285826,0.28654614244527077,-0.27392646248133296,-3.0749361061039844,-0.05212882416321934,0.0196078431372549,0.0196078431372549
-0.15678006807436162,-1.6749092541136683,-1.5233373641967773,-1.5724035702147425,1.598240852355957,1.5767464637756348,0.0196078431372549,0.2943976073604343,-0.17583588326769556,0.28558412880597045,-0.24701039518887355,-3.0733548757385076,-0.05253279541364182,0.0196078431372549,0.0196078431372549
-0.1376283804522913,-1.6706081829466761,-1.5293387174606323,-1.5723911724486292,1.5990207195281982,1.5765068531036377,0.0196078431372549,0.2964549815820077,-0.16986493275918238,0.28533111003013806,-0.21615589153670542,-3.0741403252633663,-0.052808459364519965,0.0196078431372549,0.0196078431372549
-0.11880141893495733,-1.6643148861327113,-1.5359342098236084,-1.572160383264059,1.5994396209716797,1.575441598892212,0.0196078431372549,0.29828790114615705,-0.16267386331421746,0.2857444163243883,-0.17925745750267744,-3.0773178600099182,-0.05236549671570817,0.0196078431372549,0.0196078431372549
-0.09096128145326787,-1.6518246136107386,-1.5466890335083008,-1.5707706717297079,1.5997182130813599,1.5751900672912598,0.0196078431372549,0.2996138220967103,-0.15527591412002947,0.2862657814354861,-0.14241947428448268,-3.08088930790808,-0.05145905332017166,0.0196078431372549,0.0196078431372549
-0.07318336168398076,-1.6434012852110804,-1.557188868522644,-1.5695914309802284,1.599880576133728,1.5752642154693604,0.0196078431372549,0.30011310512397704,-0.14986123584989783,0.2856439681009117,-0.11560824475751452,-3.0800034294404255,-0.05100834165756187,0.0196078431372549,0.0196078431372549
-0.057265583668844044,-1.6368075809874476,-1.56791090965271,-1.5685816004737099,1.5998748540878296,1.5753886699676514,0.0196078431372549,0.3005433777102376,-0.14531398788588665,0.28465256117119797,-0.09313232435763666,-3.0774759107168075,-0.05021502685840709,0.0196078431372549,0.0196078431372549
-0.045142952595846,-1.6324368915953578,-1.575208306312561,-1.567641965845116,1.599370002746582,1.575803279876709,0.0196078431372549,0.30103050338390286,-0.14209513623739092,0.28406264185633534,-0.07715084304500233,-3.076354542352372,-0.04894157756742026,0.0196078431372549,0.0196078431372549
-0.037422959004537404,-1.6299425564207972,-1.5792195796966553,-1.5664261908135195,1.598955512046814,1.5758872032165527,0.0196078431372549,0.3014090489333345,-0.14018799419916683,0.28381340426982854,-0.0673412597893831,-3.0763444091109418,-0.04794198421551795,0.0196078431372549,0.0196078431372549
-0.033135239277974904,-1.6286856136717738,-1.5813499689102173,-1.5655881448513647,1.5986994504928589,1.5757243633270264,0.0196078431372549,0.3016089276581485,-0.139170870072745,0.28363953950295834,-0.061814486778943925,-3.076216016764976,-0.04757048453784353,0.0196078431372549,0.0196078431372549
-0.030896965657369435,-1.6281362972655238,-1.5828187465667725,-1.5651325269467016,1.598577857017517,1.5755326747894287,0.0196078431372549,0.30173805568863604,-0.13856237841085428,0.2834523747903803,-0.05836715999119562,-3.075919998696873,-0.04713346471800728,0.0196078431372549,0.0196078431372549
-0.028384987507955373,-1.6278354130186976,-1.5836726427078247,-1.5648878377727051,1.5985275506973267,1.57546067237854,0.0196078431372549,0.3021356740700127,-0.13750866944582427,0.28336130607442833,-0.052916638005872325,-3.0757966071017826,-0.04693341172842735,0.01568627450980392,0.01568627450980392
-0.022518459950582326,-1.6276523075499476,-1.5840171575546265,-1.5647874654135485,1.5984563827514648,1.5754282474517822,0.01568627450980392,0.3030030835829911,-0.1355161516529812,0.2833350431628171,-0.04275407917443319,-3.075835244990167,-0.04652892168050892,0.0196078431372549,0.0196078431372549
-0.01504069963564092,-1.6276165447630824,-1.5839684009552002,-1.5646482121995469,1.598449945449829,1.5754210948944092,0.0196078431372549,0.30428058318865286,-0.13276537340862535,0.283471559785351,-0.028967486436032527,-3.076529132572561,-0.04602344302866769,0.0196078431372549,0.0196078431372549
-0.0032838026629846695,-1.6276265583434046,-1.582956314086914,-1.564128802423813,1.5984143018722534,1.575852632522583,0.0196078431372549,0.30604757340767386,-0.12908431191554484,0.28389851915888387,-0.011131710500892176,-3.0782747810761206,-0.04552778773543323,0.0196078431372549,0.0196078431372549
0.00927222240716219,-1.627568861047262,-1.5811514854431152,-1.5636890547214826,1.5983761548995972,1.576379656791687,0.0196078431372549,0.3077959872377429,-0.12541765559786908,0.2844353917960707,0.006629501064389507,-3.080227371072369,-0.04489852546990629,0.0196078431372549,0.0196078431372549
0.01955101266503334,-1.6275721989073695,-1.5799059867858887,-1.5634010595134278,1.5984293222427368,1.5766661167144775,0.0196078431372549,0.3091280563513603,-0.12244803613879048,0.2847729335834529,0.021089561354484202,-3.0813455445727924,-0.04451678306680488,0.0196078431372549,0.0196078431372549
0.027978600934147835,-1.627556940118307,-1.5791832208633423,-1.563265590728708,1.59836745262146,1.5767908096313477,0.0196078431372549,0.310178020284731,-0.12000867436816635,0.2849951620203894,0.03308255745653464,-3.081987917833166,-0.04419576809673253,0.0196078431372549,0.0196078431372549
0.03471577167510986,-1.627545019189352,-1.5783181190490723,-1.5631816478310903,1.5984368324279785,1.5768747329711914,0.0196078431372549,0.3109893143117866,-0.11812733943690994,0.2852380934382334,0.04236735130642317,-3.0826596065219953,-0.04398234128592513,0.0196078431372549,0.0196078431372549
0.039290834218263626,-1.627575536767477,-1.5777947902679443,-1.5631650013713916,1.5984055995941162,1.5769226551055908,0.0196078431372549,0.3114740093776237,-0.1169310252837364,0.2853233962207307,0.04816754692181206,-3.0828235383461715,-0.04381288825472761,0.0196078431372549,0.0196078431372549
0.04189913347363472,-1.6275412044920863,-1.5777837038040161,-1.5631614488414307,1.5983957052230835,1.5769226551055908,0.0196078431372549,0.31172133074415426,-0.11627469964227911,0.2853146555005073,0.05140607811497266,-3.0827314126057073,-0.04369853288328999,0.0196078431372549,0.0196078431372549
0.04327504709362984,-1.627587457696432,-1.5779225826263428,-1.5631686563468357,1.5983549356460571,1.5768952369689941,0.0196078431372549,0.3118125151138225,-0.11596086419304372,0.28526135586792345,0.05319522751195411,-3.082472696297981,-0.04356585949449213,0.0196078431372549,0.0196078431372549
0.043857645243406296,-1.6275602779784144,-1.5781739950180054,-1.5631016057780762,1.5983924865722656,1.5765752792358398,0.0196078431372549,0.3118687845953345,-0.11580258604378925,0.2852045533163069,0.054657231818517726,-3.082460648748741,-0.04365104054702213,0.0196078431372549,0.0196078431372549
0.0441889762878418,-1.6275412044920863,-1.5783308744430542,-1.5620751662975927,1.5983762741088867,1.5759758949279785,0.0196078431372549,0.31209481337929323,-0.11571684822192109,0.2853317613403837,0.05595964822836078,-3.0844657908925193,-0.04372889142944117,0.0196078431372549,0.0196078431372549
0.044356584548950195,-1.6275602779784144,-1.5785019397735596,-1.5563856747797509,1.5984293222427368,1.5756837129592896,0.0196078431372549,0.3128113844264548,-0.11563895893439964,0.2858614582104171,0.0568354546336622,-3.0917309077813067,-0.04405705843195465,0.0196078431372549,0.0196078431372549
0.044435642659664154,-1.6275378666319789,-1.579037070274353,-1.5461826410940667,1.5984249114990234,1.5755362510681152,0.0196078431372549,0.3137055874935532,-0.11558758465869007,0.2865306003674062,0.05743291898759023,-3.101182479865697,-0.044621179620611205,0.0196078431372549,0.0196078431372549
0.04448728635907173,-1.6275412044920863,-1.5794428586959839,-1.538132705991604,1.5983880758285522,1.5754797458648682,0.0196078431372549,0.3143510567962235,-0.11555504314599449,0.2870049418887956,0.057810820122798104,-3.107915481571924,-0.04492341917265227,0.0196078431372549,0.0196078431372549
0.04445219039916992,-1.627556940118307,-1.579885721206665,-1.5330407184413453,1.598436951637268,1.575467824935913,0.0196078431372549,0.31464557642528707,-0.11555942692753468,0.2870970132282527,0.05779130969778673,-3.111214472224236,-0.04526125193803693,0.0196078431372549,0.0196078431372549
0.044052742421627045,-1.627575536767477,-1.5809919834136963,-1.530302384202816,1.5988510847091675,1.575397253036499,0.0196078431372549,0.31467162942773347,-0.11567958565527969,0.2869914050006401,0.057082993041524026,-3.112407413171271,-0.046112715777775495,0.0196078431372549,0.0196078431372549
0.04352393373847008,-1.627545019189352,-1.5819215774536133,-1.5289870885065575,1.5993274450302124,1.5753850936889648,0.0196078431372549,0.3146303417786771,-0.11576393892103397,0.2868397395670923,0.05640496566959114,-3.1125644844115623,-0.046894988104695626,0.0196078431372549,0.0196078431372549
0.04323560371994972,-1.6275412044920863,-1.5824841260910034,-1.5285113614848633,1.5996313095092773,1.5754163265228271,0.0196078431372549,0.31457970651799555,-0.11582897083900484,0.2867406444246422,0.05605093616028114,-3.1124441909175387,-0.04711889804186539,0.0196078431372549,0.0196078431372549
0.04303232580423355,-1.627556940118307,-1.5828670263290405,-1.52852692202244,1.599738359451294,1.575404405593872,0.0196078431372549,0.3144593855229469,-0.1159468676355282,0.28657603466320397,0.05530913146485815,-3.111814889117227,-0.047299654217879676,0.027450980392156862,0.027450980392156862
0.042604293674230576,-1.6274930439391078,-1.583509922027588,-1.5288543340614815,1.599908709526062,1.575453519821167,0.027450980392156862,0.31430889341126245,-0.11601529919712526,0.28644920899810145,0.05459575445388684,-3.1111273061874725,-0.047335609494766874,0.12156862745098039,0.12156862745098039
0.04256176948547363,-1.6270333729186,-1.5839492082595825,-1.5292187643102189,1.5999287366867065,1.576316237449646,0.12156862745098039,0.3141655252677906,-0.11600862699545841,0.28642927147706915,0.0526728102617711,-3.1107222605103195,-0.04728380788609568,0.12156862745098039,0.24705882352941178
0.04259776324033737,-1.626427789727682,-1.5842554569244385,-1.5301013377359887,1.5999361276626587,1.5780730247497559,0.24705882352941178,0.31394824120550946,-0.11603595089276948,0.2865414034561088,0.05030457662791248,-3.1103133113826846,-0.04714630412616159,0.5215686274509804,0.5215686274509804
0.04200784116983414,-1.6256896458067835,-1.5841922760009766,-1.5314489167979737,1.599438190460205,1.5790677070617676,0.5215686274509804,0.31358953508763715,-0.11643852310134833,0.28655604467796475,0.04695250235451403,-3.109429996592601,-0.046244589907322255,0.5215686274509804,0.796078431372549
0.040233444422483444,-1.6252175770201625,-1.5852584838867188,-1.5326165494373818,1.5989305973052979,1.5799460411071777,0.9333333333333333,0.31306970860222333,-0.1170580739886491,0.286158363481316,0.043092679728217245,-3.107434008810911,-0.045506625894713694,0.9333333333333333,0.9764705882352941
0.038697250187397,-1.6247593365111292,-1.5868548154830933,-1.5333025765470047,1.5987319946289062,1.5801701545715332,0.9764705882352941,0.31267410436845594,-0.11743004499768228,0.285938575079884,0.04118072254004747,-3.1063480786658175,-0.04505917209982141,0.9764705882352941,0.9764705882352941
0.03842302784323692,-1.6237980328001917,-1.5874348878860474,-1.5336596567979832,1.598564624786377,1.580197811126709,0.9764705882352941,0.31236715269155957,-0.11746989361772998,0.28616469650565884,0.04111420729949873,-3.1068286183426053,-0.04501953516931616,0.9764705882352941,0.9764705882352941
0.03888377919793129,-1.6210104427733363,-1.5882521867752075,-1.5338778917542477,1.598463773727417,1.580153465270996,0.9764705882352941,0.31192666219064785,-0.11727787142048991,0.28701041738708777,0.04248311275278865,-3.1094382280403887,-0.04493387119522041,0.9764705882352941,0.9764705882352941
0.03988933563232422,-1.6173182926573695,-1.5885918140411377,-1.5339345534196873,1.5984119176864624,1.5800623893737793,0.9764705882352941,0.3115359900410177,-0.11697236182709145,0.28804938314653733,0.0441239005251921,-3.112716551880418,-0.045081948257644014,0.9764705882352941,0.9764705882352941
0.04116567224264145,-1.613699575463766,-1.5880814790725708,-1.533962008809187,1.5984444618225098,1.5805341005325317,0.9764705882352941,0.3112384188056638,-0.11655210669951531,0.28941343729588803,0.04559191110074617,-3.1172035912283156,-0.045382018590338295,0.9764705882352941,0.9764705882352941
0.04250951483845711,-1.6093555889525355,-1.5876586437225342,-1.533571073119976,1.598453164100647,1.5810089111328125,0.9764705882352941,0.31089984784238056,-0.11618990653392229,0.29087973866912914,0.04713017933882717,-3.122220438292069,-0.045557484113387475,0.9764705882352941,0.9764705882352941
0.043411269783973694,-1.6058656177916468,-1.587174892425537,-1.5334954311004658,1.5984249114990234,1.5811970233917236,0.9764705882352941,0.31057229187508983,-0.11599098793033899,0.29190114173229836,0.048254372074893484,-3.125505349812161,-0.04575327323180691,0.9764705882352941,0.9764705882352941
0.04392579197883606,-1.6036831341185511,-1.5871831178665161,-1.5336550039104004,1.5984010696411133,1.5809574127197266,0.9764705882352941,0.3103578263218135,-0.11586424568272105,0.29240887083812594,0.04950428736022764,-3.1270157386143564,-0.045907302995056014,0.9764705882352941,0.9764705882352941
0.044213056564331055,-1.6025415859618128,-1.5872670412063599,-1.5337987703135987,1.5984336137771606,1.5805068016052246,0.9764705882352941,0.3102401664962107,-0.11579587976181488,0.2926001269323226,0.050522881225705626,-3.127522417192014,-0.04586942317122025,0.9764705882352941,0.9764705882352941
0.04438438266515732,-1.6020313702025355,-1.5874348878860474,-1.5338867169669648,1.5983880758285522,1.5802781581878662,0.9764705882352941,0.310174290690953,-0.11576391647419254,0.2927064319598629,0.050970578319132626,-3.1278771511992165,-0.04592354058667241,0.9764705882352941,0.9764705882352941
0.04439624026417732,-1.601731916467184,-1.5875893831253052,-1.533515853141882,1.5984174013137817,1.5801427364349365,0.9764705882352941,0.3101751154605429,-0.115779867015759,0.2928049390114512,0.051151127387920735,-3.1285619315375697,-0.04598174676832113,0.9764705882352941,0.9764705882352941
0.04411745071411133,-1.6015955410399378,-1.587618350982666,-1.5330278736403962,1.5984262228012085,1.5800933837890625,0.9764705882352941,0.3101624678705139,-0.11586398081824352,0.29285311801154734,0.050942898052666774,-3.129052802801978,-0.045915707161204654,0.9764705882352941,0.9764705882352941
0.044097013771533966,-1.6015550098814906,-1.5876230001449585,-1.532752053146698,1.5984206199645996,1.5800228118896484,0.9764705882352941,0.3101826799336964,-0.11585421830826066,0.2928604754739151,0.050967400633890596,-3.12921139121212,-0.04601883293075811,0.9764705882352941,0.9764705882352941
0.044121161103248596,-1.6015235386290492,-1.5876697301864624,-1.5326153498939057,1.5984055995941162,1.5799989700317383,0.9764705882352941,0.310186613374586,-0.1158513571532637,0.29289611393115145,0.05097775782342498,-3.129423471851439,-0.04592797202903865,0.9764705882352941,0.9764705882352941
0.04424537718296051,-1.6014844379820765,-1.587685227394104,-1.5325075660697003,1.598478078842163,1.579986810684204,0.9764705882352941,0.3102120225335824,-0.11579215395693677,0.29289263143168387,0.0513323642721835,-3.129450150546268,-0.04598633758124926,0.9764705882352941,0.9764705882352941
0.044352937489748,-1.6014844379820765,-1.5876816511154175,-1.5324883249453087,1.598453164100647,1.5799918174743652,0.9764705882352941,0.3102147060392799,-0.11579034850693135,0.2929137685103692,0.05131290193594842,-3.1295336915873846,-0.045939630028749685,0.9764705882352941,0.9764705882352941
0.044049106538295746,-1.6014720402159632,-1.587734341621399,-1.532452357267477,1.598436951637268,1.579959511756897,0.9764705882352941,0.31013112231773465,-0.11593803479864569,0.29281105473417546,0.0505523010679516,-3.129215394511788,-0.04598992106966674,0.9764705882352941,0.9764705882352941
0.04354309290647507,-1.6014720402159632,-1.588220477104187,-1.532460519378521,1.5984336137771606,1.5799593925476074,0.9764705882352941,0.3100337372642596,-0.11607322957407895,0.29268326762528807,0.04993337338457038,-3.1287423940839774,-0.0459098457697838,0.9764705882352941,0.9764705882352941
0.043240226805210114,-1.601487775842184,-1.588564395904541,-1.5328960430673142,1.5983794927597046,1.5799665451049805,0.9764705882352941,0.30993433800885734,-0.11615036714546219,0.292586255088493,0.0495037319553195,-3.1280282955081193,-0.045904728399999935,0.9764705882352941,0.9764705882352941
0.043093036860227585,-1.6014758549132289,-1.5885249376296997,-1.5334224824658413,1.5983761548995972,1.5800061225891113,0.9764705882352941,0.30988702804343576,-0.11617537576360736,0.2925442685366576,0.0493512778068948,-3.1275839847993683,-0.04590268809199811,0.9764705882352941,0.9764705882352941
