zahirmahammad/RLHF-gello_software/csv/90close/output3.csv
shoulder_pan_angle,shoulder_lift_angle,elbow_angle,wrist1_angle,wrist2_angle,wrist3_angle,end_eff_x,end_eff_y,end_eff_z,end_eff_roll,end_eff_pitch,end_eff_yaw,end_eff_w,end_eff_xq,end_eff_yq,end_eff_zq,gripper_pos
-1.6245926062213343,-1.6285058460631312,-1.5588914155960083,-1.4910365504077454,1.601478099822998,1.5524042844772339,0.01568627450980392,-0.14595511240121317,-0.3080239565580938,0.29688625552971143,2.2288487153078176,2.147585262721256,-0.003234357442918801,0.01568627450980392,0.01568627450980392
-1.6245477835284632,-1.629319807092184,-1.5567536354064941,-1.491029219036438,1.6014779806137085,1.5524005889892578,0.01568627450980392,-0.14595604674047075,-0.3083372369059562,0.2971975026676426,2.2282822545133283,2.14714239153771,-0.004442614937178364,0.01568627450980392,0.01568627450980392
-1.624523941670553,-1.629866739312643,-1.555355429649353,-1.4910292115858574,1.6014856100082397,1.5524197816848755,0.01568627450980392,-0.14595882286019368,-0.3085223170313685,0.29740226347267706,2.2278496434836366,2.146910652777298,-0.0052395978480619275,0.01568627450980392,0.01568627450980392
-1.6244118849383753,-1.6303373775877894,-1.5546813011169434,-1.491017372613289,1.6014693975448608,1.5523767471313477,0.01568627450980392,-0.14589137227412885,-0.3086874270411535,0.297372402306651,2.227686212081505,2.147157867588852,-0.0051309466583977755,0.01568627450980392,0.01568627450980392
-1.6234539190875452,-1.631019731561178,-1.5542020797729492,-1.4910450738719483,1.6015030145645142,1.5523840188980103,0.01568627450980392,-0.14550796949921374,-0.3089791199500335,0.2973868178532793,2.226275036666517,2.148504446532955,-0.005171146838753194,0.01568627450980392,0.01568627450980392
-1.6215089003192347,-1.6310235462584437,-1.5540673732757568,-1.4910761651447793,1.601454257965088,1.5523685216903687,0.01568627450980392,-0.1444345709113516,-0.30947577301510526,0.29736941367099157,2.2226701074982635,2.1525855015145505,-0.005059915804503975,0.01568627450980392,0.01568627450980392
-1.6145675818072718,-1.630991121331686,-1.5544456243515015,-1.4915831250003357,1.6009907722473145,1.5524197816848755,0.01568627450980392,-0.1420246113609553,-0.31048455959908794,0.29712036453886187,2.2149917543930737,2.1621859738641245,-0.0039262883258753874,0.01568627450980392,0.01568627450980392
-1.605814282094137,-1.6312900982298792,-1.5556297302246094,-1.4920117047480126,1.6004786491394043,1.5523730516433716,0.01568627450980392,-0.13920873176622936,-0.3116592452571363,0.2964914171176519,2.2065200408126833,2.1735639226990626,-0.0013739584719204554,0.01568627450980392,0.01568627450980392
-1.5950687567340296,-1.6317092380919398,-1.557517647743225,-1.4922995430282135,1.6001001596450806,1.5524439811706543,0.01568627450980392,-0.13563914303465222,-0.3130628756369258,0.29576950148736675,2.19564679181636,2.187490930307596,0.0013495990358259144,0.01568627450980392,0.01568627450980392
-1.581860367451803,-1.6319123707213343,-1.5598722696304321,-1.4924430784634133,1.5994353294372559,1.5530072450637817,0.01568627450980392,-0.13135592457198336,-0.3147081913140963,0.29502756792935175,2.1829144657595694,2.203265459763146,0.004002786923224025,0.01568627450980392,0.01568627450980392
-1.5671990553485315,-1.6320411167540492,-1.5614814758300781,-1.4925147903016587,1.5988447666168213,1.5539602041244507,0.01568627450980392,-0.12673020622143602,-0.3164960566092975,0.2945737506088925,2.1686348223529697,2.2196072072535684,0.005375434649195406,0.01568627450980392,0.01568627450980392
-1.5518353621112269,-1.6320692501463832,-1.562347412109375,-1.4926182937673111,1.5980379581451416,1.554854154586792,0.01568627450980392,-0.12167211149712544,-0.3184022146054926,0.29428018562121583,2.152772261987231,2.2370261883494855,0.006177913298755121,0.01568627450980392,0.01568627450980392
-1.533816162739889,-1.6321522198119105,-1.563320279121399,-1.4931054946831246,1.59690523147583,1.5563291311264038,0.01568627450980392,-0.11600608069855872,-0.3204314063921796,0.2939770974773156,2.135583603597042,2.256027364360143,0.006826504647388426,0.01568627450980392,0.01568627450980392
-1.515860382710592,-1.6321760616698207,-1.563796877861023,-1.4935885679772873,1.5956058502197266,1.5580334663391113,0.01568627450980392,-0.1098974305621421,-0.3225542224801654,0.2938525347673701,2.1169170913668593,2.275168728263795,0.007108563004098017,0.01568627450980392,0.01568627450980392
-1.4939563910113733,-1.6321569881834925,-1.563800573348999,-1.4938364711454888,1.5952668190002441,1.5607155561447144,0.01568627450980392,-0.10211388763248834,-0.32509646482534427,0.2938426662207305,2.0928665830832593,2.2978055589884345,0.0077144466989253315,0.01568627450980392,0.01568627450980392
-1.470414940510885,-1.632153173486227,-1.5636482238769531,-1.4939720195582886,1.5952094793319702,1.5632259845733643,0.01568627450980392,-0.09552044493751509,-0.32710814410943473,0.2938853730203541,2.0719025456810147,2.316795930954131,0.008152245107150374,0.01568627450980392,0.01568627450980392
-1.4532478491412562,-1.6321379146971644,-1.563393235206604,-1.4940126252225419,1.5952917337417603,1.564731240272522,0.01568627450980392,-0.09032066573781905,-0.3286125372919003,0.29395495501809576,2.054864943104344,2.3317143811453973,0.008310359206039073,0.01568627450980392,0.01568627450980392
-1.4404280821429651,-1.6321569881834925,-1.5632809400558472,-1.4935141217759629,1.5952863693237305,1.5653661489486694,0.01568627450980392,-0.08622429643953201,-0.3297567056336354,0.2940408671626436,2.040253507246315,2.343791042567432,0.008022812728440866,0.01568627450980392,0.01568627450980392
-1.4247506300555628,-1.6321245632567347,-1.5636601448059082,-1.4931848359159012,1.5953432321548462,1.5647120475769043,0.01568627450980392,-0.08006926326113774,-0.33123464096029226,0.2938563545892021,2.0175787260335905,2.363916858238399,0.008964746435645866,0.01568627450980392,0.01568627450980392
-1.4016245047198694,-1.6316968403258265,-1.5649043321609497,-1.4932769697955628,1.5953550338745117,1.5639857053756714,0.01568627450980392,-0.07203783671152347,-0.33284515545003385,0.2935896276042365,1.9884966128382071,2.389435226489068,0.010699372361396607,0.01568627450980392,0.01568627450980392
-1.3775113264666956,-1.6311632595457972,-1.5667558908462524,-1.4931979340365906,1.595415711402893,1.5635614395141602,0.01568627450980392,-0.06451109986145347,-0.3341423731385339,0.2931443839051957,1.961555915325737,2.4129874591241443,0.012755200024861113,0.01568627450980392,0.01568627450980392
-1.3556197325335901,-1.6307374439635218,-1.569273829460144,-1.492821828728058,1.5957741737365723,1.5633182525634766,0.01568627450980392,-0.056602349318721004,-0.33526299821210537,0.29248057819336937,1.9333964481426342,2.4372966957004096,0.015519399732560559,0.01568627450980392,0.01568627450980392
-1.330543343220846,-1.6301099262633265,-1.5725822448730469,-1.4921234411052247,1.5958547592163086,1.5630078315734863,0.01568627450980392,-0.04853287704601407,-0.3361928542591262,0.29172980347374705,1.904099254525409,2.462342926766775,0.018199163153992677,0.01568627450980392,0.01568627450980392
-1.3078458944903772,-1.6295315227904261,-1.5758026838302612,-1.4915924456766625,1.59613037109375,1.5620481967926025,0.01568627450980392,-0.04119972132542207,-0.33672736387846386,0.29084188821930135,1.876768140221815,2.4857665937493083,0.021683153416297705,0.01568627450980392,0.01568627450980392
-1.28456956544985,-1.6286097965636195,-1.581898808479309,-1.4911778581193467,1.5965461730957031,1.561021089553833,0.01568627450980392,-0.033602254612844364,-0.3368337005073963,0.2892594001043546,1.8490008399011038,2.511406827825894,0.02722420624391322,0.01568627450980392,0.01568627450980392
-1.2624147574054163,-1.6273418865599574,-1.587816596031189,-1.490454451446869,1.5966951847076416,1.5599210262298584,0.01568627450980392,-0.026165049321642986,-0.33684481475545264,0.2884032642819706,1.8204570861814857,2.5345326752789714,0.03002177110696485,0.01568627450980392,0.01568627450980392
-1.2393530050860804,-1.6238237820067347,-1.5905718803405762,-1.4895796117237587,1.596725344657898,1.5593030452728271,0.01568627450980392,-0.018186264914184198,-0.33644923009357103,0.2895852940040352,1.7864179556726993,2.554741404256392,0.02666868936465115,0.01568627450980392,0.01568627450980392
-1.2119744459735315,-1.6133738956847132,-1.5928239822387695,-1.4893797200969239,1.5968222618103027,1.558835744857788,0.01568627450980392,-0.009463999866996283,-0.33505354238621116,0.2925539602263006,1.7455146526032268,2.573769965287361,0.0187045765301801,0.01568627450980392,0.01568627450980392
-1.1811302343951624,-1.5991455517210902,-1.5960930585861206,-1.4899108421853562,1.5968618392944336,1.558121681213379,0.01568627450980392,-9.135183453278916e-05,-0.332990756621928,0.2955466486779011,1.7006351329667853,2.594836738964211,0.011452297504512345,0.01568627450980392,0.01568627450980392
-1.1524313131915491,-1.5882355175414027,-1.6009331941604614,-1.4903225910714646,1.5968780517578125,1.5576026439666748,0.01568627450980392,0.00838276763921621,-0.3310855070010086,0.29667715051077514,1.662145795283008,2.616338331868002,0.009468928377796582,0.01568627450980392,0.01568627450980392
-1.1252973715411585,-1.581517835656637,-1.608938217163086,-1.490218238239624,1.5968650579452515,1.5572563409805298,0.01568627450980392,0.016747928655219284,-0.32908966419404573,0.29538296768523975,1.6274807258690602,2.6423136105517386,0.013863850805286073,0.01568627450980392,0.01568627450980392
-1.0959113279925745,-1.5769735775389613,-1.62272047996521,-1.4899071019938965,1.5969386100769043,1.5571284294128418,0.01568627450980392,0.02560144026043315,-0.32669668362513776,0.29282718802958857,1.591667040789668,2.6723551019962213,0.021582685983778445,0.01568627450980392,0.01568627450980392
-1.0667803923236292,-1.572156091729635,-1.6330560445785522,-1.4896876823953171,1.596853256225586,1.5570756196975708,0.01568627450980392,0.034426733339262654,-0.32432879349092636,0.2918027691683801,1.5534372428442806,2.6982531226796675,0.02491638643620595,0.01568627450980392,0.01568627450980392
-1.0368784109698694,-1.5654985935292025,-1.639618992805481,-1.489599199300148,1.5968445539474487,1.5570204257965088,0.01568627450980392,0.04320335161946846,-0.3218693334706027,0.2922894162986328,1.5127159979775187,2.7198227695098702,0.024302178695096762,0.01568627450980392,0.01568627450980392
-1.0072553793536585,-1.5579677245444437,-1.6431044340133667,-1.4895714086345215,1.5969030857086182,1.5569965839385986,0.01568627450980392,0.05199023411844866,-0.3193345834595929,0.29341305449183086,1.4707958545214452,2.7392548350028343,0.02216739265429851,0.01568627450980392,0.01568627450980392
-0.9786046187030237,-1.5523691450110455,-1.645772099494934,-1.4899944376996537,1.5968868732452393,1.5569965839385986,0.01568627450980392,0.0603084979710528,-0.3169971292270076,0.2940707188393354,1.4318121975825249,2.758220182876515,0.02104851841070131,0.01568627450980392,0.01568627450980392
-0.9536088148700159,-1.5492707055858155,-1.6473698616027832,-1.4899907869151612,1.5964460372924805,1.5570157766342163,0.01568627450980392,0.06757222408584766,-0.31507593888081514,0.29442661871245124,1.3982494606892082,2.7744731105543945,0.020376731791099188,0.01568627450980392,0.01568627450980392
-0.9307115713702601,-1.547657949184515,-1.6482200622558594,-1.489802749162056,1.5964102745056152,1.5570085048675537,0.01568627450980392,0.07455215126608133,-0.3132810090544654,0.2946454163582519,1.3665425633790051,2.789439550425487,0.020387656450861633,0.01568627450980392,0.01568627450980392
-0.9093259016620081,-1.5469837945750733,-1.6486464738845825,-1.4896434110454102,1.5964601039886475,1.5570522546768188,0.01568627450980392,0.08123343808868905,-0.31151021532555284,0.2947170957910925,1.3366714540035334,2.803709715489563,0.02082993344294361,0.01568627450980392,0.01568627450980392
-0.8853619734393519,-1.5464376893690606,-1.648879051208496,-1.4896037516048928,1.5962132215499878,1.5581021308898926,0.01568627450980392,0.08861853811603514,-0.309398380931042,0.29484265545328364,1.3044105010060822,2.818867074262841,0.02070735807443177,0.01568627450980392,0.01568627450980392
-0.8624122778521937,-1.545770875444152,-1.6489312648773193,-1.4899992954782029,1.5957891941070557,1.559015154838562,0.01568627450980392,0.09546977656076443,-0.30725723139135347,0.2949562018676585,1.273709591679819,2.8330377160962374,0.020738455085572153,0.01568627450980392,0.01568627450980392
-0.8417623678790491,-1.5453077268651505,-1.6490024328231812,-1.4899944376996537,1.5955543518066406,1.5596383810043335,0.01568627450980392,0.10144898688974689,-0.3053116335179552,0.29509410188642554,1.246608862399471,2.8446456721040905,0.02057054444611584,0.01568627450980392,0.01568627450980392
-0.8234432379352015,-1.545064465408661,-1.6490225791931152,-1.4890646946481247,1.595414161682129,1.5603632926940918,0.01568627450980392,0.10692426302028443,-0.3035276156311953,0.2952132675650871,1.221869513904505,2.854326585854941,0.02020320445288393,0.01568627450980392,0.01568627450980392
-0.806190315877096,-1.545227450584509,-1.6490153074264526,-1.4875311863473435,1.5952949523925781,1.5608808994293213,0.01568627450980392,0.11234078327555178,-0.30172631940785266,0.29531058866371135,1.1966135855540885,2.8638517300253086,0.019391039792624236,0.01568627450980392,0.01568627450980392
-0.787825886403219,-1.54525978982959,-1.6490309238433838,-1.4863535699299355,1.5948467254638672,1.5606377124786377,0.01568627450980392,0.11783266350690891,-0.2997260687556443,0.29534037592995266,1.1695814316255349,2.874574885843632,0.01907175947350696,0.01568627450980392,0.01568627450980392
-0.7694881598102015,-1.545490962719061,-1.6490225791931152,-1.486145095234253,1.5949195623397827,1.5593397617340088,0.01568627450980392,0.12327879004065766,-0.2975514577480695,0.2953078849965876,1.1415212579596712,2.885932099609185,0.01969800318228416,0.01568627450980392,0.01568627450980392
-0.7515056769000452,-1.5454188858023663,-1.649053692817688,-1.4861691755107422,1.5950393676757812,1.5582374334335327,0.01568627450980392,0.1289321496623315,-0.29511074209057586,0.2953467972749696,1.112565930439839,2.897190031020205,0.020518347030368367,0.01568627450980392,0.01568627450980392
-0.7302759329425257,-1.545163945560791,-1.6490188837051392,-1.4863129419139405,1.5951460599899292,1.5576227903366089,0.01568627450980392,0.13532195350868584,-0.29217411726521153,0.29542019265219993,1.0800630864240777,2.9094199770916425,0.021220021690116175,0.01568627450980392,0.01568627450980392
-0.7066157499896448,-1.544916061019041,-1.6490345001220703,-1.4863764208606263,1.595311164855957,1.5572681427001953,0.01568627450980392,0.14247131603588356,-0.2887311070158146,0.29545850578674704,1.0437406600549393,2.9227231973337275,0.021865123162895458,0.01568627450980392,0.01568627450980392
-0.6794818083392542,-1.5448284906199952,-1.6490464210510254,-1.4864241045764466,1.5954270362854004,1.5570240020751953,0.01568627450980392,0.15034123306833425,-0.28468126154830276,0.2954970449112164,1.0029665992054326,2.9369571315266514,0.02307609604797154,0.01568627450980392,0.01568627450980392
-0.6530020872699183,-1.5447496690652152,-1.6490662097930908,-1.4864204686931153,1.5958786010742188,1.5564662218093872,0.01568627450980392,0.15775870495793207,-0.2806169289028499,0.295494240185006,0.9636934211660418,2.950116181452714,0.02453966395388766,0.01568627450980392,0.01568627450980392
-0.6279352347003382,-1.5447374370745202,-1.6490464210510254,-1.4864121240428467,1.5963014364242554,1.555996060371399,0.01568627450980392,0.16453410661558682,-0.27669785536253017,0.29550686585763536,0.9273277906048031,2.961671199574459,0.025721402925736367,0.01568627450980392,0.01568627450980392
-0.6043947378741663,-1.545163945560791,-1.6490501165390015,-1.4858814042857666,1.5965756177902222,1.555811882019043,0.01568627450980392,0.1712762813823076,-0.27270966056711876,0.29539578021431,0.891672567440681,2.9727349213973717,0.02664795329580868,0.01568627450980392,0.01568627450980392
-0.579040829335348,-1.5456906122020264,-1.6490464210510254,-1.4853148472360154,1.5962738990783691,1.5567011833190918,0.01568627450980392,0.17820328152203613,-0.26838860448014096,0.29533042799013576,0.8555877322853523,2.983459275620548,0.026640767838624388,0.01568627450980392,0.01568627450980392
-0.5539224783526819,-1.546001023878791,-1.649049997329712,-1.4846033167890091,1.5958151817321777,1.5575580596923828,0.01568627450980392,0.18509458724176248,-0.2638047822065167,0.29531797292573747,0.818198171020029,2.9938516109574116,0.026642379692667504,0.01568627450980392,0.01568627450980392
-0.5269992987262171,-1.5461335939219971,-1.6490345001220703,-1.4840282511762162,1.5955250263214111,1.5579874515533447,0.01568627450980392,0.192205930529557,-0.25874688899518916,0.2953204418369059,0.7782980523354185,3.0043789435428505,0.02712356983375755,0.01568627450980392,0.01568627450980392
-0.4997165838824671,-1.5462055814317246,-1.649053692817688,-1.4836928632906456,1.5953258275985718,1.5583610534667969,0.01568627450980392,0.19926612183726275,-0.2534069325137963,0.2953227374629629,0.7375747606883003,3.0148062568271468,0.02721182142215036,0.01568627450980392,0.01568627450980392
-0.4716103712665003,-1.5462101989290495,-1.6490308046340942,-1.4835249495557328,1.594770908355713,1.558963656425476,0.01568627450980392,0.20652466930068256,-0.24756778486664602,0.295333855246911,0.6946963667167299,3.0252234970700056,0.027266211284456065,0.01568627450980392,0.01568627450980392
-0.44247228304018194,-1.5462535184672852,-1.6490426063537598,-1.4833814066699524,1.5942997932434082,1.5593760013580322,0.01568627450980392,0.21349436530752783,-0.24164700411244563,0.29535286822376083,0.6520116458387611,3.0347561837933403,0.02736734892223611,0.01568627450980392,0.01568627450980392
-0.4148653189288538,-1.5462654393962403,-1.6490345001220703,-1.4829187405160447,1.5939555168151855,1.5592678785324097,0.01568627450980392,0.2202338241207005,-0.23557067281945882,0.29536121338572896,0.6087397039319955,3.043881775567608,0.02740495037268743,0.01568627450980392,0.01568627450980392
-0.384714428578512,-1.546261792337038,-1.6490345001220703,-1.4829187405160447,1.5932023525238037,1.5589267015457153,0.01568627450980392,0.22673609775533213,-0.2293447380819608,0.2953606391571324,0.5655266932173771,3.052668487053942,0.027186153428185547,0.01568627450980392,0.01568627450980392
-0.3629258314715784,-1.5462855652770777,-1.6490464210510254,-1.483062521820404,1.59282648563385,1.5587241649627686,0.01568627450980392,0.23142375029565093,-0.2246765246299896,0.2952631846520033,0.5339877714778951,3.058956462247199,0.02731615270943769,0.01568627450980392,0.01568627450980392
-0.3440149466144007,-1.5468476501158257,-1.6490345001220703,-1.4826992538622399,1.5924770832061768,1.558608889579773,0.01568627450980392,0.2355959105009018,-0.22045964966623005,0.29518588846469895,0.5059102782235437,3.0638493983546606,0.027450891581376688,0.01568627450980392,0.01568627450980392
-0.32514983812441045,-1.5473775074682017,-1.6490380764007568,-1.4822597664645691,1.5923575162887573,1.5585839748382568,0.01568627450980392,0.23971798552790896,-0.21614835889578535,0.29500938352112915,0.4777929484305358,3.0688727774875035,0.02793153656851943,0.01568627450980392,0.01568627450980392
-0.3077486197101038,-1.54831760310147,-1.6490345001220703,-1.4820165199092408,1.5923171043395996,1.5585250854492188,0.01568627450980392,0.24353724108199326,-0.21207756826877594,0.2947269460945431,0.4516400383432368,3.0738229848854464,0.02845476617300836,0.01568627450980392,0.01568627450980392
-0.2925327459918421,-1.5493305560997506,-1.649049997329712,-1.4819520276835938,1.5922646522521973,1.5585286617279053,0.01568627450980392,0.24682638010419886,-0.20840487757437742,0.2944583771674275,0.42861648542739594,3.078153442471561,0.029298207213404138,0.01568627450980392,0.01568627450980392
-0.27690202394594365,-1.5500525713763018,-1.6490426063537598,-1.482445867066719,1.592928409576416,1.5585561990737915,0.01568627450980392,0.25023389478990526,-0.2043097358153436,0.29422503641684866,0.40376715471618485,3.082717343356605,0.031184631454407762,0.01568627450980392,0.01568627450980392
-0.2599709669696253,-1.5504439634135743,-1.649049997329712,-1.482854039674141,1.5939202308654785,1.558563470840454,0.01568627450980392,0.25357772796960626,-0.20011492409925968,0.29409571787863203,0.3788928432595055,3.08656478476668,0.03336939880726337,0.01568627450980392,0.01568627450980392
-0.24430734315981084,-1.5506916095367451,-1.6490626335144043,-1.483117738073208,1.5952078104019165,1.559059500694275,0.01568627450980392,0.25672369169657405,-0.19595543404045687,0.2939973081373973,0.3554041500635199,3.089881462933616,0.03584126968697496,0.01568627450980392,0.01568627450980392
-0.22851640382875615,-1.5507828400335093,-1.64951753616333,-1.483257846241333,1.5959467887878418,1.5595316886901855,0.01568627450980392,0.2597466254899209,-0.19185083865075353,0.2938653486892267,0.3318888299988075,3.093087048315882,0.03720424521273571,0.01568627450980392,0.01568627450980392
-0.2126377264605921,-1.5509107869914551,-1.6495330333709717,-1.4832623985460778,1.5964666604995728,1.5597951412200928,0.01568627450980392,0.2627803064535182,-0.18773069482124938,0.2937699268854873,0.30800190679103084,3.0959807016351357,0.03832688159701786,0.01568627450980392,0.01568627450980392
-0.19703895250429326,-1.5515733075192948,-1.6494178771972656,-1.4828228962472458,1.5966745615005493,1.559949517250061,0.01568627450980392,0.26585432461882313,-0.1835981693584695,0.29361747979947417,0.2839170703065593,3.098687231455466,0.03905412921249724,0.01568627450980392,0.01568627450980392
-0.1820929686175745,-1.5524469942650576,-1.6492857933044434,-1.4828384679606934,1.596846103668213,1.560049057006836,0.01568627450980392,0.2685563342101827,-0.17979120971819196,0.2934034113128866,0.26194135383056794,3.101571451760769,0.0395560373019727,0.01568627450980392,0.01568627450980392
-0.16893178621401006,-1.5532132790288706,-1.6496883630752563,-1.4830383595875283,1.5968093872070312,1.5600228309631348,0.01568627450980392,0.2708254841948805,-0.1763831192106129,0.29284307442712026,0.24255691279241137,3.1053406594937765,0.04024627135857236,0.01568627450980392,0.01568627450980392
-0.1568682829486292,-1.5540156190148373,-1.651747703552246,-1.4832377073219796,1.5968375205993652,1.5600948333740234,0.01568627450980392,0.27271309362518836,-0.17297265067018802,0.2917718443561078,0.22403750177335752,3.110532527106494,0.04092543111594159,0.01568627450980392,0.01568627450980392
-0.14391595522035772,-1.55358534984801,-1.656988263130188,-1.4832541954568406,1.5968618392944336,1.560636281967163,0.01568627450980392,0.27422727294874744,-0.16934765410608302,0.290298041537816,0.20531437759124235,3.116842875608291,0.042017261740419705,0.01568627450980392,0.01568627450980392
-0.1325615088092249,-1.552555938517191,-1.6622346639633179,-1.482790545826294,1.5968499183654785,1.5610500574111938,0.01568627450980392,0.2753356993226116,-0.1665671647729278,0.28928839948932344,0.19082399914040651,3.120868369974902,0.0424447313447306,0.01568627450980392,0.01568627450980392
-0.1254943052874964,-1.5518290300718327,-1.665108561515808,-1.4823751163533707,1.596909523010254,1.5613172054290771,0.01568627450980392,0.2760256123940054,-0.1648996284668081,0.28885180236121455,0.18198503619582762,3.122649738101595,0.042643070752354156,0.01568627450980392,0.01568627450980392
-0.1215279738055628,-1.5513299417546769,-1.6662389039993286,-1.482008234863617,1.5968661308288574,1.561464548110962,0.01568627450980392,0.27649818773288715,-0.1639619027004396,0.2888607387660181,0.1768863515715214,3.122614106313931,0.042603812236164856,0.01568627450980392,0.01568627450980392
-0.11892253557314092,-1.551142144282796,-1.6657425165176392,-1.4813647878221055,1.5968283414840698,1.5615291595458984,0.01568627450980392,0.2771038829931753,-0.16330281701128585,0.2893454058010823,0.1730009345542833,3.1208196363070244,0.04246013926529077,0.01568627450980392,0.01568627450980392
-0.11613732973207647,-1.55153717592869,-1.662111759185791,-1.4808736604503174,1.5968899726867676,1.561652660369873,0.01568627450980392,0.27826378286861725,-0.16236543184126886,0.2904253811602918,0.1675064308254282,3.11724957765287,0.04212774980814356,0.01568627450980392,0.01568627450980392
-0.11083442369569951,-1.5524229363403101,-1.657996654510498,-1.4805345696261902,1.5968244075775146,1.5621618032455444,0.01568627450980392,0.2797192119676931,-0.16083591258038435,0.29135206984047085,0.15911734577196257,3.114572649364044,0.04184255474746967,0.01568627450980392,0.01568627450980392
-0.10476667085756475,-1.5531332821450015,-1.6550626754760742,-1.4804185268333931,1.5968413352966309,1.5626217126846313,0.01568627450980392,0.2809996495206939,-0.15924142388075951,0.2918975728186099,0.15053444201273417,3.113167530815526,0.04164971858405098,0.01568627450980392,0.01568627450980392
-0.09892303148378545,-1.5535652556321402,-1.653449296951294,-1.480343112056591,1.5968899726867676,1.5628938674926758,0.01568627450980392,0.2821520398235396,-0.1575461413211034,0.2921683724324008,0.14123347994750832,3.1127867580399213,0.04146018621726913,0.01568627450980392,0.01568627450980392
-0.09245473543276006,-1.553752114330866,-1.6527912616729736,-1.4803418678096314,1.596353530883789,1.5630497932434082,0.01568627450980392,0.28320397567163375,-0.15583106971561494,0.29228457609774283,0.13162856104943396,3.1129115757678085,0.040784507955635735,0.01568627450980392,0.01568627450980392
-0.08745080629457647,-1.5538323533586045,-1.6524078845977783,-1.4802793276361008,1.5959250926971436,1.5630581378936768,0.01568627450980392,0.28391679811066284,-0.1546435063027959,0.29235009488434593,0.124880145881388,3.113052100043066,0.040300809933355525,0.01568627450980392,0.01568627450980392
-0.08437234560121709,-1.553880051975586,-1.6522471904754639,-1.4802988332561036,1.5956952571868896,1.562638759613037,0.01568627450980392,0.28431177524275897,-0.1539650859196504,0.2923886697135516,0.12018365839994424,3.1131583907869835,0.03995501498174722,0.01568627450980392,0.01568627450980392
-0.0827720800982874,-1.5539038938334961,-1.652177095413208,-1.4803143677166481,1.5955479145050049,1.5619417428970337,0.01568627450980392,0.2845222511892802,-0.15359095591415653,0.2924065478177137,0.11682670011098588,3.113222880851561,0.03987092926813525,0.01568627450980392,0.01568627450980392
-0.08174735704530889,-1.5538965009948988,-1.6521137952804565,-1.4802988332561036,1.5957255363464355,1.5607178211212158,0.01568627450980392,0.284741963817142,-0.15317418328494697,0.2924006981152072,0.11244865242581448,3.11341533433287,0.0402865297431323,0.01568627450980392,0.01568627450980392
-0.07943708101381475,-1.5539435551366587,-1.6521047353744507,-1.4803025436452408,1.5958292484283447,1.5591647624969482,0.01568627450980392,0.28511409468279064,-0.15248198777894204,0.2924044350140266,0.10620238754905233,3.113597220839951,0.04057140252459596,0.01568627450980392,0.01568627450980392
-0.07750827470888311,-1.5539243270507832,-1.6520928144454956,-1.4802988332561036,1.5961048603057861,1.5575793981552124,0.01568627450980392,0.2853733308983781,-0.1519763034746323,0.29241271731302937,0.10137402534358426,3.113702550654565,0.0410457369887095,0.01568627450980392,0.01568627450980392
-0.07634336153139287,-1.5539279741099854,-1.6521281003952026,-1.4802988481572648,1.596421241760254,1.5566118955612183,0.01568627450980392,0.2854962501986624,-0.15171095343936367,0.2924137136467676,0.09927923075466241,3.11377352419932,0.04142749772218192,0.01568627450980392,0.01568627450980392
-0.07580453554262334,-1.5539160531810303,-1.652076244354248,-1.480302521293499,1.5966875553131104,1.5565584897994995,0.01568627450980392,0.2855841335145644,-0.15155731188836818,0.29250591210517024,0.09839055197723864,3.113492519133582,0.04167759804308698,0.01568627450980392,0.01568627450980392
-0.07546979585756475,-1.5534694001874705,-1.6515696048736572,-1.4803336647203942,1.5966768264770508,1.5566279888153076,0.01568627450980392,0.28559218903801314,-0.15147668204736445,0.29279939806961924,0.09801605225237346,3.112526345988688,0.04173998162029569,0.01568627450980392,0.01568627450980392
-0.07530862489809209,-1.553021890377142,-1.6511540412902832,-1.4803263184479256,1.5968706607818604,1.5567572116851807,0.01568627450980392,0.2855922059974201,-0.15143543374313456,0.2930376156605412,0.09812778293732201,3.111727376884941,0.041825512260124036,0.01568627450980392,0.01568627450980392
-0.07524568239320928,-1.5527343110046168,-1.6507949829101562,-1.4802784037641068,1.5968456268310547,1.5568733215332031,0.01568627450980392,0.285640736224656,-0.15143052628967021,0.2932906404039399,0.09813202571984192,3.110739896623061,0.04150658639958938,0.01568627450980392,0.0196078431372549
-0.07519752184023076,-1.5525272649577637,-1.6502361297607422,-1.4798471641591568,1.5964255332946777,1.5569641590118408,0.0196078431372549,0.28568329002970516,-0.15145823385592744,0.2934291094295452,0.09807684980656764,3.11012622234285,0.040779584517785294,0.0196078431372549,0.043137254901960784
-0.07517367998232061,-1.5524756603739043,-1.6502516269683838,-1.4798312944224854,1.5959830284118652,1.557036280632019,0.043137254901960784,0.2856829600626402,-0.15150155518722588,0.2934517688115633,0.0984219539417134,3.10998159420371,0.04004306137488844,0.043137254901960784,0.043137254901960784
-0.07515460649599248,-1.5524277736297627,-1.6502671241760254,-1.4794997212341805,1.5956015586853027,1.5574874877929688,0.058823529411764705,0.2857067339309574,-0.15152788423793026,0.2935086573944271,0.09910958367258807,3.109539228844438,0.039624124548898784,0.058823529411764705,0.058823529411764705
-0.07517034212221319,-1.5523920499584456,-1.6499768495559692,-1.479153038268425,1.5955716371536255,1.5579266548156738,0.10980392156862745,0.2857396701118063,-0.1515597061238016,0.29360038086453144,0.0997942476197757,3.1090502367489936,0.039500643803858856,0.10980392156862745,0.10980392156862745
-0.07559234300722295,-1.552392092799284,-1.6499924659729004,-1.4789735835841675,1.5953776836395264,1.5582056045532227,0.14901960784313725,0.2856688079343858,-0.15172140436261558,0.2936066078270098,0.10102856409001587,3.1088644576927105,0.039344175813433364,0.14901960784313725,0.14901960784313725
-0.07600289980043584,-1.552435153429844,-1.6501520872116089,-1.4788657438806077,1.595374584197998,1.5583683252334595,0.17647058823529413,0.2856286846448739,-0.15178711386217067,0.2935323833822608,0.10163351614786482,3.109035800918379,0.039319893584428105,0.17647058823529413,0.17647058823529413
-0.07593661943544561,-1.55279445022855,-1.650302767753601,-1.478801080291607,1.5952214002609253,1.5584685802459717,0.23921568627450981,0.28572435958545384,-0.1517783295551554,0.29336361810763106,0.10154514246098541,3.1095861010079897,0.038838334113740616,0.23921568627450981,0.23921568627450981
-0.07565623918642217,-1.5533091381988307,-1.6500966548919678,-1.4787855309299012,1.5947785377502441,1.55850088596344,0.3176470588235294,0.2858645774688464,-0.15173401016665347,0.29332183122276095,0.10109870260328141,3.10975844053441,0.03830346978618682,0.3176470588235294,0.3176470588235294
-0.07542831102480108,-1.5536251601627846,-1.6495110988616943,-1.4787772384336968,1.5944956541061401,1.5584853887557983,0.4,0.286001343483298,-0.15170291145183812,0.29347931643283875,0.10071713736970389,3.1092575265347726,0.037921943593306584,0.4,0.4
-0.07528144518007451,-1.553859631796815,-1.648520588874817,-1.4787891668132325,1.5944911241531372,1.55850088596344,0.5019607843137255,0.28619818138998915,-0.15167275306689199,0.2937458631048488,0.1005816483246637,3.108432777629392,0.03818150202030601,0.5019607843137255,0.5019607843137255
-0.0752337614642542,-1.5544103787145396,-1.646577000617981,-1.4792119574597855,1.594930648803711,1.558505892753601,0.6196078431372549,0.2864239570486709,-0.15163817914604638,0.2941301371920439,0.10049854808809679,3.10753662358846,0.03884862978500752,0.6196078431372549,0.6196078431372549
-0.07521373430360967,-1.5548139375499268,-1.6449027061462402,-1.4797274258783837,1.5956015586853027,1.558556079864502,0.6196078431372549,0.2865949802268262,-0.15158189032591635,0.2944248201901551,0.1006559127846398,3.1068304754605514,0.039825465927821505,0.788235294117647,0.788235294117647
-0.07517367998232061,-1.5551284228316327,-1.6438567638397217,-1.4800904107144852,1.5961380004882812,1.5590475797653198,0.788235294117647,0.28670397459275926,-0.15154817741819687,0.2946269806740157,0.10138724439916118,3.1064476954097984,0.04051651399291898,0.8745098039215686,0.8745098039215686
-0.07518560091127569,-1.5553956071710964,-1.64290189743042,-1.4806892660311242,1.5965094566345215,1.5594632625579834,0.8745098039215686,0.28677638585780113,-0.15152231221367823,0.29463641106975114,0.10198927225578944,3.10680451012432,0.04103187466409265,0.9647058823529412,0.9647058823529412
-0.07517367998232061,-1.5559667751989146,-1.6427702903747559,-1.481173352604248,1.596620798110962,1.5597186088562012,0.9764705882352941,0.28682362852909754,-0.15150549940045338,0.2944869521913234,0.10214576528501591,3.1075862206431335,0.041361657833534266,0.9764705882352941,0.9764705882352941
-0.07517367998232061,-1.556505362769105,-1.6427257061004639,-1.4814523395947,1.5967931747436523,1.5594837665557861,0.9764705882352941,0.28691134467630885,-0.15151300195520023,0.29427405306072374,0.10171133500898163,3.1083800224708096,0.041525826274498745,0.9764705882352941,0.9764705882352941
-0.07517034212221319,-1.5572631715661664,-1.6427302360534668,-1.4812093538096924,1.5968575477600098,1.5589599609375,0.9764705882352941,0.2870281768078368,-0.15151518926411453,0.2941144726675692,0.10071775953486999,3.1087128395351478,0.041591572000685355,0.9764705882352941,0.9764705882352941
-0.07517701784242803,-1.557866410618164,-1.642765760421753,-1.4807982382229348,1.596854329109192,1.5582661628723145,0.9764705882352941,0.2871717135856577,-0.1515316579750525,0.2939065293403149,0.09981852521189453,3.109175243143342,0.041609597424875605,0.9764705882352941,0.9764705882352941
-0.07469112077821904,-1.5587475730902334,-1.642794132232666,-1.4804892626455803,1.596841812133789,1.5577147006988525,0.9764705882352941,0.2875123722917957,-0.15116136055059767,0.29371967307875246,0.09700257833297535,3.109573270904349,0.0416621900685502,0.9764705882352941,0.9764705882352941
-0.07166415849794561,-1.5593379794484754,-1.642395257949829,-1.4798960250667115,1.5968618392944336,1.557323932647705,0.9764705882352941,0.2883243370401039,-0.15001202029425068,0.2938923276088921,0.09018573471521725,3.1088373906875537,0.04171429062925103,0.9764705882352941,0.9764705882352941
-0.06597453752626592,-1.559749504817166,-1.641448736190796,-1.4793761384538193,1.5969386100769043,1.5571799278259277,0.9764705882352941,0.28934843282421524,-0.1483800539356649,0.2939068424688897,0.08112473012349143,3.108826981987134,0.041837474882869055,0.9764705882352941,0.9764705882352941
-0.06122810045351201,-1.5604041379741211,-1.6413171291351318,-1.479088620548584,1.5968116521835327,1.5570646524429321,0.9764705882352941,0.2900352614890551,-0.14726689688727027,0.2937818419170933,0.07494676533513542,3.1092737822040246,0.041780104535238796,0.9764705882352941,0.9764705882352941
-0.058753792439596,-1.5609033222175022,-1.6415600776672363,-1.4789365765503426,1.5964016914367676,1.5570012331008911,0.9764705882352941,0.2903486611425307,-0.14676956755682694,0.2935218457228011,0.07197969829044641,3.110171253952363,0.04095110777925316,0.9764705882352941,0.9764705882352941
-0.05763274828066045,-1.5612385769239445,-1.642094612121582,-1.478825182919838,1.5959506034851074,1.5570049285888672,0.9764705882352941,0.2905057703441413,-0.1465104885805804,0.2933698482116504,0.07036599100832946,3.1107162660041743,0.040276857296808376,0.9764705882352941,0.9764705882352941
-0.056635681782857716,-1.5614217159203072,-1.642098307609558,-1.478793741469719,1.5956659317016602,1.5570157766342163,0.9764705882352941,0.29066335810230914,-0.14627310861380569,0.29332484802715275,0.0689145151007509,3.1108847640725825,0.04003754795842984,0.9764705882352941,0.9764705882352941
-0.05603248277773076,-1.561493739751615,-1.6420143842697144,-1.4787736323526879,1.5954692363739014,1.556981086730957,0.9764705882352941,0.29075456502101626,-0.146122116402491,0.2933114431276611,0.06811105084630571,3.110942161902753,0.039988292592121354,0.9764705882352941,0.9764705882352941
-0.0556257406817835,-1.5615724458223958,-1.6420433521270752,-1.478758068089821,1.59531831741333,1.5570001602172852,0.9764705882352941,0.2908006849823443,-0.14606610564277953,0.29328167150759277,0.06770119682332336,3.111083988078072,0.03932365146811549,0.9764705882352941,0.9764705882352941
-0.05539828935732061,-1.5617043685964127,-1.642282247543335,-1.4787808817676087,1.5947785377502441,1.5569725036621094,0.9764705882352941,0.29084449403408974,-0.14604685966970898,0.29312827064645486,0.06732455683393788,3.1116386041544755,0.03877899819246304,0.9764705882352941,0.9764705882352941
-0.055323425923482716,-1.5621831782958289,-1.6422309875488281,-1.4787653249553223,1.594394564628601,1.556977391242981,0.9764705882352941,0.29091915799327145,-0.14607414421504614,0.293040991778025,0.06724936817674461,3.1119568307777525,0.03810933322838972,0.9764705882352941,0.9764705882352941
-0.05526334444154912,-1.5624594970471044,-1.642008662223816,-1.4787458565882226,1.594173550605774,1.5570157766342163,0.9764705882352941,0.29096533111061357,-0.1460783725099454,0.29302943099226636,0.06725945349713543,3.1119840517787187,0.037826800798196905,0.9764705882352941,0.9764705882352941
-0.055270020161763966,-1.5624151986888428,-1.6420481204986572,-1.4787891519120713,1.5939598083496094,1.5569688081741333,0.9764705882352941,0.2909361545199968,-0.14608588716873813,0.2930341965773972,0.06714903562970514,3.1120307927446578,0.03755345079572326,0.9764705882352941,0.9764705882352941
-0.05523091951479131,-1.5621245189434667,-1.6422839164733887,-1.4791124326041718,1.593895435333252,1.556976079940796,0.9764705882352941,0.2908317432835881,-0.1460829322100067,0.29301164243917116,0.06690479901837179,3.112347792036783,0.03751744155351807,0.9764705882352941,0.9764705882352941
-0.05521566072572881,-1.5619317808053275,-1.6426454782485962,-1.4792000290802498,1.59380304813385,1.5564219951629639,0.9764705882352941,0.2907817421745702,-0.14608470222769573,0.29295149284546723,0.06622083115927757,3.112574083825713,0.03747319378371615,0.9764705882352941,0.9764705882352941
-0.05521899858583623,-1.5621318391389032,-1.6427977085113525,-1.4791762319258233,1.5938727855682373,1.5560188293457031,0.9764705882352941,0.29082527856350193,-0.14608960220018025,0.29281708360050807,0.06557473729007371,3.1130203023474143,0.03743009690861169,0.9764705882352941,0.9764705882352941
