zahirmahammad/RLHF-gello_software/csv/diffstartsamegoalsp100/pose/output29.csv
shoulder_pan_angle,shoulder_lift_angle,elbow_angle,wrist1_angle,wrist2_angle,wrist3_angle,end_eff_x,end_eff_y,end_eff_z,end_eff_roll,end_eff_pitch,end_eff_yaw,end_eff_w,end_eff_xq,end_eff_yq,end_eff_zq
-1.3458827177630823,-1.7436310253539027,-1.407261848449707,-1.6193467579283656,1.65599524974823,1.5339579582214355,-10.405660135579561,233.16713540096458,1079.2359091906133,-1.5701484967973942,0.049155440702479625,0.005437074604907775,0.7070723206613694,-0.7067088574075306,0.015461796073849284,0.019293964819569197
-1.3502066771136683,-1.7315455875792445,-1.4202848672866821,-1.6362301311888636,1.6614750623703003,1.532727837562561,-10.063107346993641,233.1599850185563,1079.2402650687175,-1.5701250601503332,0.049866496043960123,0.005458369043060261,0.7070734860660732,-0.7066952016869081,0.01570591714452381,0.01955252878070026
-1.3624280134784144,-1.7151504955687464,-1.4249244928359985,-1.6549135647215785,1.6624788045883179,1.5325038433074951,-9.680528709310876,233.15415942090291,1079.2450989831839,-1.5701045000472582,0.050555495038560216,0.00526360951511915,0.7070758937678996,-0.7066809283419334,0.016018555806441147,0.01972693184419003
-1.3797128836261194,-1.705376764337057,-1.4197334051132202,-1.661835332910055,1.6546735763549805,1.5316674709320068,-9.472801249265071,233.15415298537746,1079.2471958766598,-1.5701019370059484,0.050741697562266985,0.004825863308443198,0.7070792738458763,-0.7066749916982022,0.016239092051029472,0.019637935107652625
-1.4020383993731897,-1.703160902062887,-1.3560160398483276,-1.6584812603392542,1.6365516185760498,1.531131386756897,-9.867755820913645,233.17062143676947,1079.244031314157,-1.5701419376629207,0.04960107869973432,0.004117996304558725,0.7070829946478223,-0.7066926232574484,0.01608552458971141,0.018985015460821302
-1.431162182484762,-1.7035156689085902,-1.2366338968276978,-1.6552630863585414,1.5954118967056274,1.5334184169769287,-10.713675802422262,233.20171989182217,1079.2352122306029,-1.5702182491374441,0.04749632091027974,0.0028881584158976198,0.7070867117193793,-0.7067265595603309,0.01577520711453298,0.017807160424588214
-1.445007626210348,-1.7202373943724574,-1.0974481105804443,-1.6580783329405726,1.5609124898910522,1.5445829629898071,-12.05453255643295,233.2411995237997,1079.2180365928484,-1.5703036548330482,0.04502055196810725,0.002040649307831068,0.7070851557098143,-0.7067693510777405,0.015198618590898199,0.016633368417304457
-1.4518306891070765,-1.7414170704283656,-1.0156553983688354,-1.6391145191588343,1.5491650104522705,1.5513978004455566,-13.08008889942426,233.26988406516446,1079.202506029427,-1.5703649849801036,0.04301218450566386,0.0017139179666611248,0.7070824277694264,-0.7068035554082815,0.014603514354741862,0.015808597989607348
-1.479811970387594,-1.7704616985716761,-0.9744420647621155,-1.591569562951559,1.557185173034668,1.5455678701400757,-13.881081813561906,233.29950141346512,1079.1872325896097,-1.570418704545141,0.04085508381489749,0.0013632221137269843,0.7070827159377849,-0.7068354420844116,0.013964392107184101,0.01492268033755719
-1.4578483740436,-1.8009230099120082,-0.9491881728172302,-1.56223829955373,1.5626416206359863,1.5593138933181763,-14.73496475721167,233.31335994654148,1079.1727531999545,-1.5704579066864153,0.039611172793217686,0.001840292987867319,0.7070745337602639,-0.7068610526383191,0.013355708284224648,0.014651997371677874
-1.3585999647723597,-1.8159529171385707,-0.9606450796127319,-1.527355795060732,1.5660650730133057,1.6304610967636108,-15.34780368731798,233.29227328107902,1079.1679248533856,-1.5704755141524644,0.0401819811717495,0.0036319573626142146,0.7070505086520705,-0.706875299827857,0.012924149981263997,0.015487254611048024
-1.2613452116595667,-1.830823083917135,-0.9958246946334839,-1.4919054371169587,1.6393444538116455,1.6722753047943115,-15.868742616694748,233.26507348663228,1079.1675119500098,-1.5704680660302803,0.04064720652049738,0.006608791072373542,0.7070254391359665,-0.7068883408718514,0.012036558027210719,0.01670398829299762
-1.176955525075094,-1.8484322033324183,-1.032090425491333,-1.4758597028306504,1.7300597429275513,1.6812176704406738,-16.36828665296707,233.2400154201375,1079.1670511309567,-1.5704485270253894,0.04084829397142802,0.009665693625015967,0.7070041960576847,-0.7068979008553928,0.011027372670863423,0.01785557546101125
-1.0516803900348108,-1.8660279713072718,-1.1000823974609375,-1.4680075657418747,1.8017051219940186,1.683588981628418,-16.714252563451517,233.19682074023916,1079.170462690055,-1.570410752618499,0.041631404086064694,0.013104089310087394,0.7069782825559091,-0.706898568142139,0.0100893170137921,0.01934755889216319
-0.8844230810748499,-1.885174413720602,-1.2182810306549072,-1.4654871609858056,1.89158296585083,1.6821585893630981,-16.847151417119168,233.1335436150423,1079.1795444112768,-1.5703358368303806,0.04328969793175116,0.017594979856676542,0.7069419314523139,-0.7068856752695809,0.009089160036164307,0.021520567440878588
-0.7675822416888636,-1.9201327762999476,-1.2816911935806274,-1.4685652566007157,1.9343311786651611,1.679664969444275,-17.40635880014972,233.09734542527877,1079.1752586851867,-1.5703068328485177,0.04379581535233449,0.02038150079675676,0.7069157940847877,-0.7068853302574416,0.008283573336547237,0.022684187291584317
-0.6799748579608362,-1.9628492794432582,-1.3179681301116943,-1.4687578615597268,1.9435324668884277,1.666723608970642,-18.150342035624213,233.07451680645426,1079.1640505405048,-1.570308213303218,0.043460900005144965,0.022070943630045813,0.7068997814944183,-0.7068938386246713,0.007568000747433348,0.023163013670673034
-0.615023438130514,-1.9969922504820765,-1.3288849592208862,-1.4681864541820069,1.8939785957336426,1.651408314704895,-18.781921826259964,233.06061954439258,1079.151460748916,-1.5703344064666311,0.042778895874281755,0.022338512429053475,0.7068953093466576,-0.7069066062354075,0.007231957207669662,0.023016743457283797
-0.594090763722555,-2.02638640026235,-1.3237322568893433,-1.4375442129424592,1.8685002326965332,1.6384772062301636,-19.39060066858177,233.06062478384789,1079.1381849556233,-1.5703777704078479,0.04141625063491553,0.022257290770265153,0.7068964165813689,-0.7069264145769097,0.00677832194666117,0.02250677563407094
-0.5873983542071741,-2.0561772785582484,-1.3062301874160767,-1.4159368586591263,1.8010292053222656,1.6072877645492554,-19.96500833223931,233.06772367788088,1079.1224083005736,-1.5704307289911463,0.03967043345291314,0.02119423177029526,0.7069086121800955,-0.706947397962534,0.006536163753007456,0.021514392926772416
-0.5863240400897425,-2.0839115581908167,-1.2838325500488281,-1.4109776777080079,1.7586394548416138,1.5899338722229004,-20.540287506587013,233.0754805635668,1079.1076089133849,-1.5704688770182809,0.0384067502994544,0.020471593475970544,0.7069161478725339,-0.7069626192190538,0.00634435814224338,0.020812592912847976
-0.5852544943438929,-2.1097852192320765,-1.2647955417633057,-1.40919645250354,1.744618535041809,1.5847212076187134,-21.100693800671785,233.0815222409462,1079.0942760218759,-1.5704963243143109,0.037501302640945776,0.020244492195425956,0.7069181189199225,-0.7069744288796631,0.006104190103406477,0.020412469624566477
-0.5694363752948206,-2.1319757900633753,-1.2532658576965332,-1.4084885132363816,1.7391672134399414,1.5754663944244385,-21.610752540747185,233.08040584182461,1079.0833749162118,-1.5705155179658001,0.036739195800749115,0.02042467208963987,0.7069172441995428,-0.7069840082158231,0.005770828402883754,0.02020691762633197
-0.5531943480121058,-2.1531387768187464,-1.243293046951294,-1.407477931385376,1.7134705781936646,1.5691875219345093,-22.05807081460556,233.07929715414235,1079.0725974821469,-1.5705364591368167,0.03606892462433926,0.020258884278487026,0.7069182274785121,-0.7069928413583265,0.005592222382195326,0.019911528709443044
-0.544708553944723,-2.1715079746642054,-1.2346643209457397,-1.4034475547126313,1.6956290006637573,1.5669372081756592,-22.436511087791956,233.0802200186112,1079.0630674424347,-1.5705552034371608,0.03548842096376676,0.020094925730407026,0.7069189645358797,-0.7070006146151859,0.005444737593291221,0.019648494746653318
-0.5423958937274378,-2.1802789173521937,-1.2315216064453125,-1.396484763627388,1.6898343563079834,1.566389560699463,-22.615246654598547,233.08121478314712,1079.0584679058416,-1.5705657510849382,0.03514957422393022,0.020033782152899565,0.706919151614689,-0.7070050911853238,0.005346437635038647,0.019507171066421525
-0.5424435774432581,-2.1859194240965785,-1.2330164909362793,-1.3883615297130127,1.687952995300293,1.5627944469451904,-22.703314591959206,233.08216563540753,1079.0559140004602,-1.5705723210892062,0.03487279624380842,0.019999870716499064,0.7069198510725463,-0.7070080568229143,0.005260497379340152,0.019397394525489442
-0.5428426901446741,-2.1890722713866175,-1.2343146800994873,-1.3840553027442475,1.6875450611114502,1.5599665641784668,-22.747765885575916,233.08278120863244,1079.05457012927,-1.5705755448312126,0.0347159609024189,0.019985662178500598,0.706920367875293,-0.7070095692938004,0.005210034631403578,0.01933695811638138
-0.5429895559894007,-2.1952692470946253,-1.2346867322921753,-1.370220736866333,1.6873748302459717,1.5589444637298584,-22.866883418858713,233.08398279917915,1079.0513873541622,-1.5705856791337152,0.034355148575900586,0.019979774106398344,0.7069203190974145,-0.7070140640558832,0.005084441647342035,0.019207397729214794
-0.5429876486407679,-2.207170148889059,-1.232107162475586,-1.3565438252738495,1.687393069267273,1.5586280822753906,-23.103236408960928,233.08622099673465,1079.0452196798014,-1.570600159446937,0.03385840076143025,0.019979630815718616,0.7069199506183692,-0.7070204219638447,0.004908713526010451,0.019031838463714437
-0.542999569569723,-2.2171842060484828,-1.2308158874511719,-1.3379673969796677,1.6865062713623047,1.5585250854492188,-23.30524443109093,233.08818616032318,1079.0398215112727,-1.570615623391398,0.033335297062311794,0.01996342574856806,0.7069195904948787,-0.7070271082932007,0.004729337580722544,0.018841286557860586
-0.5430305639850062,-2.2212521038451136,-1.2303614616394043,-1.3287608933499833,1.686053991317749,1.5585250854492188,-23.389324832100804,233.0890200097603,1079.0375556918307,-1.5706227271381572,0.03309578902822423,0.019954755249455343,0.7069194118789055,-0.7070301599232189,0.004647651445280616,0.01875359708890209
-0.5430224577533167,-2.222269674340719,-1.2302712202072144,-1.326266126041748,1.686549186706543,1.5585441589355469,-23.41161162673245,233.08920228538375,1079.0369893947513,-1.570624528069877,0.03303327080214854,0.01996347989254197,0.7069192794030293,-0.7070309614858371,0.004622445308075655,0.018734591217540536
-0.5430267492877405,-2.2226253948607386,-1.2302472591400146,-1.325556219821312,1.6871472597122192,1.5585477352142334,-23.419764783852294,233.0892508735209,1079.0368034082985,-1.5706250274644804,0.033014322779215136,0.01997382667898387,0.7069191834305696,-0.7070312056021538,0.0046120833112432685,0.018731553329920148
-0.5430305639850062,-2.222701211968893,-1.2302695512771606,-1.3254042279771348,1.6873044967651367,1.5593353509902954,-23.421308449148228,233.08925916245968,1079.0367683999161,-1.5706251171195984,0.033024483408319656,0.019976503750910028,0.7069190314824713,-0.7070312200455674,0.004614728640691643,0.01873609052961637
