zahirmahammad/RLHF-gello_software/csv/diffstartsamegoalsp100/pose/output57.csv
shoulder_pan_angle,shoulder_lift_angle,elbow_angle,wrist1_angle,wrist2_angle,wrist3_angle,end_eff_x,end_eff_y,end_eff_z,end_eff_roll,end_eff_pitch,end_eff_yaw,end_eff_w,end_eff_xq,end_eff_yq,end_eff_zq
-1.4219821135150355,-1.592515607873434,-1.4771418571472168,-1.4192559135011216,1.5945616960525513,1.5710563659667969,-7.3204422150682245,233.11488249558946,1079.272301610334,-1.5701623291498563,0.05016832367597357,0.0030366728005607863,0.7070806429728698,-0.7066863368385717,0.016667974131474653,0.018803305483505874
-1.423044506703512,-1.5016503122499962,-1.2063910961151123,-1.4189721059850235,1.8725141286849976,1.7000901699066162,-8.670133216206885,233.13403321541895,1079.2934854995992,-1.5701547369069648,0.049274180428982094,0.007870045022398298,0.7070449232874014,-0.7067284821709022,0.014644006414161507,0.020196089177543966
-1.420896355305807,-1.4542134043625374,-1.1277328729629517,-1.41549705088649,2.038189649581909,1.799302101135254,-8.889195764389559,233.1290950558023,1079.3060671679896,-1.570119515074188,0.050398636287940675,0.010801476372670121,0.7070149542537943,-0.706728980990598,0.014006115868899948,0.021629392218995173
-1.3943517843829554,-1.426971898680069,-1.1094077825546265,-1.4085696053555985,2.1673357486724854,1.8612393140792847,-8.955222835473615,233.11569017108005,1079.3158191113118,-1.5700752947762868,0.05151276041704825,0.013521390160488278,0.7069878122368153,-0.7067243757204164,0.013439457018635149,0.022984149021306997
-1.3802116552936,-1.4192312520793458,-1.1036509275436401,-1.4058634501746674,2.213442802429199,1.8782464265823364,-9.023180182488009,233.11065997191926,1079.3188205336185,-1.5700604400740719,0.05179640615672486,0.014573738990460522,0.7069775489257948,-0.7067242404334054,0.013168071913372048,0.02345623969834079
-1.2939642111407679,-1.4413685661605378,-1.0686649084091187,-1.3928163063577195,2.225954055786133,1.8919439315795898,-10.072979037075818,233.1117574423498,1079.3102983319502,-1.5701039415997722,0.050811531304826615,0.016295306116532623,0.706953493166006,-0.7067567808828896,0.012210934117691506,0.023717172352763063
-1.1710179487811487,-1.5025248912027855,-1.0502265691757202,-1.3459037405303498,2.254096746444702,1.9307303428649902,-11.840381969061431,233.11359647617292,1079.2906212008395,-1.5701821815892953,0.0492818828465436,0.018928765268366555,0.7069126520361706,-0.7068083093457451,0.010738439134706486,0.02410813464264186
-1.04103929201235,-1.5902391872801722,-1.034263014793396,-1.2876462203315278,2.2686500549316406,1.9620321989059448,-14.036176296706728,233.11542957716082,1079.2600672852745,-1.570290278243752,0.04700395923673575,0.021446402196913673,0.7068715602015562,-0.7068702146652056,0.00904183694394272,0.024193845954355427
-0.9507902304278772,-1.6705433330931605,-1.061598539352417,-1.2188098591617127,2.2689945697784424,1.9824602603912354,-15.57380998692425,233.11243260251229,1079.2335400698341,-1.5703744897234149,0.04523626345040643,0.023023840746855484,0.7068440978076409,-0.7069141007588419,0.007858204972384727,0.024127249271979238
-0.8843415419207972,-1.7515837154784144,-1.1294171810150146,-1.0979501169971009,2.2650558948516846,1.9897451400756836,-16.761948742514925,233.10865203251433,1079.2075445922892,-1.570467833054554,0.043025103961481674,0.024110779020485827,0.7068245576150384,-0.7069590761566587,0.0066910217931504205,0.0237305629809465
-0.8409488836871546,-1.820115705529684,-1.210536241531372,-0.9686674040606995,2.237791061401367,1.9881906509399414,-17.51609754863884,233.10623111358245,1079.1857940624704,-1.570551405640504,0.04096295922477211,0.024388758754784443,0.7068159060916697,-0.7069959488997888,0.005862626644296999,0.023100492287592332
-0.7913435141192835,-1.896121164361471,-1.2672683000564575,-0.8919446629336854,2.1516358852386475,1.9607373476028442,-18.430588261995055,233.10655853820285,1079.1597917944043,-1.570623800867721,0.03880990267517782,0.023747879172360948,0.706821896471298,-0.7070257591775818,0.005327086732575615,0.022113450093220924
-0.7434619108783167,-1.9649011097350062,-1.2956231832504272,-0.8601718705943604,2.09090518951416,1.9483792781829834,-19.432013945295918,233.10545012787907,1079.1349045664547,-1.5706746838909513,0.0373351427974772,0.023521659831585395,0.7068224606687006,-0.7070469270081079,0.004885073341075007,0.02151251173356321
-0.7209394613849085,-2.007527013818258,-1.3287019729614258,-0.8522128623775025,2.0664238929748535,1.9428586959838867,-19.89287350956625,233.10398347608265,1079.1220349666544,-1.5706871339460617,0.036933501363634845,0.0234870003238677,0.7068227355283179,-0.7070522109516371,0.004755186316172409,0.02135836444501074
-0.7126463095294397,-2.040196558038229,-1.362571358680725,-0.8506204646876832,2.0595757961273193,1.930923581123352,-20.14934491312227,233.10430073765758,1079.1135156260561,-1.5706877429108457,0.0367183603647047,0.023512176750206205,0.7068245457768353,-0.7070529921891304,0.004670213013975435,0.02129123843677949
-0.6958449522601526,-2.0930596790709437,-1.385148048400879,-0.8508919638446351,2.057569742202759,1.9132038354873657,-20.86556479975752,233.10637599003255,1079.095128692239,-1.5707066724170957,0.035885574689333115,0.02376968597772035,0.7068239487811498,-0.7070621220597639,0.004284532653667426,0.02108800032495957
-0.6861937681781214,-2.1315328083434046,-1.4030052423477173,-0.8534560364535828,2.0571346282958984,1.906219482421875,-21.36175056930763,233.1083576369548,1079.0817862904505,-1.5707180094155424,0.03544881405524539,0.023930122262465985,0.7068228476821593,-0.7070673761155302,0.004073271983471249,0.02099038072382167
-0.6889832655536097,-2.142771383325094,-1.4372100830078125,-0.875503734951355,2.0312769412994385,1.8858439922332764,-21.15324998956512,233.10863000623323,1079.0831189486846,-1.5706911272942523,0.0358783778902587,0.02343106193270494,0.7068330802081003,-0.7070559084570825,0.00440186514989635,0.02096574879801167
-0.6950996557818812,-2.1245600185790003,-1.4690247774124146,-0.9235209983638306,1.9405274391174316,1.8254384994506836,-20.322669021263042,233.1065789564306,1079.0968671918195,-1.5706378405672519,0.03653446317229114,0.021742234156800277,0.7068626498565325,-0.7070314292394237,0.005231427513704742,0.020600593962980196
-0.6972110907184046,-2.1003295383849085,-1.4929157495498657,-0.9702692788890381,1.899612545967102,1.780067801475525,-19.56892038030474,233.10064293224463,1079.111348011898,-1.5705862516052527,0.03739758594807828,0.02099305442148353,0.706879711845345,-0.7070087502061365,0.005801980787334719,0.020640666954876576
-0.6978333632098597,-2.091459890405172,-1.4967060089111328,-0.9851719301990052,1.887487769126892,1.7639918327331543,-19.344958258253012,233.09885490172317,1079.1157926793644,-1.5705717349993193,0.03759784793719186,0.02077106428252902,0.7068850675778178,-0.7070023791647787,0.0059514132595209455,0.020632929289388625
-0.6939509550677698,-2.0907045803465785,-1.4908866882324219,-0.9845543068698426,1.885471224784851,1.7622168064117432,-19.39619754590156,233.09808825590645,1079.1153538082851,-1.5705752408161997,0.0374677662743148,0.02080349210347339,0.706884834951962,-0.707004099215298,0.005893919512171096,0.020598434903808242
-0.6948559919940394,-2.0956956348814906,-1.4804697036743164,-0.9819656175426026,1.8852609395980835,1.7608047723770142,-19.565921456884393,233.100509721622,1079.112056997499,-1.5705856085185363,0.03712919037296948,0.020783634212253117,0.7068848503898328,-0.7070086931118092,0.0057811193914720045,0.0204718053003775
-0.6958268324481409,-2.106168409387106,-1.4736043214797974,-0.9807617229274292,1.8852370977401733,1.7605383396148682,-19.790491248558638,233.10361796869134,1079.1070574936837,-1.5705962670802163,0.03680109572740348,0.02076587887901638,0.7068846122448539,-0.7070133481437612,0.005671280144867559,0.020349621606059614
-0.6962736288653772,-2.114922662774557,-1.471521019935608,-0.980377809410431,1.8852295875549316,1.760830283164978,-19.947250977244504,233.10569988961547,1079.1033149879654,-1.5706027165149803,0.03661044560971874,0.020757714059285334,0.7068843518411666,-0.7070161417812579,0.00560669147591192,0.020279383460348792
-0.6972945372210901,-2.1270977459349574,-1.4692599773406982,-0.9802423280528565,1.885278582572937,1.7609728574752808,-20.157587201359362,233.10866296235704,1079.0981635673006,-1.5706110854579876,0.03635874903150489,0.02074044615861806,0.7068841143047885,-0.7070197515576121,0.005523717325250152,0.02018436022909128
