zahirmahammad/RLHF-gello_software/csv/diffstartsamegoalsp100/pose/output8.csv
shoulder_pan_angle,shoulder_lift_angle,elbow_angle,wrist1_angle,wrist2_angle,wrist3_angle,end_eff_x,end_eff_y,end_eff_z,end_eff_roll,end_eff_pitch,end_eff_yaw,end_eff_w,end_eff_xq,end_eff_yq,end_eff_zq
-1.4601767698871058,-1.5195127737573166,-1.576418161392212,-1.5456467040679236,1.421217918395996,1.489574670791626,-4.624051482066085,233.06287180342085,1079.2804459056842,-1.5701016880751593,0.053959180129843715,-0.0006521942431794087,0.7071010863401936,-0.7065976406886153,0.019312181258587507,0.018837927827547767
-1.4564059416400355,-1.4688473281315346,-1.4164611101150513,-1.6269999943175257,1.2483901977539062,1.4574676752090454,-4.759993578722606,233.07263403430775,1079.2821653385538,-1.5701968141042155,0.05291327512451025,-0.0036070772423282284,0.7071037544049912,-0.7066125118735098,0.019985526503194555,0.017424617659079492
-1.4563496748553675,-1.4470540297082444,-1.2551075220108032,-1.7279125652708949,1.1348615884780884,1.4440021514892578,-5.423641093160073,233.0936013519152,1079.2793147975083,-1.5702647250492183,0.05200499361543796,-0.005590507023385231,0.7071042210082742,-0.7066256719817873,0.02036463077872607,0.01640311378413401
-1.456921402608053,-1.44020168602977,-1.1396269798278809,-1.7899915180602015,1.0493109226226807,1.4365179538726807,-6.046176136213455,233.1123832595661,1079.2740707745938,-1.5703197109846534,0.051062832255550354,-0.007096004266205678,0.7071043439656114,-0.7066393445755919,0.020563059541613884,0.015538469198362593
-1.4580391089068812,-1.4380923968604584,-1.0727081298828125,-1.821165224114889,0.9759939312934875,1.4193742275238037,-6.400588031195839,233.12389096903243,1079.2690818248984,-1.5703630383365579,0.0501772351365652,-0.008397040500531479,0.7071056057714477,-0.7066503734703946,0.02070937283147565,0.014765968903960858
-1.4569733778582972,-1.4425649803927918,-1.0329848527908325,-1.838431020776266,0.9310923218727112,1.4030567407608032,-6.709326604468658,233.1328135669308,1079.264638273706,-1.5703906306371056,0.04942281683174294,-0.009163365488907206,0.7071068832907778,-0.7066600032181534,0.020713267917454023,0.014228702917044294
-1.450390640889303,-1.4623689663461228,-0.9925999641418457,-1.919060846368307,0.9627468585968018,1.409583568572998,-7.314221511362968,233.14576898576303,1079.2588286516552,-1.570370829569607,0.049893215017303594,-0.008495143248177149,0.7071056624968474,-0.7066550492444327,0.02064358295570705,0.01463099193471506
-1.329296890889303,-1.4869751048139115,-1.004954218864441,-2.007517000237936,1.1734133958816528,1.5188676118850708,-8.306703922680583,233.13455817661253,1079.2619655093636,-1.5702503823503253,0.053128581967068995,-0.0026989451425107115,0.7070749273994713,-0.706638332495797,0.019740314085900528,0.017822291950860533
-1.1633685270892542,-1.5130101715079327,-1.064073920249939,-2.0268589458861292,1.3938486576080322,1.6541630029678345,-9.240243262060952,233.10618625746014,1079.2686945394669,-1.57012543954943,0.056402379706436113,0.004051235457145006,0.7070208516641631,-0.7066274282969565,0.01851397852385763,0.0213641168722041
-0.9505727926837366,-1.57639803508901,-1.1350762844085693,-1.9505154095091761,1.6066898107528687,1.785857915878296,-11.013229980814373,233.07562622127654,1079.2664822609258,-1.5700566483512184,0.05749913231603306,0.011484187335049616,0.7069476076689454,-0.7066582295317165,0.016276321774876652,0.024378433004101595
-0.8496344725238245,-1.6448632679381312,-1.179750680923462,-1.828820367852682,1.7174484729766846,1.828004002571106,-12.539940090214985,233.06682942977304,1079.254757535748,-1.5700819494185076,0.055695177262793445,0.015177493494847587,0.7069153323083772,-0.7067092234557765,0.014333131992117613,0.025046911130250746
-0.788642708455221,-1.700390478173727,-1.2127844095230103,-1.7251306972899378,1.794562578201294,1.8485984802246094,-13.707296179052072,233.06189426777198,1079.2427603659673,-1.5701190089808477,0.05385240687866225,0.017585770559291433,0.7068951349967856,-0.7067511741257617,0.012830040579665077,0.025247495884890545
-0.7352479139911097,-1.7781998119749964,-1.2464573383331299,-1.6054603062071742,1.8336342573165894,1.8544105291366577,-15.156451428625152,233.06267881174924,1079.2206602777553,-1.5701959481196033,0.0510958780968057,0.019195506214631886,0.7068823171053373,-0.7068046694448892,0.011285464611157255,0.02484325468211174
-0.6966326872455042,-1.8521877727904261,-1.273188829421997,-1.50331515938554,1.855277419090271,1.8557453155517578,-16.48313404177076,233.06542140089599,1079.1969710504359,-1.5702734483897547,0.04851276524890136,0.020243311209549256,0.7068737982480656,-0.7068513653878793,0.010000782236943947,0.024301542220464177
-0.6791098753558558,-1.9189888439574183,-1.2831636667251587,-1.429337040787079,1.8665885925292969,1.8536386489868164,-17.685889518127755,233.0731425819433,1079.1728667204093,-1.5703447520882732,0.04619413971078523,0.02074314402541943,0.7068704101530022,-0.7068899437467027,0.009003385194138,0.023659453395123473
-0.6700118223773401,-1.975868364373678,-1.29024076461792,-1.378062055712082,1.8705129623413086,1.851279854774475,-18.66815105698874,233.08116302522828,1079.1512382392668,-1.5704014747080677,0.044389747452498365,0.020967836842078404,0.7068688318447282,-0.7069187526007913,0.008285267657516557,0.023101647725952332
-0.6562984625445765,-2.009397169152731,-1.3019819259643555,-1.3520239305547257,1.8723316192626953,1.8481680154800415,-19.207997093117722,233.08212994626518,1079.1390705717627,-1.5704284026754838,0.043501151996661096,0.021237715841269687,0.7068664280712239,-0.7069329463771645,0.007875360551536714,0.02288320101108069
-0.6508868376361292,-2.0459991894164027,-1.3066976070404053,-1.3156242233565827,1.8719825744628906,1.8463276624679565,-19.837805897520273,233.08723943248702,1079.12409033544,-1.5704674555656795,0.04227785424751897,0.02132438925130782,0.7068655163653776,-0.7069517505337279,0.007411729977921398,0.02248178039079656
-0.642763916646139,-2.0846158466734828,-1.3034502267837524,-1.274508998995163,1.8715803623199463,1.847456932067871,-20.587336519063907,233.09248561066167,1079.106595013373,-1.5705148825432134,0.040850077820172165,0.021457176668307463,0.7068631621224186,-0.7069740756627726,0.006859417904776856,0.022024412842829327
-0.6341498533831995,-2.1243092022337855,-1.2887059450149536,-1.239083157186844,1.8723117113113403,1.8464865684509277,-21.446838033072805,233.09847174011747,1079.0866567411458,-1.5705660719422985,0.0392655624174956,0.02161823017748863,0.7068605648919783,-0.7069978803771652,0.006241670957787005,0.02152162834089538
-0.6288846174823206,-2.1717363796629847,-1.2597334384918213,-1.2037238341620942,1.8719009160995483,1.8475663661956787,-22.536446162359336,233.10824822491182,1079.0603243919848,-1.5706298978959619,0.037334888804774896,0.02170051606262945,0.7068575915936046,-0.7070263578962633,0.0055292657905527155,0.020868676677044302
-0.6267550627337855,-2.207806249658102,-1.2276612520217896,-1.1908200842193146,1.8725593090057373,1.8473150730133057,-23.42098760539984,233.11695459212612,1079.038420196061,-1.5706760988602715,0.03591674044056423,0.021747482422731335,0.7068554005683835,-0.7070465451153398,0.005010772695184001,0.020384255806115758
-0.6219356695758265,-2.237093587914938,-1.2071524858474731,-1.1723914009383698,1.872099757194519,1.8494749069213867,-24.11637702729245,233.12234560346423,1079.0205052549923,-1.570715056497501,0.03476432614286594,0.02182220334390039,0.7068525096592629,-0.7070632538457283,0.004576512311751636,0.02000350430682325
-0.6185358206378382,-2.2525187931456507,-1.2014870643615723,-1.1622851651958008,1.8716756105422974,1.8508967161178589,-24.44242030973934,233.12430883940436,1079.0117490873845,-1.5707328703209678,0.03424494456555629,0.021873526421314633,0.7068508740140692,-0.7070708264413283,0.004374558369149786,0.01983813348575624
-0.6144936720477503,-2.264732976953024,-1.2044411897659302,-1.159061686401703,1.8706670999526978,1.8531070947647095,-24.63273401812493,233.12450590884976,1079.0063387009106,-1.5707400213335372,0.03406576137099409,0.021926231533086035,0.7068495990274647,-0.7070738561300132,0.004292502821708988,0.019793452242376903
-0.6088159720050257,-2.2702933750548304,-1.2179430723190308,-1.1564738315394898,1.8700629472732544,1.856142520904541,-24.632331350846854,233.12184831548353,1079.0059943786578,-1.5707369882758797,0.0342121288369151,0.022014888242643717,0.7068483404564277,-0.7070726601004731,0.00431293875932928,0.019876506023264958
-0.6067116896258753,-2.2714106045165003,-1.2265018224716187,-1.154562072162964,1.869937777519226,1.85725998878479,-24.58840632745567,233.12039478628168,1079.0068935593365,-1.570733840880007,0.034328093600225644,0.022049539305817538,0.7068479542967093,-0.7070713718697185,0.004341719898164083,0.019929727975000935
-0.6067631880389612,-2.2717377148070277,-1.2324141263961792,-1.153838650589325,1.869973063468933,1.8568382263183594,-24.543999284145013,233.11994681516512,1079.00775206947,-1.57073106899864,0.03440554115351221,0.022049351115871783,0.7068481638378272,-0.7070702231999513,0.00436919627018045,0.019957025505212816
-0.608016316090719,-2.272398611108297,-1.2359700202941895,-1.1534603995135804,1.8701246976852417,1.854673147201538,-24.51987053527548,233.12027301100454,1079.0080511185888,-1.5707296293819968,0.03441165533575171,0.022030173450097276,0.7068488031308207,-0.7070696590994028,0.004378152329060492,0.01995240526262238
