zahirmahammad/RLHF-gello_software/csv/diffstartsamegoalsp100/pose/output85.csv
shoulder_pan_angle,shoulder_lift_angle,elbow_angle,wrist1_angle,wrist2_angle,wrist3_angle,end_eff_x,end_eff_y,end_eff_z,end_eff_roll,end_eff_pitch,end_eff_yaw,end_eff_w,end_eff_xq,end_eff_yq,end_eff_zq
-1.4060171286212366,-1.562527803970017,-1.5745681524276733,-1.3712748897126694,1.7051626443862915,1.544969081878662,-6.345173937749045,233.08176463012228,1079.2844515412833,-1.5700770390710388,0.05109750266458077,0.005249143736568374,0.707080365722438,-0.7066667392444576,0.0162155856950019,0.019913082031600512
-1.4274252096759241,-1.5427234892598172,-1.4373135566711426,-1.270008699303009,1.6775527000427246,1.525938868522644,-7.247641954899143,233.11019444969386,1079.2839525543347,-1.5702006726928135,0.04695002282801553,0.004387459356880606,0.7070843596967832,-0.7067361078882727,0.015052407248335965,0.01814406556304507
-1.4347932974444788,-1.5630026890761037,-1.3500996828079224,-1.2289060217193146,1.6685492992401123,1.525183916091919,-8.346499990627883,233.13985570073157,1079.2749143777523,-1.5702795157416305,0.0443445557946846,0.004098146249880088,0.7070820305025022,-0.7067809266108487,0.014232719057545914,0.017121729696428584
-1.4368732611285608,-1.5908729038634242,-1.298193335533142,-1.2138290864280243,1.6672935485839844,1.5439175367355347,-9.253409597376319,233.16318279664998,1079.2647704725885,-1.57032814029391,0.04301672632308761,0.004037967774349307,0.7070765637814961,-0.7068069906820771,0.013784093557825422,0.016631585573462192
-1.4255994001971644,-1.6215878925719203,-1.2802678346633911,-1.2100700300982972,1.6664936542510986,1.5804575681686401,-9.949597621691353,233.1775819426427,1079.25529524482,-1.570354987972986,0.04274031928594322,0.004219913598191536,0.7070678612307334,-0.7068196216586867,0.013621841140210405,0.01659841850352427
-1.3646019140826624,-1.6532980404295863,-1.2805886268615723,-1.190715567474701,1.668468713760376,1.6280479431152344,-10.739422219716959,233.17965878442686,1079.246018827021,-1.5703802734410095,0.04268564189822259,0.005318264191296762,0.7070501671696169,-0.7068362962766962,0.013214124453876496,0.01696756571157939
-1.2459686438189905,-1.6761232815184535,-1.3169355392456055,-1.1547362071326752,1.6873620748519897,1.701768398284912,-11.370791076756968,233.15919229673923,1079.2415609458465,-1.5703870986582005,0.043580378060016065,0.007718760169798645,0.7070188369617184,-0.7068484606964802,0.012682027605676967,0.01813240105789069
-1.0947530905352991,-1.695700307885641,-1.3729228973388672,-1.1204337042621155,1.7130550146102905,1.7901086807250977,-11.92303556933567,233.12583976328432,1079.2394502811103,-1.5703797394215981,0.04515879398820765,0.010807314933368607,0.7069771976158756,-0.706855239817169,0.012148605462545994,0.01978189524618216
-0.9268835226642054,-1.7176081142821253,-1.4590067863464355,-1.1053644579700013,1.8016905784606934,1.8676146268844604,-12.397770020284991,233.08181131870282,1079.24044067016,-1.5703311726395286,0.047367518795853526,0.01528685668351161,0.7069242514044688,-0.7068514213425378,0.011346891311275354,0.02214540538883664
-0.7850807348834437,-1.728443285027975,-1.57230806350708,-1.101087675695755,1.9341131448745728,1.928931474685669,-12.412809170021252,233.0352117704009,1079.2470513499193,-1.5702390245863538,0.05014933498864125,0.020077748017167933,0.7068678948791698,-0.7068299110037624,0.010638427737371779,0.02482095797468113
-0.6886699835406702,-1.7347494564452113,-1.6637672185897827,-1.1009077292731781,2.020829677581787,1.9563043117523193,-12.27159094974301,233.00238236547074,1079.2519375576132,-1.5701616293778413,0.052108354717299896,0.023277937502201553,0.7068288619769711,-0.7068090390554239,0.010201194548650937,0.02664353234217877
-0.6439426581012171,-1.741204401055807,-1.7201874256134033,-1.1022289556315918,2.050564765930176,1.959647536277771,-12.121718948818128,232.9871666643347,1079.2532339728386,-1.5701201935766154,0.053060917333256644,0.02457967984645277,0.7068130221989106,-0.7067961739721851,0.010078574794210819,0.0274397966180641
-0.6327851454364222,-1.7548028431334437,-1.7455929517745972,-1.1065556567958375,2.044922351837158,1.9074327945709229,-12.149197966979717,232.98495461421888,1079.2504603562606,-1.5701120157631818,0.052431072887989344,0.02467576638013971,0.7068232123012081,-0.7067968896099162,0.009821992494612557,0.027251272509462028
-0.6320937315570276,-1.7792188129820765,-1.7523735761642456,-1.109905557041504,2.014979362487793,1.8274885416030884,-12.426573552535919,232.98968100309628,1079.2434415783976,-1.5701308652602541,0.05078696393884932,0.02416341189394358,0.7068455287677714,-0.7068089811300745,0.009421383533844948,0.026489624141987474
-0.6589024702655237,-1.8280359707274378,-1.7369695901870728,-1.1112912756255646,1.9815198183059692,1.7444859743118286,-13.17028252055472,233.00730496636558,1079.2287240267835,-1.570179951607774,0.048242653038894454,0.023108273353668482,0.7068747186030225,-0.7068331272804698,0.00889388363091667,0.025218271407228574
-0.6808102766620081,-1.8766151867308558,-1.7152574062347412,-1.1111753743937989,1.9661165475845337,1.687074065208435,-14.018235685335048,233.02438096118053,1079.2134477526681,-1.5702270034419876,0.046012676519716834,0.022454301873822146,0.7068937247971906,-0.7068565295735894,0.008335839669489038,0.024199632611668118
-0.7065017859088343,-1.918455263177389,-1.688275694847107,-1.1107729834369202,1.9618258476257324,1.655130386352539,-14.808007962706611,233.04192648019762,1079.1992430153543,-1.570269686650087,0.0442477159726787,0.021928792296849846,0.7069058940486743,-0.7068766343684735,0.007896926843250711,0.02339058121501867
-0.7261517683612269,-1.9535485706725062,-1.6611168384552002,-1.109807626610138,1.960726261138916,1.6409797668457031,-15.52244117528067,233.05712472443537,1079.1863465410736,-1.5703077939477217,0.04289804401232104,0.02156486094264113,0.7069122097322046,-0.706893901788764,0.007547842088981774,0.02278528966654848
-0.7376378218280237,-1.9838906727232875,-1.6366549730300903,-1.1083776217750092,1.9604718685150146,1.6364542245864868,-16.173180701031256,233.06922669766018,1079.1745182493885,-1.5703414815079828,0.04183816765639666,0.021358487848880656,0.706914589032421,-0.7069089598075646,0.007245614059520772,0.022338026631975445
-0.7453377882586878,-2.0130349598326625,-1.6078500747680664,-1.1077104967883606,1.9604401588439941,1.6354362964630127,-16.856491623117503,233.08069688941856,1079.1621913573454,-1.5703765326187047,0.04079795344103181,0.02122208909433286,0.7069152208920143,-0.7069245458907224,0.006925604309357358,0.021922429001839227
-0.7478607336627405,-2.0404697857298792,-1.5817993879318237,-1.108504371052124,1.9604179859161377,1.6352421045303345,-17.507334525184945,233.09006990365629,1079.1501826657206,-1.5704080359505532,0.039875460441629026,0.021176396661959855,0.7069146165180685,-0.7069386450725184,0.0066152109547545045,0.02158045505007437
-0.7476566473590296,-2.0680352650084437,-1.5586984157562256,-1.1089475911906739,1.960444688796997,1.636083960533142,-18.146725610819633,233.09833905133297,1079.1378904115393,-1.57043805165495,0.03901410611831786,0.0211792464898178,0.7069132062026794,-0.7069520432410696,0.006309303173208108,0.021277221317488184
-0.747192684804098,-2.0834018192686976,-1.5481762886047363,-1.1072469514659424,1.9613370895385742,1.6366301774978638,-18.489271734274254,233.1025817823682,1079.1310122595103,-1.5704543868039254,0.03854239162641231,0.021202288726962257,0.7069121880762966,-0.7069593543776017,0.006134186128265368,0.02111874446388179
-0.7461732069598597,-2.095572610894674,-1.5410690307617188,-1.1041653615287323,1.9620072841644287,1.6367775201797485,-18.755655387239997,233.1056282173902,1079.1255275613507,-1.5704676450701602,0.03815493884918167,0.021231271064135398,0.7069112757980868,-0.7069653011226618,0.005986798667259462,0.020992127090490923
