zahirmahammad/RLHF-gello_software/csv/diffstartsamegoal100/output97.csv
shoulder_pan_angle,shoulder_lift_angle,elbow_angle,wrist1_angle,wrist2_angle,wrist3_angle,end_eff_x,end_eff_y,end_eff_z,end_eff_roll,end_eff_pitch,end_eff_yaw,end_eff_w,end_eff_xq,end_eff_yq,end_eff_zq
-1.4111040274249476,-1.6493336162962855,-1.5275338888168335,-1.5209642362645646,1.4262630939483643,1.5519144535064697,-7.37154783988392,233.1213709633433,1079.2538449552305,-1.5701877557049295,0.051498472188565916,0.0002884833757701779,0.7070848058305491,-0.7066598757155647,0.018109056711914106,0.018301898323445333
-1.4134004751788538,-1.592447896996969,-1.469545841217041,-1.6029511890807093,1.1141204833984375,1.5303095579147339,-6.264909777029963,233.10662399325543,1079.2517154138588,-1.570293420605916,0.052535782894009855,-0.005203498462923411,0.7070864777699217,-0.7066343536622434,0.020415290029063025,0.016727794603558187
-1.427612606679098,-1.5529780940017481,-1.4245330095291138,-1.658567567864889,0.8447924256324768,1.4952397346496582,-5.3973230934625045,233.0959957144025,1079.2465709348794,-1.5704020790304574,0.05279962623194259,-0.01015658137260527,0.7070853641624173,-0.7066171146221566,0.02225767627452303,0.015071063572897518
-1.4387276808368128,-1.535718062227108,-1.4139680862426758,-1.6784287891783656,0.6869162321090698,1.4718092679977417,-4.857825945258978,233.08829364198687,1079.2421023903985,-1.570470189382944,0.052855133973166095,-0.013108779331086557,0.7070823871601629,-0.7066069237103841,0.023319828218018958,0.014047730931178882
-1.4431193510638636,-1.5300501969507714,-1.4417738914489746,-1.6561862430968226,0.6298257112503052,1.464416265487671,-4.450152925120798,233.07998580241988,1079.2406328724283,-1.5704951359581625,0.05292242133724684,-0.014182834801910507,0.7070805551188745,-0.706602320516916,0.02372290174743663,0.01369208331757508
-1.465691391621725,-1.543797117923834,-1.5172035694122314,-1.5255852241865178,0.5931739211082458,1.439566731452942,-4.094330317737712,233.07564621930288,1079.2385473567606,-1.5705251515047711,0.051286116180097326,-0.015217943848074685,0.7070876141923391,-0.7066200282564156,0.023510131862342964,0.012748145845701055
-1.4908111731158655,-1.5907312832274378,-1.5692466497421265,-1.3553798359683533,0.5823897123336792,1.368694543838501,-4.573510037129197,233.09274154546335,1079.232734938507,-1.5705594477056448,0.047167885844317865,-0.015846530833165177,0.7071037744586965,-0.7066720922000039,0.02227658614855492,0.011070680263668286
-1.5087640921222132,-1.672300478021139,-1.605086326599121,-1.1772645276835938,0.5849829912185669,1.3023298978805542,-5.8118659290939405,233.12865797740253,1079.2197056080468,-1.5705983606195828,0.04210296824083116,-0.016116605239383068,0.7071170526611585,-0.7067372192144419,0.020581729974537707,0.009185271040612073
-1.5129807631122034,-1.7356282673277796,-1.6321158409118652,-1.0779434007457276,0.6206293106079102,1.285293459892273,-6.810323870211414,233.1552579845307,1079.2083071354264,-1.5706119753647203,0.03943863335673596,-0.015568768609167512,0.7071215711352045,-0.7067741748877905,0.019446379435421966,0.008437278815867616
-1.5062091986285608,-1.8049036465086878,-1.6720542907714844,-0.9904194635203858,0.7682716846466064,1.2876567840576172,-8.011950990353585,233.18221117927945,1079.1969104358923,-1.5705955033434387,0.037439926376934315,-0.012873423978572881,0.7071244141186023,-0.7068120437671899,0.017787451429181242,0.008683565784070613
-1.472719971333639,-1.88017000774526,-1.6930135488510132,-0.9254906934550782,0.9259743094444275,1.2927429676055908,-9.559222536810031,233.20970949785496,1079.1815641723633,-1.570587950332059,0.03544730111457797,-0.00953646874174018,0.7071210903557054,-0.706854261550101,0.015903777783281708,0.009158949439742943
-1.4084609190570276,-1.9685546360411585,-1.6992042064666748,-0.8607396644404908,1.1285324096679688,1.2933706045150757,-11.646006255870018,233.2374047535644,1079.1597804656665,-1.5705929312742888,0.03289326215135348,-0.004880033953852827,0.7071093150586633,-0.706908762727373,0.013355090096520295,0.0099024898402734
-1.3444460074054163,-2.014486928979391,-1.707913875579834,-0.8202274602702637,1.2622393369674683,1.2940763235092163,-12.86938761993812,233.24199342973674,1079.1473860140102,-1.5705987469290215,0.03154867733645115,-0.0014294297149909832,0.7070964416112634,-0.7069408055666938,0.011660045115350424,0.010647207770644517
-1.2102692762957972,-2.0596090755858363,-1.7200554609298706,-0.8061319154552002,1.408949851989746,1.372123122215271,-14.312617769017104,233.2242217187711,1079.1351902561628,-1.5705959950034296,0.03208893121391824,0.0034732425138000993,0.7070658193867749,-0.7069635846130584,0.010118087860500143,0.012571451149758602
-1.055755917225973,-2.0858007870116175,-1.73615562915802,-0.8027654451182862,1.5297610759735107,1.5020805597305298,-15.438120589729536,233.18854148017277,1079.1290211464252,-1.5705850807437896,0.03412187305132283,0.00827932286992364,0.7070225537179877,-0.706973079046013,0.009138050231168987,0.014988998507829806
-0.9289835135089319,-2.0914584598936976,-1.7477598190307617,-0.80237831295047,1.5998914241790771,1.5844151973724365,-16.067493930102607,233.15232258575665,1079.128894536989,-1.5705726763391903,0.03565561085598297,0.011716630422456334,0.7069874978768592,-0.7069770740404988,0.008465378293487332,0.016746103943936066
-0.8088896910296839,-2.0977732143797816,-1.7575794458389282,-0.8013923925212403,1.6426693201065063,1.6709638833999634,-16.648938521017694,233.1173383192548,1079.1280111023282,-1.5705654238736106,0.03720994713005475,0.014559861367468573,0.7069515302117121,-0.7069798222418219,0.008009956303491422,0.01830042278901793
-0.7077062765704554,-2.1027027569212855,-1.7635003328323364,-0.8008703750422974,1.663262963294983,1.7587424516677856,-17.125322855228262,233.08733990677976,1079.1270164238883,-1.5705622783134516,0.03875007648768059,0.016685735662148895,0.70691790851705,-0.7069810293793531,0.007803057542673558,0.019596096768877785
-0.6183374563800257,-2.1264554462828578,-1.7554101943969727,-0.8007735770991822,1.7104483842849731,1.8177192211151123,-18.02047247124638,233.0636672658549,1079.11860016954,-1.5705722874728738,0.03922201676560858,0.019068877359614916,0.7068856754190136,-0.706991701991066,0.007127398424939374,0.02060522736766015
-0.5637796560870569,-2.1745807133116664,-1.7267208099365234,-0.7996956270984192,1.733337163925171,1.8426132202148438,-19.300207548302623,233.05561569594286,1079.0985742642138,-1.570610449085648,0.038297548950807,0.020419176192679425,0.7068677826659944,-0.7070128368294715,0.006322804183068125,0.020755927694663938
-0.5193441549884241,-2.2219258747496546,-1.691786289215088,-0.8001948159984131,1.7373580932617188,1.846582293510437,-20.544348799354115,233.05000495502625,1079.0768018972424,-1.5706533304655967,0.03694012681274391,0.02126329804736211,0.706857928011551,-0.7070345214785063,0.005544010275758464,0.02057471737203423
-0.5025022665606897,-2.258709569970602,-1.6610431671142578,-0.800617591743805,1.7362110614776611,1.84092378616333,-21.46245768401838,233.0514678868529,1079.0585251362788,-1.5706889382800535,0.03567072145345953,0.021535920309682512,0.7068555068196045,-0.7070511688596824,0.00499845111138148,0.020222575984377742
-0.4868982473956507,-2.295112272302145,-1.6339962482452393,-0.7982749503901978,1.7327934503555298,1.834277629852295,-22.338559018447484,233.052699854897,1079.0398868638763,-1.570723897191373,0.034406964134892526,0.02174737841473852,0.7068536903743404,-0.7070670175629297,0.004476528461831691,0.019850787686395262
-0.47715837160219365,-2.3174663982787074,-1.6182632446289062,-0.7951454085162659,1.7020702362060547,1.812762975692749,-22.82286447611332,233.05420323666917,1079.028009322747,-1.5707465623608434,0.03331245186957973,0.02138036092880434,0.7068599951177602,-0.7070766089261465,0.004219087264821967,0.01933431442469312
-0.47459632555116826,-2.3248678646483363,-1.6143399477005005,-0.792833999996521,1.659296989440918,1.8006980419158936,-22.9150420531897,233.05604052360133,1079.0240581844516,-1.5707547084784856,0.03286401942746022,0.020678264870463186,0.7068681205783824,-0.7070789470328901,0.004308682054790033,0.018927705402277114
-0.4740842024432581,-2.3232060871519984,-1.6292113065719604,-0.7660739582828064,1.629215955734253,1.800638198852539,-22.757164779952518,233.05601258397405,1079.0253885676439,-1.5707605405122707,0.03268457560242406,0.02016199935168308,0.7068726000642214,-0.7070802725623903,0.004427704641418524,0.018681832435593914
-0.4740207831012171,-2.3216635189452113,-1.641422986984253,-0.7373503011516114,1.6162159442901611,1.8027125597000122,-22.655304073132307,233.05578249092466,1079.026248317906,-1.5707681989997253,0.03245962659280358,0.019935965115219022,0.7068740871201846,-0.7070829768832285,0.004428014540539565,0.01852245791428054
-0.4740198294269007,-2.3217512569823207,-1.6459829807281494,-0.715566412811615,1.6120550632476807,1.8036566972732544,-22.648239901549715,233.05592738665948,1079.0257558815767,-1.570776775981392,0.03217408154267504,0.019863083970943256,0.7068743629262799,-0.7070864750817969,0.0043527472729827255,0.018395798029510906
-0.4756858984576624,-2.3275324306883753,-1.6489267349243164,-0.6733135742000123,1.611778974533081,1.803885579109192,-22.78170894267064,233.0577637519477,1079.0216055555766,-1.5707989260372084,0.03139141428273133,0.01982848308620148,0.7068739900284722,-0.7070958822445871,0.004088067223104778,0.01810699423857339
-0.47740012804140264,-2.339785238305563,-1.650052547454834,-0.6344261926463624,1.6121124029159546,1.8039838075637817,-23.029307665425442,233.06055013872452,1079.014503244145,-1.570823495638196,0.03052055865938216,0.0198036230783256,0.706873341885604,-0.7071062321005052,0.003788749106315643,0.01779045913724092
-0.47908193269838506,-2.3515731296935023,-1.6504592895507812,-0.6084434551051636,1.6130198240280151,1.803127408027649,-23.254315378454727,233.0631202886974,1079.008065190604,-1.5708418750148918,0.029853747638178316,0.019789553329805795,0.7068728593519192,-0.7071139271094847,0.003557815323439152,0.017549836169278285
-0.48176366487611944,-2.3627129993834437,-1.6514246463775635,-0.5946259063533326,1.6135872602462769,1.8026002645492554,-23.43833520686392,233.06581974817047,1079.002556024545,-1.5708536867251603,0.029425973256785344,0.01975230231464076,0.7068727446405476,-0.7071187832055829,0.003419647211436329,0.017385492088070144
-0.48528749147524053,-2.364406724969381,-1.6731929779052734,-0.5880078238299866,1.613646388053894,1.8032515048980713,-23.275843593914185,233.0660030225703,1079.0044231287652,-1.5708470727337722,0.02967210711750567,0.019692026705792707,0.7068734644271918,-0.7071159132545924,0.0035280338374602286,0.01745117440360263
-0.4895075003253382,-2.3625217876830042,-1.6946693658828735,-0.5854358834079285,1.613755702972412,1.8029913902282715,-23.048830223429537,233.06591849815752,1079.0079722440241,-1.570836853862435,0.030030266676231914,0.019620586766905288,0.7068745683486916,-0.7071115272417687,0.0036800053349279015,0.01755249909270517
-0.49259692827333623,-2.3621822796263636,-1.704353928565979,-0.5731855791858216,1.61456298828125,1.8017423152923584,-22.970414162122793,233.06655529015222,1079.0087531341144,-1.5708379693179009,0.029969627097350994,0.01958072328556079,0.7068750551157423,-0.7071119596971733,0.0036726509246014878,0.017516978721381644
-0.49433929124941045,-2.362138410607809,-1.7090805768966675,-0.5635596078685303,1.6150760650634766,1.796988844871521,-22.939689775211356,233.06702463695993,1079.0088880517487,-1.5708403718684654,0.029801953764725216,0.019559199945155262,0.7068758595801312,-0.7071130754022878,0.0036209602166257576,0.017450111319950497
-0.4951866308795374,-2.362298627892965,-1.7067899703979492,-0.5631216329387208,1.6143436431884766,1.7922301292419434,-22.957958370963695,233.06758742446732,1079.0085000344159,-1.5708417727481412,0.029668498906991785,0.019531589986964408,0.706876767286256,-0.7071137612182158,0.0035835279500427454,0.01739318528020397
-0.4962247053729456,-2.363124509850973,-1.7024954557418823,-0.5648415845683594,1.6146435737609863,1.7882331609725952,-23.00134064508895,233.06840094919423,1079.0076678098712,-1.5708434540258167,0.02953941348983706,0.019518660400484205,0.706877406112591,-0.7071145624293407,0.003542447745134276,0.017342992586922464
