zahirmahammad/RLHF-gello_software/csv/diffstartsamegoal100/output12.csv
shoulder_pan_angle,shoulder_lift_angle,elbow_angle,wrist1_angle,wrist2_angle,wrist3_angle,end_eff_x,end_eff_y,end_eff_z,end_eff_roll,end_eff_pitch,end_eff_yaw,end_eff_w,end_eff_xq,end_eff_yq,end_eff_zq
-1.4121936003314417,-1.6676203213133753,-1.556368350982666,-1.5650978677770873,1.4721449613571167,1.707029104232788,-7.415063541328746,233.12067539564694,1079.2520854500447,-1.570143511466395,0.055159292636991354,0.0010740717043303569,0.7070579817647107,-0.7066174908672437,0.019126170262602174,0.019872635315443324
-1.4227960745440882,-1.640975137750143,-1.5262131690979004,-1.6251803837218226,1.397969126701355,1.6214157342910767,-6.971100532573702,233.1153182754191,1079.254325597801,-1.570152298195515,0.05465296340803256,-0.000406605589213738,0.7070742751917896,-0.7066111924833334,0.019470212629841225,0.01917036357077673
-1.4266160170184534,-1.6314946613707484,-1.5153969526290894,-1.5702271273224433,1.3715139627456665,1.5902024507522583,-6.946399969106709,233.11666613061692,1079.255295746384,-1.570188075386358,0.05312633710940411,-0.0009371191249187676,0.7070809883148437,-0.7066334415693595,0.019117600600726953,0.018443767695826417
-1.4276793638812464,-1.6302572689452113,-1.512035846710205,-1.4664647665670891,1.3631495237350464,1.5784698724746704,-7.117145029599641,233.121505361061,1079.2552863548326,-1.5702358570465076,0.051074116916430275,-0.0011042292481292777,0.7070841486638897,-0.7066680286181,0.018450688212644163,0.017660015338336957
-1.4260647932635706,-1.6304089031615199,-1.514215111732483,-1.2686937314322968,1.3620615005493164,1.5756198167800903,-7.449673726421681,233.12946435193328,1079.2545845035324,-1.5703176806528312,0.04760898472966148,-0.0010990962521751258,0.7070847473421074,-0.7067278907631971,0.017223139404686845,0.016438125276236854
-1.4253304640399378,-1.62982239345693,-1.5168195962905884,-1.1271782976439972,1.3621081113815308,1.576198697090149,-7.667246998290815,233.13470620724217,1079.2535895053998,-1.5703751545387072,0.045205553943232134,-0.0010881281318355742,0.7070836050584086,-0.70676847780791,0.01636911083059994,0.015593153796133661
-1.4251230398761194,-1.6285249195494593,-1.5230588912963867,-0.993518130188324,1.3621869087219238,1.5767155885696411,-7.826490925327752,233.13861589946308,1079.2523956045582,-1.5704275415975384,0.04301392908030262,-0.0010854392847861822,0.7070817418595922,-0.7068045259093131,0.015592950802396418,0.014819998926789781
-1.4250701109515589,-1.627763410607809,-1.5309621095657349,-0.8443086904338379,1.3631397485733032,1.576867699623108,-8.007967919763571,233.1430785666088,1079.2503655001888,-1.5704857172991218,0.04056430468119272,-0.0010703164939641428,0.7070787044421643,-0.7068437665186333,0.014721166561573434,0.013960039871313645
-1.4250662962542933,-1.628533502618307,-1.5554202795028687,-0.6986187261394043,1.364537239074707,1.5749541521072388,-8.066296119305376,233.1444708524754,1079.2479688986655,-1.5705361659724177,0.03840216911130483,-0.0010478617257353026,0.7070754094624443,-0.7068772557458299,0.013948505447006702,0.01320415989588603
-1.4242432753192347,-1.6273170910277308,-1.588695764541626,-0.5862318438342591,1.3659236431121826,1.5741462707519531,-7.962536884012165,233.1416345059986,1079.2466416964974,-1.5705683435141555,0.037028925230368485,-0.0010105179929660792,0.7070727009038079,-0.7068982913860382,0.013449614734639286,0.012732208590177903
-1.4237359205829065,-1.62469544033193,-1.6240971088409424,-0.5353520673564454,1.3658071756362915,1.5739458799362183,-7.7071414501483115,233.13516990872915,1079.2469592621264,-1.5705737167932328,0.03680109883669708,-0.001003894729653966,0.707072205942816,-0.7069017624777735,0.013366696253802806,0.012654059437045156
-1.4210127035724085,-1.6208049259581507,-1.6616324186325073,-0.5258032840541382,1.3664859533309937,1.581072211265564,-7.3516218737423245,233.12568114490048,1079.2484762296415,-1.5705603241037178,0.03748167513916189,-0.0009439934579428808,0.7070722050609446,-0.7068928464267799,0.013586213787299281,0.012915699587113789
-1.376636807118551,-1.6210400066771449,-1.7171498537063599,-0.522852973347046,1.36672043800354,1.5827691555023193,-7.064964762912365,233.10867983726618,1079.249206270451,-1.5705384750703355,0.03842439788487979,-0.00016455929910321428,0.7070685424280583,-0.7068840119616479,0.013644153902988147,0.013524311662241086
-1.319700066243307,-1.6236735783019007,-1.7828600406646729,-0.520533875828125,1.3667277097702026,1.583025574684143,-6.7787710008860325,233.08961421214042,1079.2490122436402,-1.5705131521695903,0.03948899003506248,0.0008302886595181168,0.7070631896049105,-0.7068745852475409,0.013669081909379491,0.014252116916514868
-1.2743280569659632,-1.6311665974059046,-1.8180289268493652,-0.5382713836482544,1.3668676614761353,1.5830732583999634,-6.750718394874512,233.07943730108835,1079.2477787646667,-1.5704941932342549,0.04028220877383382,0.0016253782757884893,0.7070583475220809,-0.7068678971612685,0.013668640493626148,0.014813420577525712
-1.1944745222674769,-1.6502882442870082,-1.8401769399642944,-0.6090644758990784,1.3658547401428223,1.5830473899841309,-7.066378702948243,233.06965305134037,1079.2449773726426,-1.5704636666882437,0.041569788822986745,0.0030026569609878638,0.707048768528184,-0.7068577206599718,0.01363731592129467,0.015755166791589933
-1.1338241736041468,-1.6695004902281703,-1.8489999771118164,-0.642554299240448,1.3654122352600098,1.584735631942749,-7.485645901953458,233.0654758508588,1079.2414560572715,-1.5704541536174914,0.0420023239596136,0.004053890174527224,0.7070402466947802,-0.7068585436348804,0.013418777809238547,0.01627959601053648
-1.0542853514300745,-1.7082277737059535,-1.8538227081298828,-0.6918880504420777,1.3644356727600098,1.6068280935287476,-8.29977047059952,233.0639282315989,1079.2338736299696,-1.57044797140415,0.04265712984640372,0.005425456683979869,0.7070255730687341,-0.7068611236576048,0.013165584497827348,0.016995831052550293
-0.9814336935626429,-1.7560492954649867,-1.8546061515808105,-0.7186530393413086,1.3639143705368042,1.6251614093780518,-9.30692437148818,233.06538524099372,1079.2234948513114,-1.5704565338595777,0.04262337791039223,0.006687605488519415,0.7070119746964699,-0.7068725327013752,0.012707492061369152,0.017430140379577942
-0.925567928944723,-1.801180978814596,-1.8521239757537842,-0.7282461088946839,1.3629240989685059,1.6335244178771973,-10.259062427229418,233.06795188978774,1079.2128547550733,-1.5704725840556975,0.0421059457619233,0.007644733821361263,0.7070024538966424,-0.7068873817862663,0.012186122234874896,0.017585735138455655
-0.8701942602740687,-1.8392240009703578,-1.842574119567871,-0.7868398588946839,1.3631455898284912,1.6359236240386963,-11.0733061332183,233.06686525086647,1079.2042438261649,-1.5704679570386761,0.0423397655971894,0.00861526098978296,0.7069933709996822,-0.706890187677535,0.011925805279179066,0.01801141571804377
-0.8291485945331019,-1.8574325046935023,-1.837576985359192,-0.8886510294726868,1.3643701076507568,1.6365666389465332,-11.399407192417957,233.0611251830777,1079.2011670094691,-1.570434948500223,0.04372251730232215,0.009354436457691675,0.706985527534085,-0.7068746494623885,0.01215374364054506,0.018761138566114513
-0.7899583021747034,-1.873296400109762,-1.8166441917419434,-1.0253992837718506,1.3681751489639282,1.6481964588165283,-11.760934264124664,233.05590257076003,1079.198627958381,-1.5703922183336447,0.04566945789199631,0.010106824923348433,0.7069746603141787,-0.7068521665210594,0.012576610629396332,0.019714797062434963
-0.7559774557696741,-1.907081743279928,-1.794019341468811,-1.0936418336680909,1.3866418600082397,1.6661388874053955,-12.547208044508396,233.05666584514455,1079.1904800420189,-1.5703817531716582,0.046188934274994604,0.011022769393795172,0.7069640260945956,-0.7068509486116401,0.01243666822344255,0.020222055742297934
-0.717743221913473,-1.9530874691405238,-1.76859450340271,-1.1249895256808777,1.4234322309494019,1.6867812871932983,-13.666378305880757,233.05874501970794,1079.1782497254605,-1.5703881566659081,0.045849580529694,0.012331959047123735,0.7069518745857332,-0.7068632217079884,0.01185391126910465,0.02056496058700547
-0.6842740217791956,-2.005129476586813,-1.7426793575286865,-1.1357937020114441,1.4960535764694214,1.718326449394226,-14.964967259903927,233.06138952008305,1079.1637104945555,-1.5703979764475082,0.045227976557481356,0.01418320457708102,0.7069356279271106,-0.7068808061594748,0.010979726478466977,0.02099974897684872
-0.6507466475116175,-2.035061021844381,-1.7286808490753174,-1.1388802093318482,1.5542802810668945,1.748181700706482,-15.796181608804845,233.05779055028867,1079.1550661106182,-1.5704018328209128,0.04503604464354802,0.015784535188437008,0.7069192912664005,-0.7068917290258139,0.010345842249235765,0.021497967775102628
-0.6354573408709925,-2.0548368893065394,-1.717729091644287,-1.1369481843760987,1.5774013996124268,1.7541193962097168,-16.31230698901393,233.0575034217221,1079.148481142674,-1.570411679373869,0.04456971448708727,0.016454481975029054,0.7069136196000446,-0.7069009711511463,0.009944057008935971,0.021570051917708267
-0.6304891745196741,-2.0849153004088343,-1.6957658529281616,-1.1358474355987092,1.585915446281433,1.755401849746704,-17.01896347165984,233.063233606786,1079.1370630664692,-1.5704353110415712,0.043664886051742055,0.01668874357535846,0.7069124609228334,-0.7069148691273357,0.00954106842896153,0.02133327007139056
-0.6265009085284632,-2.1242500744261683,-1.6767866611480713,-1.1189029079726716,1.588413953781128,1.7515344619750977,-17.86120514985507,233.07096053683307,1079.1214849786802,-1.570471203479388,0.04228436834522153,0.01680039067563165,0.7069131689124134,-0.7069344720077004,0.009013098144046227,0.020885113532120636
-0.6248610655414026,-2.167076726953024,-1.6665551662445068,-1.0645639461329957,1.5871996879577637,1.7445790767669678,-18.733270222533854,233.0799459984298,1079.1034060116294,-1.570523436517416,0.04028926742341446,0.01680562742973085,0.7069151380822575,-0.7069615886685845,0.00830528360437399,0.020182218946018765
-0.624486271535055,-2.1951075992979945,-1.6505142450332642,-1.0300308626941224,1.5864815711975098,1.7397314310073853,-19.37975652865278,233.08688795848005,1079.0901989665163,-1.570561585252673,0.03883327577894608,0.016798105562876763,0.7069162338557783,-0.7069808983374013,0.007792759704658053,0.01966521277252766
-0.6235058943377894,-2.21354403118276,-1.6358834505081177,-1.0115820926478882,1.5861940383911133,1.7363814115524292,-19.835872015747736,233.09149050542115,1079.0809583334526,-1.570586541908506,0.037876029054284305,0.01680922818449467,0.7069166364560493,-0.7069934075842599,0.007450128857164303,0.019330967747995108
-0.6128929297076624,-2.226954599420065,-1.6250301599502563,-0.9896071714213868,1.5833699703216553,1.7343436479568481,-20.22007489809464,233.09159617164931,1079.073713681661,-1.5706092357971648,0.037033763031601566,0.016944314486242316,0.7069154058518117,-0.707004983531073,0.00710435819638645,0.019081151071488153
-0.6008170286761683,-2.2302242718138636,-1.623774766921997,-0.9864930671504517,1.573529601097107,1.7345340251922607,-20.320598072357917,233.0883395204959,1079.0720526442558,-1.5706140627288583,0.03690383939548002,0.01698315793887122,0.7069145678264217,-0.7070072863889959,0.007044644019831587,0.019048983654919173
-0.5794642607318323,-2.224034448663229,-1.6287939548492432,-1.0101365011981507,1.5529415607452393,1.7393908500671387,-20.188430186439973,233.07951144145804,1079.0756253704683,-1.570599945938763,0.03759673841046596,0.016997055352994086,0.7069127816639069,-0.7069998655327874,0.007284854001218167,0.019298708739163947
-0.5505669752704065,-2.2206417522826136,-1.6295850276947021,-1.0191679757884522,1.5065033435821533,1.7410087585449219,-20.148489978037862,233.06994140378066,1079.0767481385876,-1.5705997471011324,0.03785570270649222,0.016690943311386874,0.7069133065137229,-0.7069977092718888,0.00748462804570799,0.019282025338503296
-0.5360854307757776,-2.2215715847411097,-1.6263859272003174,-1.0104972285083313,1.4892359972000122,1.7410633563995361,-20.23481386566554,233.0658826024578,1079.0755497342864,-1.5706078112353292,0.037633393428125904,0.016642025935900837,0.7069130644062372,-0.7070012054075642,0.007423241373511169,0.0191862036772488
-0.52997333208193,-2.226225038568014,-1.6240463256835938,-0.945155457859375,1.468146800994873,1.7419993877410889,-20.43125877054728,233.0662559144983,1079.0710557688415,-1.5706428557835164,0.036387732872249445,0.0163793403263238,0.7069149455277444,-0.7070171530700599,0.007075348414942055,0.018653270464482098
-0.5274203459369105,-2.2478515110411585,-1.6104000806808472,-0.8916098040393372,1.4528464078903198,1.7432830333709717,-20.97132662984022,233.0708992289157,1079.0589138107423,-1.570683789922751,0.03486050295650326,0.016155404692537696,0.7069165370611954,-0.7070360800662594,0.006614169287311953,0.01803451908380857
-0.5189855734454554,-2.273867746392721,-1.5902972221374512,-0.8534203332713624,1.4478037357330322,1.745574951171875,-21.652065390105484,233.073886801081,1079.0444626897342,-1.5707213847824633,0.03342952217583015,0.01621332891025004,0.7069154615312645,-0.7070540949425226,0.006087425927350691,0.017549368040718452
-0.5047581831561487,-2.3062650165953578,-1.5799386501312256,-0.8295748990825196,1.4468472003936768,1.7483272552490234,-22.35692074393909,233.07424493231105,1079.0286073233485,-1.57075080265975,0.03231551929217163,0.016443985094323113,0.7069127437693572,-0.7070684251713746,0.0056117681887234,0.01723725267980634
-0.4877522627459925,-2.3243071041502894,-1.5789639949798584,-0.819198028450348,1.446624994277954,1.7638485431671143,-22.74073323402013,233.0702871912277,1079.0203174755447,-1.570763768077773,0.032073565240669295,0.01673650940112235,0.7069077239843157,-0.7070744822038347,0.005422695851801608,0.01725516610156227
-0.4751523176776331,-2.3285752735533656,-1.5812050104141235,-0.8169263166240235,1.4465484619140625,1.7807496786117554,-22.844841856377204,233.06572231911343,1079.0186721023026,-1.570765664623493,0.03229354029555118,0.01695503248003901,0.7069032532957008,-0.7070751486663924,0.005423195201225881,0.017410157155021047
-0.46945411363710576,-2.3282200298705042,-1.5951467752456665,-0.8187347215465088,1.4490715265274048,1.7891515493392944,-22.743894128917944,233.06232131433578,1079.0207188336412,-1.5707584985545364,0.03272118184239046,0.017098758574819583,0.7069007840806051,-0.7070718389465838,0.00552363766574299,0.01761208283707406
-0.4714587370501917,-2.324935575524801,-1.6119842529296875,-0.8234321039966126,1.4530284404754639,1.7902743816375732,-22.537364442938724,233.06131035869575,1079.024476310577,-1.570747404391937,0.03317381579961634,0.017133198681422334,0.7069003960434501,-0.7070667474416062,0.005671588793693468,0.01778420131792621
-0.4767807165728968,-2.316977640191549,-1.6357420682907104,-0.8276541990092774,1.4903180599212646,1.791063904762268,-22.241936929901026,233.05945961143215,1079.0311176679254,-1.5707298256803859,0.033814584875988034,0.017691727118299208,0.7068958192227952,-0.7070603007765843,0.00570083471628573,0.01820802884985029
-0.48953420320619756,-2.3037287197508753,-1.6561365127563477,-0.8284591001323243,1.5384608507156372,1.7915114164352417,-21.885326083716734,233.05958916452357,1079.039400206253,-1.5707115250638888,0.03442335757064737,0.018310008474402218,0.7068909847418829,-0.7070538600044332,0.005697658003289036,0.018641658637578756
-0.4978421370135706,-2.2971369228758753,-1.6712098121643066,-0.8250504297069092,1.5669333934783936,1.7908825874328613,-21.672108047397014,233.0598598628083,1079.0439296175743,-1.5707012369004838,0.0347308554891916,0.01866229924462418,0.7068884335601442,-0.7070503513964569,0.005681928832341947,0.018874818509768104
-0.5069211165057581,-2.295422693292135,-1.6768367290496826,-0.8255244058421631,1.580588459968567,1.7903269529342651,-21.582359408041295,233.06217179774242,1079.0453938310275,-1.5706966434541763,0.03485748279887497,0.018742324382899533,0.7068881033856552,-0.7070485953988012,0.005698451645200408,0.018947841176787654
-0.5156477133380335,-2.2949444256224574,-1.670722246170044,-0.8328574460795899,1.5855793952941895,1.7893784046173096,-21.58761604077949,233.06558334680662,1079.0452197152,-1.5706955087777918,0.03487052265652033,0.018677162109732325,0.7068889980809397,-0.7070479710100572,0.00572610919299645,0.01892941510443807
-0.5207303206073206,-2.2963739834227503,-1.6662436723709106,-0.834804968242981,1.585612416267395,1.7856358289718628,-21.624923848751266,233.06802282877197,1079.0441868361634,-1.570697421043297,0.034736103131080456,0.01858895714045904,0.70689042478418,-0.7070487788894471,0.005709748423965489,0.01885073983477192
-0.5224149862872522,-2.298286577264303,-1.6639920473098755,-0.8289351624301453,1.5824315547943115,1.7833707332611084,-21.6726803468468,233.0693093556829,1079.0428630481338,-1.5707024591413874,0.03452151527094108,0.018503859771969857,0.70689146045965,-0.7070509275833309,0.00566391564473015,0.018744839085560305
-0.5229352156268519,-2.300793787042135,-1.6632163524627686,-0.810869113808014,1.5798490047454834,1.782700777053833,-21.744277889917498,233.07030280612543,1079.0409482867522,-1.5707128923397016,0.03413735869740873,0.018449347155772858,0.7068918665345976,-0.7070555387606468,0.0055472683151610086,0.01858983457063292
-0.5230429808246058,-2.304458280602926,-1.6612730026245117,-0.7821453374675293,1.5788719654083252,1.7833642959594727,-21.867424925355007,233.07151873757965,1079.0379404370408,-1.5707294645866883,0.03354996843708787,0.01842985391869095,0.706891616271709,-0.7070629423555446,0.0053463311445920815,0.018375394841561685
-0.5230668226825159,-2.307195325891012,-1.6576532125473022,-0.7542472046664734,1.5785584449768066,1.7846226692199707,-21.99018500093015,233.07266447529543,1079.0351177787381,-1.5707459576980813,0.03297429650291719,0.018423418639816117,0.7068911037880439,-0.7070702644679208,0.005144924417322177,0.01816970674847036
-0.5230906645404261,-2.309000631371969,-1.6543000936508179,-0.7353963416865845,1.5785167217254639,1.7868521213531494,-22.080480254045803,233.0735008967061,1079.0330943513109,-1.5707575090299224,0.032594325740989236,0.01842189741334756,0.7068904729572913,-0.707075307957498,0.005011018191595314,0.018034905481033092
-0.5230906645404261,-2.317183633843893,-1.6502525806427002,-0.7270693939975281,1.5784626007080078,1.7889338731765747,-22.26051548076181,233.07514719347208,1079.0287384425333,-1.5707673992450488,0.0322719999421043,0.01842063333943023,0.7068898851166363,-0.7070795988121843,0.00489741767722897,0.01792056258837571
-0.5230978170977991,-2.3309112987914027,-1.6514877080917358,-0.7190873187831421,1.5792678594589233,1.7898393869400024,-22.48475628359487,233.07715899321258,1079.0226561340762,-1.5707772383534992,0.03193059007294987,0.01843424750052944,0.7068893342589124,-0.7070839345228896,0.004771811394378615,0.017804731580057805
-0.5230749289142054,-2.3383480511107386,-1.6599457263946533,-0.6991924208453675,1.579058051109314,1.790051817893982,-22.565450884727092,233.0778959246025,1079.0196048366697,-1.5707863228502474,0.03160501583820506,0.018430696636590808,0.7068890429325813,-0.7070879044923682,0.004657880015282602,0.017688427183161506
-0.5231102148639124,-2.3401905498900355,-1.6675673723220825,-0.6893502634814759,1.5786244869232178,1.789318323135376,-22.545723709496286,233.07775178495328,1079.0193208529033,-1.570788280152613,0.03152132802414385,0.018422451774526113,0.7068891632670373,-0.7070887714822673,0.004631190037648605,0.017655938892084985
-0.523106877003805,-2.340694566766256,-1.6759251356124878,-0.6856756967357178,1.578528642654419,1.7888176441192627,-22.488279710377412,233.0772304628177,1079.0199932871528,-1.5707862703290019,0.03158550230465819,0.018420900560422965,0.7068893206461471,-0.7070879085503177,0.004654444862180756,0.017678067807070343
