zahirmahammad/RLHF-gello_software/csv/diffstartsamegoal100/output62.csv
shoulder_pan_angle,shoulder_lift_angle,elbow_angle,wrist1_angle,wrist2_angle,wrist3_angle,end_eff_x,end_eff_y,end_eff_z,end_eff_roll,end_eff_pitch,end_eff_yaw,end_eff_w,end_eff_xq,end_eff_yq,end_eff_zq
-1.3847063223468226,-1.5973550281920375,-1.5546313524246216,-1.5779701671996058,1.5241129398345947,1.6110434532165527,-6.485766036969097,233.08956199854975,1079.2699232859648,-1.570082649720319,0.054903629760793285,0.0024627239458655005,0.7070681152554467,-0.7066114587016279,0.018545770892481606,0.020272671325495678
-1.3570945898639124,-1.5050431725433846,-1.471980333328247,-1.7687345943846644,1.4060635566711426,1.6221805810928345,-5.2937897694057225,233.0607583622758,1079.2815989114022,-1.5700518291685828,0.058596447115615916,0.000887014943280042,0.7070571224311463,-0.7065492827362772,0.020408360283423473,0.021019883795619827
-1.3476217428790491,-1.4664773431471367,-1.3927479982376099,-1.8966180286803187,1.3026024103164673,1.6217353343963623,-4.993195745275808,233.05615410036174,1079.2820435889296,-1.5700718887724074,0.06011179861201647,-0.0007537158522882037,0.7070513406829688,-0.7065233009428591,0.02152348657558386,0.020975375773819117
-1.3466880957232874,-1.4556148958257218,-1.3334252834320068,-1.9644857845702113,1.2429407835006714,1.617553949356079,-5.110667506131294,233.06104933327452,1079.2798840382302,-1.570097695791873,0.060378201123670566,-0.0017797855231403174,0.7070501382114546,-0.7065183696374439,0.02197986391834189,0.020707027844256973
-1.346696678792135,-1.4533015054515381,-1.2826331853866577,-2.018571992913717,1.2110774517059326,1.6147618293762207,-5.360118460257533,233.06810159112607,1079.2775829735626,-1.5701135295193294,0.060427700263430466,-0.0023367564639815764,0.7070497758050188,-0.7065172700835526,0.022193953737119337,0.020527786662764207
-1.346823517476217,-1.4536317896893998,-1.2450900077819824,-2.057192464868063,1.1874815225601196,1.6139456033706665,-5.578932463499757,233.07412882340995,1079.2753254929844,-1.5701265603125212,0.06042676775791655,-0.0027513791652519857,0.7070494225389876,-0.7065172709748245,0.022339959880186194,0.020381022891948115
-1.3468363920794886,-1.4541278642467041,-1.197256088256836,-2.104321619073385,1.1576210260391235,1.6137828826904297,-5.863499615374646,233.08188429278823,1079.2722395432236,-1.570143824894575,0.060403317960443965,-0.0032735410556203617,0.7070488576267552,-0.706517781724911,0.022515953715920443,0.020188334836593824
-1.3468473593341272,-1.4575626340559502,-1.1320353746414185,-2.1624747715392054,1.1259349584579468,1.6137279272079468,-6.32196058996817,233.0937633366354,1079.2676572685762,-1.570165296232791,0.06021944981623398,-0.0038277676458096646,0.7070486763548646,-0.7065211896060141,0.02264652940689373,0.01992768447058953
-1.3468602339373987,-1.4690485534122963,-1.0697805881500244,-2.211458822289938,1.098625659942627,1.6137349605560303,-6.907297472480193,233.10844991217004,1079.2613143257886,-1.5701889109938296,0.059787864088390194,-0.004305803927234047,0.7070493274555539,-0.7065290092016943,0.022662610801026866,0.01960647272720103
-1.3468130270587366,-1.4769065466574212,-1.0417513847351074,-2.2350765667357386,1.0844361782073975,1.6137349605560303,-7.208014531291478,233.11597977327284,1079.2575167638672,-1.5702008209087226,0.05957390960912973,-0.004553220535525276,0.7070496256896797,-0.7065328391273755,0.022674270065155662,0.019443547096825036
-1.34682542482485,-1.4805050653270264,-1.0541398525238037,-2.246157785455221,1.0540647506713867,1.6096175909042358,-7.087149503029609,233.1141263700083,1079.2551653768508,-1.5702110993455975,0.059849117541654485,-0.005083909624400718,0.7070484707893232,-0.7065272804696163,0.02295892303311763,0.019353288088766088
-1.3395641485797327,-1.4806366723826905,-1.109065294265747,-2.2421542606749476,1.0431374311447144,1.6062300205230713,-6.635358931014545,233.10231850176356,1079.2559095442616,-1.5702009772222114,0.06067641509229438,-0.005147220496265853,0.7070445965316038,-0.7065134130080847,0.023273810745095887,0.019623085601676166
-1.2974537054644983,-1.4804092285088082,-1.1771318912506104,-2.2030731640257777,1.051533818244934,1.6126142740249634,-6.3014007363053475,233.0856680145635,1079.2584417574608,-1.5701867935596134,0.06129752969821461,-0.0042648578408076825,0.7070346515555029,-0.7065114366337643,0.023181796537782344,0.02015429767478936
-1.1992266813861292,-1.482449085717537,-1.25050950050354,-2.160999914208883,1.1754387617111206,1.6625515222549438,-6.3922579204350525,233.0638730765138,1079.2668123329372,-1.570104429378766,0.06267835776237715,-0.0003834622495918652,0.7070082631090244,-0.7065107618200668,0.022299642877383227,0.022013297243496408
-1.082404915486471,-1.4831522193602105,-1.3102670907974243,-2.1310845814146937,1.3106491565704346,1.762283444404602,-6.652695778902684,233.04119809309032,1079.2754538435452,-1.5700130924468696,0.06492572186728642,0.004021075932902996,0.7069633871357542,-0.7065021360957675,0.02153925880238499,0.02436311293540671
-0.9987309614764612,-1.4833079141429444,-1.3521051406860352,-2.1098386249937953,1.3996847867965698,1.8412729501724243,-6.828010959729958,233.02469655185408,1079.2811141193356,-1.569951073266521,0.0666596661360724,0.0070397074518033335,0.7069253919318358,-0.706493922093689,0.021086724648808557,0.026041857274056713
-0.8859708944903772,-1.4833848264864464,-1.3980852365493774,-2.074564119378561,1.4875272512435913,1.9409103393554688,-7.10709515381454,233.0041841827743,1079.286802673847,-1.5698930967117861,0.06858277276318692,0.010545397389282082,0.7068725638495048,-0.7064899181167513,0.020529060143167435,0.027959466480105333
-0.8043120543109339,-1.4840987411192437,-1.42678964138031,-2.044732233087057,1.5573729276657104,2.0022830963134766,-7.377419724795852,232.9897253344573,1079.291141365556,-1.5698515035678413,0.06962067618620484,0.013192775347070215,0.7068345281739404,-0.706491523818453,0.019961454494792648,0.029261183985880394
-0.7117779890643519,-1.4889343988946457,-1.4666827917099,-1.9879032574095667,1.6092947721481323,2.0793278217315674,-7.6776811465012225,232.9740683232426,1079.2937508464574,-1.5698306374771696,0.07058465609990346,0.015716210383439504,0.7067897929860615,-0.70649951335263,0.01941121742684336,0.030493127114571254
-0.6628363768206995,-1.5009507697871705,-1.5152934789657593,-1.9023057423033656,1.6447808742523193,2.124713659286499,-7.8622424201162255,232.9655064252163,1079.2940025156747,-1.5698339492426574,0.07052127023236374,0.01718992490034597,0.706766945266494,-0.7065153925669159,0.018868158471772704,0.030991575316037502
-0.6442197004901331,-1.5264588382891198,-1.5616275072097778,-1.8143273792662562,1.6773966550827026,2.13604474067688,-8.158071337000472,232.96377112327778,1079.2912627647095,-1.5698493100516164,0.06954695540067896,0.018082906085538326,0.7067627872243215,-0.7065381144117465,0.018207944657443874,0.030963304567725114
-0.6278803984271448,-1.572573801080221,-1.653096079826355,-1.6044942341246546,1.6961376667022705,2.1371686458587646,-8.574863652497251,232.9643157324106,1079.2831182143477,-1.5699240371837127,0.0666968123991957,0.01868994899684065,0.7067706934549333,-0.7065948988200773,0.016984520566684567,0.03017220402617532
-0.6134799162494105,-1.630718847314352,-1.7352391481399536,-1.4060935092023392,1.700563907623291,2.1352107524871826,-9.211542765684852,232.96811553457152,1079.2704926539777,-1.5700124160725277,0.06362001637927804,0.01901272455580614,0.7067803674676817,-0.7066539403506167,0.015781198282992064,0.029200591260260297
-0.6050522963153284,-1.678028245965475,-1.7775368690490723,-1.2902334493449708,1.7003917694091797,2.115159273147583,-9.840980109104464,232.9730522947369,1079.2595046607364,-1.5700753115847668,0.0611613759990962,0.019152626479211975,0.7067915382161358,-0.7066960471112332,0.014861476750763904,0.028382301038023444
-0.6012232939349573,-1.7272664509215296,-1.8076930046081543,-1.1901744467071076,1.699120283126831,2.081273317337036,-10.557395198368468,232.97981415334877,1079.2474775612345,-1.5701377109583479,0.05849148297589839,0.01919313137485939,0.706806206065853,-0.7067375635555234,0.013902213041625556,0.027454176347922434
-0.6001523176776331,-1.7689482174315394,-1.8280231952667236,-1.1095833045295258,1.6983368396759033,2.0561206340789795,-11.193007593256329,232.98626958087644,1079.2367184439381,-1.5701909016718991,0.05627404198408663,0.019194825306366632,0.7068174016125925,-0.7067713322087499,0.013116806339756485,0.026671972872985446
-0.5998857657061976,-1.8426877460875453,-1.845268964767456,-0.9982555073550721,1.6973114013671875,2.013636589050293,-12.417790990181167,232.99908290304796,1079.2165428376522,-1.5702782488666773,0.05260481505281059,0.019176414727145874,0.7068345240504356,-0.7068249392578513,0.01182474620804961,0.025369986808130005
-0.5998209158526819,-1.9027582607665003,-1.8553236722946167,-0.9093112510493775,1.6968269348144531,1.976667046546936,-13.446755364658433,233.00986349648124,1079.1986113014264,-1.570350372245466,0.049535333611775145,0.01916509978612115,0.7068472843365027,-0.706867664355714,0.010742501114428385,0.02428210007836347
-0.5980289618121546,-1.9666453800597132,-1.8559355735778809,-0.8223968905261536,1.696587324142456,1.9497485160827637,-14.621740110756818,233.02164353165605,1079.1778680533428,-1.570428185950612,0.04644536629326349,0.019188269785001728,0.7068561916972318,-0.7069110147999423,0.009640810994121653,0.023199055523391666
-0.5913479963885706,-2.0216671429076136,-1.852570652961731,-0.7506017845920105,1.6965649127960205,1.9386367797851562,-15.682958206579315,233.0306108791935,1079.1585465229905,-1.5704955612167621,0.0439803261088318,0.019301373513571227,0.7068591736828972,-0.7069466574246718,0.00872846986760276,0.02236841411870629
-0.5831077734576624,-2.077813764611715,-1.8435688018798828,-0.6777857703021546,1.6966142654418945,1.9301261901855469,-16.818785670277425,233.03956921801307,1079.1371286370445,-1.5705669357999477,0.0414249098291176,0.01944296757132633,0.7068604290215309,-0.706983002797375,0.007774101564166306,0.021515831008218023
-0.5675528685199183,-2.1239520512022914,-1.83385169506073,-0.6077869099429627,1.6957077980041504,1.9103710651397705,-17.823810075566602,233.04437028719528,1079.1178017966336,-1.5706321289807463,0.038884512774436865,0.019695946465578155,0.7068615308521092,-0.7070162065750497,0.006785778709376071,0.02070780164446754
-0.5566895643817347,-2.156980176965231,-1.8234981298446655,-0.5699498218349,1.695235013961792,1.8916428089141846,-18.55025916832008,233.04764014580093,1079.103537751235,-1.5706741491852143,0.03714072992309951,0.019875651662871502,0.7068626551956708,-0.7070372542172648,0.0061052824144506275,0.020155231709835433
-0.5487530867206019,-2.1772667370238246,-1.8155041933059692,-0.5594006341746827,1.6951103210449219,1.8785876035690308,-18.993831491069045,233.04901406646638,1079.0949313720748,-1.57069422242879,0.036235464684958016,0.020011231223818045,0.7068632634503487,-0.7070474292336048,0.0057370849308961075,0.01988329587792456
-0.5410020987140101,-2.2001873455443324,-1.8049005270004272,-0.5346031945994874,1.682303786277771,1.8558825254440308,-19.503939565849336,233.05161755036315,1079.084167472879,-1.5707248998867427,0.034821741928914775,0.019921872164997422,0.7068671620044934,-0.7070619143062683,0.005268541881901134,0.01935218550208588
-0.5368641058551233,-2.221468587914938,-1.7953712940216064,-0.5116738838008423,1.662806749343872,1.8251603841781616,-19.949019248841356,233.0552104443701,1079.073956553964,-1.5707529625392778,0.03334802236562656,0.01965281980898354,0.7068738360117781,-0.7070748768963115,0.004842353703648498,0.018736329274127717
-0.5365923086749476,-2.2525979481139125,-1.7746734619140625,-0.5031349223903199,1.6523725986480713,1.7781224250793457,-20.622491616048777,233.0619376058631,1079.0591932371417,-1.5707836328091602,0.03147391297092497,0.019474436462165356,0.706881848833584,-0.7070895678533209,0.004242544468238406,0.018010986620763537
-0.5384929815875452,-2.274818559686178,-1.756106972694397,-0.5007817310145875,1.6319146156311035,1.7392420768737793,-21.098129707334543,233.06818383001715,1079.0481080845684,-1.570805242716861,0.03004269263245291,0.01908353841472781,0.7068903244456757,-0.7070993167984968,0.003874549320428555,0.01736701631685922
-0.5387290159808558,-2.294338365594381,-1.7314640283584595,-0.5041611951640625,1.6111348867416382,1.7196134328842163,-21.578960643434094,233.07382317012795,1079.0374535712551,-1.5708251503238007,0.02898858371936401,0.018716163169992892,0.7068954509752825,-0.707107641920846,0.0036315900977536234,0.01686462810009183
-0.5377491156207483,-2.318112989465231,-1.7046927213668823,-0.5067798656276246,1.6003735065460205,1.7105826139450073,-22.169797606620968,233.07948635977493,1079.024377495529,-1.5708483277526608,0.02799479856533481,0.018544790412492736,0.7068969614071214,-0.7071172677857266,0.0033406422112378783,0.01645283143547956
-0.5360291639911097,-2.333665987054342,-1.6884568929672241,-0.5075922769359131,1.5835615396499634,1.702494502067566,-22.534314751147505,233.08297756498368,1079.0157569552423,-1.5708627267053672,0.027313185238506052,0.01828099592719731,0.7068995687886668,-0.7071230398619229,0.003192815162747959,0.01611868711052285
-0.535560433064596,-2.335776468316549,-1.6994109153747559,-0.5343019527247925,1.5732237100601196,1.7176430225372314,-22.41150625553407,233.0821224413977,1079.0176655632488,-1.5708452521492595,0.028197851681893343,0.018109217760776626,0.7068999568542055,-0.7071150778693848,0.003566455133942009,0.016370645896666237
-0.5345547834979456,-2.335520406762594,-1.7077465057373047,-0.5634011787227173,1.5868449211120605,1.7463247776031494,-22.312988635602114,233.0801187808676,1079.0202592235723,-1.570827452746848,0.02935603208005233,0.018364996513402485,0.7068944996499267,-0.7071071051157314,0.0038856357781462568,0.016870391048500393
-0.526564900075094,-2.334944864312643,-1.7064827680587769,-0.582713322048523,1.6020780801773071,1.7825138568878174,-22.34000704202957,233.07621771708742,1079.0212880708677,-1.5708186605007983,0.030312581138096713,0.018770560343996018,0.7068859545939405,-0.7071029000143579,0.004080504170079583,0.01735181474130295
-0.5225995222674769,-2.335447927514547,-1.699051022529602,-0.5892371100238343,1.6101911067962646,1.7990869283676147,-22.43073175152678,233.07495611470327,1079.0204543382074,-1.570819466078393,0.03057722173730255,0.018981337127565803,0.706881525144059,-0.7071030745346737,0.00409953865290996,0.017519850925571588
-0.5225275198565882,-2.3399821720519007,-1.6809422969818115,-0.5895745319179078,1.6183421611785889,1.8005211353302002,-22.672585362052406,233.07673180355442,1079.0161840670855,-1.5708305825593352,0.030213106686384973,0.019124517918943096,0.7068795259161111,-0.7071080207189099,0.003920089330398656,0.017441782455965303
-0.5228355566607874,-2.342748304406637,-1.6686981916427612,-0.5892492693713685,1.6226849555969238,1.7997652292251587,-22.828800012496536,233.07807715937426,1079.0133505834888,-1.5708382568545896,0.029932368588684304,0.019194707405874097,0.7068786448661837,-0.7071114101544949,0.0037959541736849846,0.01736737727409941
-0.5230191389666956,-2.3524238071837367,-1.654673457145691,-0.5891136688045044,1.6240415573120117,1.7994886636734009,-23.10580412405602,233.08061898779732,1079.0072209000798,-1.5708500867747026,0.02951169584257068,0.019214829096868568,0.7068779263638748,-0.707116410918586,0.0036400130391493705,0.01722582172787272
-0.5222967306720179,-2.371460100213522,-1.629140853881836,-0.5950624507716675,1.6252639293670654,1.8036872148513794,-23.624186919024,233.0849662081817,1078.9955095124442,-1.5708692518533425,0.028911198507317278,0.01924820746545175,0.7068760064177572,-0.7071243030395282,0.003415749167612318,0.017025400417264667
-0.5208256880389612,-2.3876964054503382,-1.612076997756958,-0.6100104016116639,1.625870943069458,1.8156462907791138,-24.01139952810318,233.0877951637624,1078.9864946336938,-1.570878370638224,0.028799746963183746,0.01928419709462991,0.7068734242197323,-0.7071277759189836,0.003363544908729219,0.01699874175899896
-0.5192764441119593,-2.3970395527281703,-1.6054072380065918,-0.6164744657329102,1.6288609504699707,1.822853684425354,-24.218349912517183,233.08881674729557,1078.9815663469633,-1.570883260621208,0.02875895257789603,0.019363270410521848,0.7068713698138519,-0.7071297045642483,0.0033211236003536796,0.01701227787212566
-0.5178592840777796,-2.4006110630431117,-1.6103659868240356,-0.6170177620700379,1.630115270614624,1.8427718877792358,-24.239909613789532,233.08829841060086,1078.9806876089476,-1.5708823696054264,0.029140273264927023,0.01940989217128453,0.7068680285807012,-0.7071288236766572,0.0034394572594349596,0.017163537801411027
-0.5147951284991663,-2.4009229145445765,-1.6243681907653809,-0.6151753825000306,1.6304798126220703,1.8534979820251465,-24.141005358819804,233.08598303775113,1078.9825163054638,-1.570876503526094,0.029534181899733027,0.01946989072402096,0.7068661891395674,-0.707126166031934,0.0035575547651689786,0.017323965145885325
-0.5131209532367151,-2.4001523456969203,-1.6322475671768188,-0.6132355493358155,1.6305973529815674,1.8557661771774292,-24.071432328222464,233.0845876424419,1078.9839172694878,-1.5708731757008776,0.02969083567107075,0.019501257477174724,0.7068657340025142,-0.7071247655160727,0.003601876119416974,0.017390416192434317
