zahirmahammad/RLHF-gello_software/csv/diffstartsamegoal100/output92.csv
shoulder_pan_angle,shoulder_lift_angle,elbow_angle,wrist1_angle,wrist2_angle,wrist3_angle,end_eff_x,end_eff_y,end_eff_z,end_eff_roll,end_eff_pitch,end_eff_yaw,end_eff_w,end_eff_xq,end_eff_yq,end_eff_zq
-1.5476082007037562,-1.6649366817870082,-1.5435398817062378,-1.501415030365326,1.4309805631637573,1.5458629131317139,-6.970531089353,233.14223871030467,1079.2506810413254,-1.570194110468714,0.05105874154640694,-0.002012042311061858,0.7071069753350259,-0.7066449656518163,0.018766373717851774,0.017333238848422257
-1.5914767424212855,-1.6655103168883265,-1.5102791786193848,-1.5036196497133751,1.1788560152053833,1.5171533823013306,-6.6446687886372375,233.15339817362388,1079.2396251660114,-1.570311593221809,0.050008155794550944,-0.007183055463342723,0.7071159724722129,-0.7066463365470148,0.020221059858283135,0.015134901967546636
-1.6204217115985315,-1.6719619236388148,-1.5018876791000366,-1.4736875531128426,0.9939584732055664,1.475687026977539,-6.432840423766526,233.16016140181597,1079.2308341893518,-1.5704012117214419,0.048504515609576845,-0.010919177929308002,0.7071215412099493,-0.7066550059932472,0.021008981963861827,0.013283491197424252
-1.6744163672076624,-1.723905702630514,-1.4999710321426392,-1.3538069886020203,0.8625953197479248,1.3874626159667969,-7.0405512455031705,233.19400924605947,1079.21482946712,-1.5704991835126776,0.04393354682352586,-0.014158826623377047,0.7071334272591291,-0.7067034637187218,0.020537431417702316,0.010523513267070905
-1.7229045073138636,-1.8123532734312953,-1.4895223379135132,-1.2048829358867188,0.8064161539077759,1.2825547456741333,-8.508761998713016,233.25140607274383,1079.1909395978103,-1.5705795131379718,0.03777798930177829,-0.015989218056000117,0.7071414425345962,-0.7067746187809952,0.019008123737054256,0.007701281001640949
-1.7557700316058558,-1.9155012569823207,-1.4686177968978882,-1.0642961424640198,0.7932370901107788,1.214900016784668,-10.425481026189981,233.31942400225375,1079.1596543811654,-1.5706470703408555,0.031978856544392004,-0.016795400455428953,0.7071391569350332,-0.7068437515063689,0.017242995261359695,0.005366824017028904
-1.7815559546100062,-1.9872294865050257,-1.45477294921875,-0.9830678862384339,0.7915540337562561,1.1945397853851318,-11.724631684472463,233.36780779092467,1079.1351993157514,-1.5706876346450134,0.028712553335123733,-0.017276099917806268,0.7071336379630564,-0.7068814230430439,0.01625823120794119,0.004042491281765332
-1.7976563612567347,-2.058960100213522,-1.4406110048294067,-0.9129648369601746,0.7923560738563538,1.1870627403259277,-13.050889743831563,233.4147572007119,1079.1085377521144,-1.5707251955277375,0.025859676217802982,-0.017544143560634624,0.7071258116420392,-0.706915124728192,0.015344467670415168,0.0029394305610865104
-1.810082737599508,-2.1072102985777796,-1.4178078174591064,-0.8842980426600953,0.7937342524528503,1.1781212091445923,-14.019692978495922,233.4497653796686,1079.0883301598296,-1.570749191982337,0.023963336911579945,-0.0177375781497053,0.7071200161047223,-0.7069364176071863,0.014742483536179612,0.002200787122945751
-1.8184111754046839,-2.1432253322997035,-1.4043452739715576,-0.8748489183238526,0.798593282699585,1.1666667461395264,-14.702009008260829,233.47442282262958,1079.073099225502,-1.5707632428244487,0.022735049761286354,-0.01779846713945225,0.7071163216280969,-0.7069498700967786,0.014329810182765136,0.0017451067083824098
-1.782175366078512,-2.1816584072508753,-1.4154679775238037,-0.8665551704219361,0.843683123588562,1.1591839790344238,-15.461540258674527,233.48299270809235,1079.0592893838816,-1.5707705277104862,0.021983082337613452,-0.016379235126318784,0.7071131251369664,-0.7069675855480011,0.013562321298009973,0.0019810816419461178
-1.7306402365313929,-2.2062064609923304,-1.4342751502990723,-0.8670278352550049,0.9327089786529541,1.1942014694213867,-16.056594512462116,233.4782254054782,1079.0519288197092,-1.57076930239123,0.02250227511427559,-0.013925942013510238,0.7071098328452686,-0.706979937219533,0.012878648533791554,0.0030320083351750814
-1.6624720732318323,-2.2137323818602503,-1.4682159423828125,-0.8707478207400818,1.0469772815704346,1.252624273300171,-16.355609835461834,233.45614031672844,1079.0533564470759,-1.570756377765153,0.024047752868091434,-0.010741493689966644,0.7071052533469784,-0.706985684259067,0.012299329785364476,0.0047041926698380716
-1.602137867604391,-2.2158247433104457,-1.5022472143173218,-0.8733045619777222,1.136278748512268,1.2978439331054688,-16.49364098378427,233.4328142500709,1079.0569194757786,-1.570741026231977,0.025438864207447093,-0.008129445889189275,0.7070998474693505,-0.7069876335158287,0.011867801839579849,0.00611939899056385
-1.504054371510641,-2.1999556026854457,-1.5663442611694336,-0.8740988534739991,1.2572790384292603,1.376289963722229,-16.298329651184666,233.38422233431675,1079.0710653402648,-1.570704193685849,0.02821707960500039,-0.004304635924548289,0.7070888098091914,-0.7069807258565192,0.011498045524849072,0.008453594449608935
-1.3817184607135218,-2.164018770257467,-1.6290757656097412,-0.8809458178332825,1.4073842763900757,1.4766297340393066,-15.93249760689769,233.32197939230258,1079.0927620441612,-1.5706479313744126,0.03180911696198657,0.0004522248088233629,0.7070672464136635,-0.7069674138852445,0.011086727589115126,0.011404789554125638
-1.2750843206988733,-2.14857878307485,-1.650345802307129,-0.8752090495875855,1.5195940732955933,1.5729608535766602,-16.142240010327143,233.28194378491744,1079.1016021766377,-1.5706217471596433,0.03403050514510455,0.004272866333916276,0.7070388200356519,-0.7069667986438444,0.010521707908073216,0.013540540630421226
-1.1612427870379847,-2.145701070825094,-1.6389433145523071,-0.8668256562999268,1.628324031829834,1.7011337280273438,-16.861152874579595,233.24939522059628,1079.1024873128972,-1.5706176370192944,0.03597221675777666,0.008157971188752954,0.7069978216516821,-0.7069752383925503,0.009834897681057796,0.015600232920574343
-1.0663774649249476,-2.151461263696188,-1.607459545135498,-0.867366687660553,1.68292236328125,1.8256014585494995,-17.70366941627783,233.22691005744255,1079.097651115891,-1.5706304626418264,0.037504104813129484,0.01076649007012076,0.7069594760474407,-0.7069849661081196,0.009454307933021464,0.017063791645949556
-0.9939826170550745,-2.1550198994078578,-1.5954859256744385,-0.8645923298648377,1.718397617340088,1.8849519491195679,-18.224536157602326,233.20644878156463,1079.095203762297,-1.5706365508296614,0.038220495619995624,0.012649107291127847,0.7069345519926181,-0.7069925118765734,0.009042041335123076,0.017982459173974154
-0.9139159361468714,-2.1547662220396937,-1.5993841886520386,-0.8601054710200806,1.759690761566162,1.8754764795303345,-18.592467540912093,233.17924590875015,1079.0959182626311,-1.5706328932976596,0.038049158336044116,0.014767338354514391,0.7069180051355382,-0.7070011067496201,0.008232706217323816,0.018670608408484925
-0.8115294615374964,-2.1547147236266078,-1.6149697303771973,-0.8597371143153687,1.7786238193511963,1.8432910442352295,-18.90805691292585,233.1432014371294,1079.0978094685022,-1.5706228602622123,0.03775372261738381,0.01688504435219012,0.7069042471630073,-0.7070069788022727,0.007379733327520238,0.019314678454462053
-0.7270210425006312,-2.155886312524313,-1.6233075857162476,-0.8627042335322876,1.784706950187683,1.8637733459472656,-19.204484311636527,233.11412878332715,1079.0984492654914,-1.570616751533639,0.038287962892208545,0.018466458724506484,0.7068855792089027,-0.7070085876623741,0.007009646665146997,0.020062395963066956
-0.6686151663409632,-2.17942537883901,-1.6122575998306274,-0.8653088969043274,1.7857072353363037,1.8818644285202026,-19.910713168983936,233.0998456163657,1079.0881554256946,-1.5706340602488202,0.038045747018012256,0.019502685043526438,0.7068714400012177,-0.7070190410333659,0.006557519031143464,0.020343103770588674
-0.6228655020343226,-2.2073542080321253,-1.5967365503311157,-0.8711496156505127,1.7832438945770264,1.886770248413086,-20.6623916610602,233.09015477287147,1079.0754321174059,-1.5706547278867653,0.037475291027936314,0.020257407183439474,0.7068622567316429,-0.7070305344446404,0.006088810931927254,0.020408325570955375
-0.5904558340655726,-2.2387687168517054,-1.5847676992416382,-0.8714941901019593,1.7734794616699219,1.886554479598999,-21.38193060072044,233.0850131061547,1079.061035836387,-1.5706787696571314,0.03672074061242429,0.02065175038084695,0.7068574219735314,-0.7070424114915275,0.00568237696149077,0.02028112287932381
-0.5650323073016565,-2.2659484348692835,-1.5756686925888062,-0.8696757715991517,1.7589110136032104,1.8856874704360962,-21.9760800224439,233.08112259829866,1079.0483000153727,-1.570700160113305,0.03604103098246877,0.020840429107595593,0.706854818176965,-0.707052371299996,0.005375139441960138,0.020107663589826564
-0.5463278929339808,-2.2867685757079066,-1.5680105686187744,-0.8662982744029541,1.7232444286346436,1.8791439533233643,-22.394838779733615,233.07908738986214,1079.038067786335,-1.5707188417372777,0.03537114785565626,0.020543709076083678,0.7068578493815667,-0.7070599639074494,0.0052430090252298155,0.019766108955088214
-0.5330541769610804,-2.2962056599059046,-1.5661709308624268,-0.8630798620036622,1.6492081880569458,1.853622317314148,-22.4925085456112,233.07808655243514,1079.033298306839,-1.5707294570053443,0.03467292619286309,0.019482803000120476,0.7068712088420592,-0.7070627528018879,0.005371108020188222,0.019144422399694907
-0.5257476011859339,-2.299791475335592,-1.5693697929382324,-0.8604238790324708,1.5960766077041626,1.831167459487915,-22.464406716867334,233.0773011821465,1079.0318484767938,-1.5707330918615117,0.034227987321198985,0.01868285755608515,0.7068817032528117,-0.707063072700937,0.005496569387567592,0.018704452787527276
-0.5237615744220179,-2.305112501183981,-1.5742110013961792,-0.8276425761035462,1.574511170387268,1.8151988983154297,-22.535602177105247,233.0781365087551,1079.028661721874,-1.5707499075187616,0.033369010127509396,0.01834054958972046,0.7068868656822173,-0.7070704119654053,0.0053137374486800755,0.018279930070146617
-0.5192082563983362,-2.3172599277892054,-1.5761383771896362,-0.7833056014827271,1.5586767196655273,1.8091470003128052,-22.781515052535987,233.07915805449264,1079.0216183590512,-1.5707762898175393,0.032311549963454755,0.01814278709826268,0.7068888721226293,-0.7070819550377818,0.005009550942761462,0.017836359732226297
-0.5116317907916468,-2.333834310571188,-1.5795385837554932,-0.7395575803569336,1.5512635707855225,1.8089025020599365,-23.111503187980365,233.07916475840642,1079.012788369328,-1.5708032937513554,0.031314169599899695,0.018144778545174333,0.7068881145874042,-0.7070939142315938,0.004655988305706291,0.0174846127954142
-0.503216568623678,-2.346150060693258,-1.5893646478652954,-0.7041126054576416,1.5495578050613403,1.8155852556228638,-23.31709200585698,233.07735303360758,1079.0070124455426,-1.570821198272683,0.03076896282118498,0.018261323103636328,0.7068855157078252,-0.7071017443639613,0.0044218740553864065,0.017333142524180882
-0.4962700049029749,-2.350243707696432,-1.606323003768921,-0.679539219742157,1.5492908954620361,1.827648639678955,-23.307547368576557,233.07420945363893,1079.0063508525454,-1.5708267217402712,0.030775228214725652,0.018377729306204887,0.7068824984062091,-0.70710393902875,0.004382885625244978,0.017376512038311184
-0.4922693411456507,-2.351246496240133,-1.630248785018921,-0.6557988685420533,1.5492427349090576,1.8378349542617798,-23.17569851069679,233.07131104118776,1079.008011709224,-1.570827106819477,0.030938752534638563,0.018446696185454994,0.7068803375524351,-0.7071038670804686,0.004416311471485361,0.017458686508135004
-0.4951737562762659,-2.350060125390524,-1.6558046340942383,-0.6454119843295594,1.5500749349594116,1.837178349494934,-22.94504526609011,233.07055509204275,1079.011429158086,-1.5708193981350131,0.031212643073848887,0.01841076902506427,0.7068809807159453,-0.7071004498411407,0.004525912701026193,0.01754277773736778
-0.5029342810260218,-2.348905225793356,-1.6753535270690918,-0.6316437286189576,1.5532208681106567,1.824887990951538,-22.756611703860063,233.07213572506922,1079.0138036330934,-1.5708161622269199,0.03111914059870164,0.018330334624224693,0.706883647760915,-0.7070993357130864,0.004521321526715011,0.017481293258415857
-0.5064619223224085,-2.3493086300291957,-1.6812458038330078,-0.6251492661288758,1.555688500404358,1.8153557777404785,-22.71372164874684,233.07316773151481,1079.0140689737734,-1.5708166703269633,0.030935228560727678,0.018311821543494,0.7068852338197138,-0.707099886822126,0.004462841631336708,0.017409747509902974
-0.5073168913470667,-2.3498484096922816,-1.678784728050232,-0.624232606296875,1.5565681457519531,1.8116827011108398,-22.743128588772063,233.0737562949877,1079.013473315619,-1.5708185399166064,0.03080277328110287,0.01831219588212377,0.7068857210262353,-0.7071008424782946,0.004415864439006688,0.017363067613808656
-0.5076325575457972,-2.3514419994749964,-1.668260097503662,-0.6235318940928956,1.5576493740081787,1.8105076551437378,-22.860781060731806,233.07488430600728,1079.0113801942152,-1.5708246396834173,0.030558615368717283,0.018325370854763448,0.7068855650060204,-0.7071035607677549,0.004324833463372139,0.017281439500095256
-0.5070622603045862,-2.3609701595702113,-1.648406744003296,-0.6230053466609498,1.5582468509674072,1.81090247631073,-23.18789134807092,233.0775029482519,1079.0045422699593,-1.570838851178745,0.0300437054748365,0.018345321548120592,0.7068847956058696,-0.7071097151624248,0.0041356159963304336,0.017106523448474686
-0.5047205130206507,-2.375366350213522,-1.6277705430984497,-0.6228721898845215,1.5619374513626099,1.8114312887191772,-23.611482523289695,233.08002797178193,1078.995283557041,-1.5708556877882214,0.029439411150434726,0.01845010462398686,0.7068830932545337,-0.7071170879599044,0.0038847845433295043,0.016929998082069082
-0.502807919179098,-2.3871451816954554,-1.6173033714294434,-0.6228242677501221,1.5830755233764648,1.8115668296813965,-23.934342311476776,233.08099636088633,1078.9883943623324,-1.5708672442440543,0.029052844915695198,0.01885207552014607,0.7068788768861419,-0.7071226493633708,0.0036059004624851643,0.016935455452061456
-0.5027087370501917,-2.3917671642699183,-1.6143913269042969,-0.6276897949031373,1.5971657037734985,1.8132400512695312,-24.04969605514954,233.08128381265087,1078.986064548227,-1.570869173912241,0.029035509631579408,0.019099667654659223,0.7068762401901605,-0.707123802839598,0.003512216358145956,0.01701684014561783
-0.5042923132525843,-2.392545362512106,-1.6158844232559204,-0.6318614643863221,1.6012042760849,1.814826250076294,-24.042645203641772,233.0817471354359,1078.9861308549762,-1.570866974163605,0.029148452558664446,0.019142577187775813,0.7068756897468446,-0.7071229018758004,0.003536993364853986,0.017071923313051237
-0.5063541571246546,-2.392916818658346,-1.619031310081482,-0.6348449152759095,1.6024364233016968,1.815055012702942,-24.010136119752875,233.0823391270165,1078.9865722400307,-1.5708642168181228,0.02925291888199665,0.0191281764118933,0.7068758951372098,-0.707121715797994,0.0035790411545719636,0.017103753543694748
