zahirmahammad/RLHF-gello_software/csv/diffstartsamegoal100/output17.csv
shoulder_pan_angle,shoulder_lift_angle,elbow_angle,wrist1_angle,wrist2_angle,wrist3_angle,end_eff_x,end_eff_y,end_eff_z,end_eff_roll,end_eff_pitch,end_eff_yaw,end_eff_w,end_eff_xq,end_eff_yq,end_eff_zq
-1.5286853949176233,-1.7463652096190394,-1.5556634664535522,-1.399806709294655,1.5859571695327759,1.46297025680542,-8.692023448908559,233.17671587493393,1079.2363949863513,-1.57021167832235,0.04662842103532859,0.0010206723542344526,0.7071127310837848,-0.7067162595010766,0.016128300179574995,0.016840190894264886
-1.5669048468219202,-1.9253255329527796,-1.445813536643982,-1.3001802426627656,1.5897235870361328,1.3842964172363281,-12.521383742821564,233.2912854954747,1079.175685971341,-1.570398682271987,0.03847837802078573,0.00041071444061709295,0.7071136593921874,-0.7068381213786062,0.013460872121468742,0.013745828046424593
-1.585672680531637,-2.0495482883849085,-1.3484586477279663,-1.246705786590912,1.591493844985962,1.3391770124435425,-15.363210564463444,233.37607269039796,1079.1205759291931,-1.570531708736868,0.03289217197768954,0.00010904198509059892,0.7071040592328348,-0.7069182393216585,0.01159161130644407,0.01166562806428262
-1.5934527556048792,-2.1217342815794886,-1.2806203365325928,-1.226592795257904,1.5913411378860474,1.3170907497406006,-17.102777712971562,233.42743717823112,1079.082721143939,-1.5706094087601752,0.029712850038348216,-3.192989434662208e-05,0.707094991388754,-0.7069624995510528,0.010516960776948815,0.010492421907339584
-1.5959156195269983,-2.1530467472472132,-1.2495224475860596,-1.2212436956218262,1.590891718864441,1.3087890148162842,-17.868850664659114,233.44981708710208,1079.0650028650257,-1.570642314268437,0.028385789320954532,-8.373911124929887e-05,0.7070904268050335,-0.7069806941033864,0.010065928874201846,0.010005176743513795
-1.596588436757223,-2.168830534020895,-1.2304158210754395,-1.2198991638473053,1.5907654762268066,1.3062766790390015,-18.284583378943534,233.46169710052646,1079.0553293412659,-1.5706598921977486,0.027709765831610677,-9.818462942398253e-05,0.7070876256389241,-0.7069901991971672,0.009831944303859221,0.009761187359358332
-1.5961173216449183,-2.191028734246725,-1.207546591758728,-1.2187774938395997,1.5931804180145264,1.2949432134628296,-18.843859493313857,233.47696065184311,1079.0420431078974,-1.5706821097953731,0.026706113627360077,-4.844306088371711e-05,0.7070843476225329,-0.7070031338202656,0.009459420322513259,0.009424090550437641
-1.5927899519549769,-2.210874696771139,-1.190129280090332,-1.2054853600314637,1.5956709384918213,1.2868280410766602,-19.35167442445218,233.4894889975969,1079.0298215681444,-1.5707065125492343,0.025682456079348152,5.244440644178413e-05,0.7070799945190709,-0.7070169676814383,0.009061738082243647,0.00909800331850502
-1.5910494963275355,-2.237415452996725,-1.1612459421157837,-1.191714034681656,1.5967135429382324,1.2842408418655396,-20.056771936987285,233.50823846360697,1079.012208909714,-1.5707401180077305,0.024430080387486078,0.00010017267360776064,0.7070734666974473,-0.707034589251763,0.008601952938818025,0.00867229494903771
-1.5897496382342737,-2.260540624658102,-1.119168996810913,-1.1795538824847718,1.5968737602233887,1.2904465198516846,-20.814319917254046,233.52865318874757,1078.9932745606286,-1.5707777510001029,0.023188687840226267,0.00012476390928422353,0.7070653082261462,-0.7070531968849717,0.008154224325789525,0.008242287513235755
-1.59009296098818,-2.299567838708395,-1.0765286684036255,-1.1060883861831208,1.5968693494796753,1.3123868703842163,-21.930594098259306,233.55980416075656,1078.9625230561503,-1.5708532206383088,0.02086508837933484,0.00011702525161387727,0.7070477544386722,-0.7070888455424047,0.007335205465004732,0.007418370004688534
-1.5929487387286585,-2.3250371418394984,-1.0471744537353516,-1.0455552500537415,1.5961512327194214,1.3246327638626099,-22.68207837884859,233.58215378228414,1078.9405162698495,-1.5709092838772554,0.019066246504115366,5.3511663531692634e-05,0.7070345340502242,-0.7071147638529057,0.006721533830202024,0.006760131995858112
-1.5937884489642542,-2.343258043328756,-1.0316137075424194,-1.0047857922366639,1.5955098867416382,1.3288922309875488,-23.1732823643051,233.596279765661,1078.9255724498407,-1.5709454699625842,0.017839929075188738,2.6985029644146502e-05,0.7070258355135883,-0.7071314616654787,0.006297272428223103,0.006317293654797526
-1.5851863066302698,-2.350959440270895,-1.0292997360229492,-0.9911644023707886,1.595374584197998,1.3394380807876587,-23.374794647918257,233.59741060991655,1078.9202862040172,-1.5709569437996893,0.01761160914284091,0.0001745274230404384,0.7070220332043433,-0.70713668887982,0.006164356240736801,0.0062887610718249925
-1.565787140523092,-2.3527447185912074,-1.0377655029296875,-0.989393488769867,1.5953388214111328,1.349696397781372,-23.412810455789774,233.58836197168486,1078.9210817430178,-1.5709545550244035,0.017876305489599002,0.0005124964209472811,0.7070209508195012,-0.707136069651821,0.00613844208172964,0.006501817320754472
-1.5103300253497522,-2.350295682946676,-1.0801130533218384,-0.994997577076294,1.5953181982040405,1.3813931941986084,-23.226597827178423,233.5547213969306,1078.9316433983454,-1.5709300633320409,0.019308835713600758,0.0014804203282691088,0.7070212979823468,-0.7071259657954966,0.006302721734304549,0.007350401069578844
-1.4224289099322718,-2.305873533288473,-1.1552897691726685,-1.0319996041110535,1.5963014364242554,1.4230135679244995,-22.16682693584319,233.48355358080028,1078.9708334911702,-1.570853997119275,0.02276739120048565,0.003033275535564978,0.7070275553017573,-0.7070927474694594,0.006976687263668358,0.009121861374565094
-1.3336346785174769,-2.2479077778258265,-1.236738920211792,-1.058305100803711,1.597793698310852,1.4682776927947998,-20.859544463242816,233.40999036523365,1079.0141246937546,-1.5707733797913004,0.026448642839057686,0.00461104205849936,0.7070296267662172,-0.7070565188395278,0.007720730375484175,0.010980726925907191
-1.236607853566305,-2.1944037876524867,-1.3102939128875732,-1.096238062982895,1.5993720293045044,1.5182368755340576,-19.704568079505105,233.34079158602518,1079.051248436459,-1.5706929451861193,0.030199125123774703,0.006334359619416428,0.7070253603080412,-0.7070198964654562,0.008437936155404727,0.012915382948156076
-1.1594646612750452,-2.1742550335326136,-1.3535932302474976,-1.1091860693744202,1.6006656885147095,1.558868169784546,-19.304551767828592,233.29953276819083,1079.0665430174063,-1.5706555908123843,0.03224111531953787,0.007704593257138286,0.7070155003455144,-0.707003818942202,0.00867574667361594,0.014121391290493149
-1.0859387556659144,-2.166570325891012,-1.3946460485458374,-1.1128040117076416,1.6003870964050293,1.5779365301132202,-19.12186159836774,233.26544358969488,1079.0753771961386,-1.5706300753303635,0.03348734041543403,0.00898388957053668,0.7070061237162281,-0.7069949438388898,0.008664309475403711,0.015013998645031149
-1.0275886694537562,-2.1622139416136683,-1.4192277193069458,-1.1135104459575196,1.6000068187713623,1.5873146057128906,-19.076841651811247,233.24079902452226,1079.0803309139146,-1.5706156562875007,0.034168211952893095,0.009996169771366078,0.7069982564935076,-0.7069912736155324,0.008547309801986695,0.01561242587737936
-0.9665387312518519,-2.158531805078024,-1.4393913745880127,-1.1136578482440491,1.6018130779266357,1.630721092224121,-19.096260661167108,233.21638708009178,1079.0843505975458,-1.5706037322106006,0.03534438887728844,0.011093772326826241,0.7069842642143213,-0.7069867239155069,0.008575258476373096,0.016416068427521725
-0.9198997656451624,-2.158112188378805,-1.4559872150421143,-1.1127954882434388,1.6027166843414307,1.6783419847488403,-19.13999492748571,233.19837561593965,1079.0865110477343,-1.5705957256791803,0.03645734157920546,0.011923997029251107,0.7069708102168563,-0.7069826762231223,0.008675345091259739,0.017102847986846473
-0.8701141516314905,-2.163983007470602,-1.4592483043670654,-1.1074035924724122,1.6094614267349243,1.7131414413452148,-19.429639268252,233.18264936757478,1079.0844417807994,-1.5705988032663003,0.03692508341863092,0.012910642838067974,0.7069570979103978,-0.7069859919438559,0.008491922797672703,0.01761692812236
-0.8267453352557581,-2.1828366718687953,-1.4581053256988525,-1.1028590065291901,1.619033694267273,1.7345058917999268,-19.94207152777851,233.17225460904453,1079.0766331990917,-1.5706097389388318,0.03686977615546591,0.013834303345784959,0.706945516746398,-0.7069939292829763,0.008145761677815526,0.01792391909919403
-0.8050263563739222,-2.200101514855856,-1.4605096578598022,-1.1018061798862,1.6218833923339844,1.7385809421539307,-20.29276655787273,233.16822413249608,1079.069864932095,-1.570617278148103,0.036663261099259443,0.014262842479627872,0.7069408576712762,-0.7069991446864813,0.00792119006125646,0.01800244193429239
-0.7816217581378382,-2.210191389123434,-1.4729976654052734,-1.099754498606064,1.6227041482925415,1.7385773658752441,-20.44720279855608,233.16068248118685,1079.067218956218,-1.5706170161837982,0.036669240419229004,0.014685663978182401,0.7069370742925416,-0.7070006876873223,0.007773839114650052,0.018154008531854428
-0.7649357954608362,-2.212679525414938,-1.4864904880523682,-1.081333265905716,1.6221765279769897,1.7405071258544922,-20.4702179605796,233.15414453296302,1079.0671788085842,-1.5706207418262264,0.03657353147977433,0.014967549999507657,0.7069340643454249,-0.7070034595045739,0.007640319022612011,0.018219836493656456
-0.7427728811847132,-2.224779268304342,-1.5005327463150024,-1.0546167653850098,1.6223909854888916,1.7428265810012817,-20.68027097487422,233.14775235143094,1079.0629133498398,-1.5706329708006999,0.036181798743512614,0.015357670840812743,0.7069297562926149,-0.7070107141812397,0.007363796141951278,0.018219336084977476
-0.7233107725726526,-2.236105581323141,-1.5093376636505127,-1.0313189786723633,1.622842788696289,1.7591700553894043,-20.906381681241108,233.14254682808422,1079.058407458012,-1.5706456962899948,0.03601659596126308,0.015704819520732178,0.7069235974434709,-0.7070170751490773,0.007182551043240987,0.01828370273595129
-0.6959832350360315,-2.2464148006834925,-1.5159260034561157,-1.0035949510386963,1.6228879690170288,1.7881724834442139,-21.17424878475805,233.13444987753934,1079.0538211951375,-1.570661245216871,0.03597418674965901,0.016182076258870706,0.7069141087311249,-0.7070244133864969,0.006998698854001625,0.018437460961591587
-0.6667369047748011,-2.251617570916647,-1.5248461961746216,-0.9845606249621888,1.622956395149231,1.8148070573806763,-21.33313878907196,233.12407206967802,1079.0520002699413,-1.5706688148043455,0.03617182446937149,0.016693503261048355,0.7069048515857996,-0.7070281784854597,0.006887709131698452,0.018688100355803407
-0.6350739637957972,-2.2546211681761683,-1.5260049104690552,-0.9779172104648133,1.622994065284729,1.8511193990707397,-21.511689652443636,233.11279661993302,1079.0506117171597,-1.5706730083563822,0.036657505014563045,0.017246710052113503,0.7068935661127401,-0.707029893416819,0.006863819581596919,0.019055287564508503
-0.6035016218768519,-2.2559105358519496,-1.5293227434158325,-0.9761615556529541,1.6229312419891357,1.9161330461502075,-21.635230045406942,233.10085876079822,1079.0504225686968,-1.5706728729479449,0.037796966871492796,0.01779679985743272,0.7068772638325965,-0.7070277935398581,0.007072222102246101,0.019652397137195955
-0.581491772328512,-2.2578913174071253,-1.5414854288101196,-0.9626293939403077,1.6230015754699707,1.9497736692428589,-21.675717912492292,233.09202917508782,1079.0505824085283,-1.5706745224429597,0.0383256567855114,0.018182180920718997,0.7068676248176683,-0.7070278686021366,0.007122890346582436,0.01997544586882743
-0.5694587866412562,-2.2674080334105433,-1.5519037246704102,-0.9471744459918519,1.6221444606781006,1.958972454071045,-21.812868792493646,233.08839062263846,1079.0472555946872,-1.5706817827276793,0.03823230532018123,0.018376977905016197,0.7068640441185446,-0.7070314533968218,0.007020949118485127,0.020011329626732043
-0.5657542387591761,-2.2786246738829554,-1.5564963817596436,-0.9168028396419068,1.6199655532836914,1.9501574039459229,-22.0169995469756,233.08895383777673,1079.0417930418037,-1.5707002064469455,0.03743302131103941,0.018402892569878128,0.7068652165361567,-0.7070408007104709,0.006729013640033681,0.019738089001232514
-0.5648677984820765,-2.29726566890859,-1.5556626319885254,-0.8814682525447388,1.6171969175338745,1.9419728517532349,-22.382616103419416,233.09231823230658,1079.032143435932,-1.5707273892213707,0.0363339563676305,0.018369028112714233,0.7068666746340774,-0.707053890625953,0.006352142438490258,0.01933779534759827
-0.5661285559283655,-2.312619825402731,-1.5545058250427246,-0.8509642642787476,1.615877389907837,1.9336708784103394,-22.683803948322453,233.09590215951954,1079.0239397464923,-1.5707506011102297,0.035368821832778514,0.018323153386015343,0.7068681537672492,-0.7070649388518456,0.006026914865541742,0.01898056198640252
-0.5663169066058558,-2.329177518884176,-1.5487244129180908,-0.823553280239441,1.614672303199768,1.922946810722351,-23.04311796618469,233.09959496419566,1079.0145754020184,-1.5707751179822702,0.034313694439140445,0.018297973042329056,0.7068696356158967,-0.7070766135089627,0.005662549314862092,0.018598828140594797
-0.5627358595477503,-2.340781351129049,-1.5456100702285767,-0.807102696304657,1.6131271123886108,1.9252467155456543,-23.295967661821614,233.1005703164431,1079.0081821496199,-1.5707904612794235,0.03381005405388882,0.018332983461702142,0.7068685497497191,-0.7070835357015128,0.005471970229979615,0.018433243240905815
-0.5482242743121546,-2.343423982659811,-1.564736008644104,-0.7906073492816468,1.6076520681381226,1.943831443786621,-23.252279926072784,233.09394709713135,1079.0089281584292,-1.5707904870166258,0.034134209254166284,0.01849070188007072,0.7068640788815784,-0.7070830869985014,0.005530812997668361,0.018603552756184902
-0.5322201887713831,-2.3445941410460414,-1.5753551721572876,-0.7591634553721924,1.6026127338409424,1.9496716260910034,-23.29090141758809,233.08744243780552,1079.0083763204666,-1.570801247674913,0.03385240710859536,0.018681707216193694,0.7068611183723627,-0.7070881778854383,0.005363555255532966,0.018571491675260406
-0.5208748022662562,-2.347649713555807,-1.5845907926559448,-0.7304578584483643,1.5987539291381836,1.9501910209655762,-23.34989060325055,233.0831300058411,1079.0069082538291,-1.5708122106169125,0.03346847997253797,0.01881200367967194,0.7068595919319874,-0.7070934082057774,0.005181653726162154,0.018481878431156815
-0.5185850302325647,-2.351091047326559,-1.5968884229660034,-0.7040789288333436,1.5964899063110352,1.9344327449798584,-23.35064866545767,233.0822289440597,1079.0057960960437,-1.570820712911737,0.032887736613868505,0.01881217659438163,0.7068619211712823,-0.7070978884978054,0.0049761980399510184,0.01827670465527128
-0.5226114431964319,-2.3525692425169886,-1.6059807538986206,-0.6883316797069092,1.595621943473816,1.9176809787750244,-23.305753341781394,233.0836512361641,1079.0056229954241,-1.5708246540151873,0.032453468200194666,0.01872663259512011,0.7068652541229686,-0.7071001384225511,0.004852874906141667,0.0180929920584017
-0.5287101904498499,-2.3536559544005335,-1.6166380643844604,-0.6824630063823243,1.5947151184082031,1.9074476957321167,-23.215475194695546,233.08557040223982,1079.0063272260772,-1.5708228387942964,0.03233944903164921,0.01860442599096556,0.7068680279711175,-0.70709947701896,0.004855787061687332,0.01800949648791499
-0.5332205931292933,-2.3658029041686,-1.622637152671814,-0.6640935105136414,1.5932762622833252,1.8975086212158203,-23.369384136296922,233.0890699697406,1079.0008414717577,-1.5708347180693778,0.03173823560546458,0.018500216946640842,0.7068701361806035,-0.7071048605679009,0.00467997128886657,0.017760197239902218
-0.532165829335348,-2.377646108666891,-1.6240670680999756,-0.6493092340281983,1.5924882888793945,1.8983770608901978,-23.575189170809818,233.09054952454198,1078.9949895035948,-1.5708469263096287,0.03131378156725137,0.018504487847196747,0.7068695355378686,-0.7071101625063598,0.0045282926940119275,0.017611711273599596
-0.5247452894793909,-2.3811127148070277,-1.6229168176651,-0.6455476445010682,1.5923041105270386,1.9047558307647705,-23.676924925416134,233.08815846770037,1078.9930733076278,-1.5708509857734747,0.03127893692984808,0.018630653304976316,0.7068672953928269,-0.707111959533502,0.00447133155270567,0.01764399566046705
-0.5151589552508753,-2.3819319210448207,-1.6192595958709717,-0.6445558828166504,1.5931580066680908,1.9135059118270874,-23.763630737483734,233.08458144586047,1078.9921277779822,-1.5708536698643265,0.031336254441125554,0.01881277710252755,0.7068642290058723,-0.7071131857986468,0.004427180635276083,0.017728629198132687
-0.5061081091510218,-2.382958551446432,-1.6143125295639038,-0.6443438094905396,1.5936121940612793,1.9342560768127441,-23.860496355953593,233.08133312917892,1078.9909413556961,-1.5708566906045163,0.0315904932919516,0.018978554884034778,0.7068594222874722,-0.7071140567808851,0.004458424471427936,0.017877088060776126
-0.5025604406939905,-2.383541246453756,-1.6126189231872559,-0.6442800325206299,1.5937557220458984,1.9431450366973877,-23.899147364429012,233.08006077554808,1078.9904296876784,-1.5708578327548717,0.03170480878523668,0.019042932820128387,0.7068574184069858,-0.7071143488461326,0.004476067560212148,0.017940248552293533
-0.501892391835348,-2.388284822503561,-1.6122593879699707,-0.6442678731730958,1.5938568115234375,1.948516845703125,-23.981022348457344,233.08047062653083,1078.9882255457567,-1.5708603211347645,0.03170932086948821,0.019056272045780368,0.7068563784658456,-0.7071152480563428,0.004472924233979955,0.017946563380293063
-0.5049122015582483,-2.3976947269835414,-1.6147260665893555,-0.643475667839386,1.593856692314148,1.9516390562057495,-24.099453573874825,233.08288619140544,1078.984258722383,-1.5708640780306513,0.03162885720538852,0.019003441797363126,0.7068562446876939,-0.7071166376299991,0.004463122425503399,0.017899460077621235
-0.5083912054644983,-2.40194096187734,-1.6183971166610718,-0.6414030355266114,1.593815803527832,1.9510164260864258,-24.125241532485145,233.0847054675208,1078.9827468672213,-1.5708653621679776,0.03157179496040794,0.018941968253166366,0.7068568502832812,-0.7071170816695314,0.004464671977657307,0.017857567664615145
-0.509949032460348,-2.403134962121481,-1.623447060585022,-0.6358534258655091,1.5938396453857422,1.9501516819000244,-24.10434978589418,233.08523063348488,1078.9826463072322,-1.5708661856973263,0.031527153742686526,0.01891517023054748,0.7068571965250726,-0.7071174125597817,0.004458357109978343,0.017832319741249845
-0.5106280485736292,-2.403642316857809,-1.6264543533325195,-0.6310223501971741,1.5938234329223633,1.9497814178466797,-24.092264885033348,233.08543397685023,1078.9825980742435,-1.5708673170767253,0.03148002110671047,0.018903001022003388,0.7068573249425307,-0.7071178902828245,0.00444598657317632,0.017811362116583754
