zahirmahammad/RLHF-gello_software/csv/diffstartsamegoal100/output90.csv
shoulder_pan_angle,shoulder_lift_angle,elbow_angle,wrist1_angle,wrist2_angle,wrist3_angle,end_eff_x,end_eff_y,end_eff_z,end_eff_roll,end_eff_pitch,end_eff_yaw,end_eff_w,end_eff_xq,end_eff_yq,end_eff_zq
-1.2995894590960901,-1.6159774265685023,-1.601901888847351,-1.4728921738317986,1.5989924669265747,1.6706022024154663,-7.037153775581813,233.08077512525387,1079.2694020016268,-1.5700848733660968,0.054608738471473496,0.005255359871319088,0.7070414620721351,-0.706640030843742,0.017454810276409518,0.021155786874207463
-1.134059254323141,-1.5679653070731838,-1.5981525182724,-1.3947792959264298,1.6173423528671265,1.6598601341247559,-7.142448799963351,233.04733135215835,1079.2798870987508,-1.5700934349997828,0.05383046464846764,0.008463975117801578,0.7070122115335438,-0.706676442410359,0.016045838910631983,0.022015211521587568
-1.048347298298971,-1.553525560801365,-1.5988389253616333,-1.263466702108719,1.621028184890747,1.6453441381454468,-7.489119045534985,233.03616903961623,1079.2820063039237,-1.5701493427078659,0.0515500447213337,0.010021127401534357,0.707000383729643,-0.7067256755972853,0.01468867456360456,0.021760507743679935
-0.9531939665423792,-1.5637228547460218,-1.598890781402588,-1.1469369691661377,1.6223188638687134,1.635545015335083,-8.243882408458584,233.02946549135748,1079.278607196853,-1.5702115591501637,0.04916899214574046,0.011701150559037966,0.7069859923247576,-0.706776020739095,0.013252398400300892,0.02151364918901301
-0.8595097700702112,-1.5987683735289515,-1.5880779027938843,-1.1076921385577698,1.624899983406067,1.62644624710083,-9.351208545098055,233.02644370802648,1079.2703444310441,-1.5702528330190126,0.04752542900720146,0.013379204200630919,0.7069710410169007,-0.7068116349192619,0.012077777246023842,0.021526430336573164
-0.7815454641925257,-1.6396151981749476,-1.585233211517334,-1.0995176893523713,1.6248619556427002,1.638026475906372,-10.360382632468475,233.0229464934155,1079.2607429073707,-1.570278555643617,0.04682267510338178,0.014738168581387122,0.7069548515034317,-0.7068327980725427,0.011348732906282272,0.021758671055990275
-0.7262867132769983,-1.6753527126707972,-1.6051617860794067,-1.030359761123993,1.6245076656341553,1.6411898136138916,-11.10555185158413,233.01946098860452,1079.2513470778667,-1.5703207800142167,0.04539553415792144,0.015694514296409397,0.7069450347044101,-0.7068607380528017,0.010505644781993912,0.021592737990892855
-0.6581748167621058,-1.6971780262389125,-1.6430916786193848,-0.9744015497020264,1.6244635581970215,1.6594362258911133,-11.503423088940037,233.00748503680668,1079.2458756861383,-1.570340536896845,0.045018697245810695,0.016881776731662204,0.7069292451198378,-0.7068757192504228,0.009952561955358492,0.02187936102856973
-0.618021313344137,-1.7249390087523402,-1.6849397420883179,-0.8914812368205567,1.6254076957702637,1.6897283792495728,-11.897557080604415,233.00180963436247,1079.2382908326608,-1.5703743918836472,0.04434650490765934,0.01759778348331889,0.7069168012702506,-0.706894420081339,0.009461438586131824,0.02189511634099245
-0.5901158491717737,-1.760322710076803,-1.7224717140197754,-0.840846137409546,1.6277271509170532,1.7022651433944702,-12.347085263277057,232.99933416672104,1079.2292033658775,-1.570397860291716,0.043719382648139925,0.018124360244746583,0.7069096073765042,-0.7069080524443782,0.009053315321648867,0.021859777441219107
-0.5775311628924769,-1.7890335522093714,-1.7516967058181763,-0.8077991765788575,1.63043212890625,1.7058683633804321,-12.668921588415715,232.99921118850645,1079.221844521686,-1.570413376129946,0.04321467731732468,0.018390561111773104,0.7069067258942661,-0.7069169714973718,0.008780594754991943,0.02177561595412756
-0.5725649038897913,-1.8389660320677699,-1.7729542255401611,-0.7717541617206116,1.6428147554397583,1.7069554328918457,-13.389735302715213,233.00449900401392,1079.2084580322069,-1.5704428962334809,0.04210445528507859,0.018692086434061738,0.7069050405858631,-0.7069334227541063,0.008281131088546221,0.02149005014785748
-0.5652359167682093,-1.9066029987730921,-1.7799935340881348,-0.7438743275455018,1.6732730865478516,1.7072360515594482,-14.542662705941533,233.0123325082954,1079.1893033423735,-1.5704814936727245,0.04056559892307891,0.01934997094408449,0.7069007970494983,-0.7069557285777371,0.0075040505519591025,0.02117900345196887
-0.5633261839496058,-1.9701553783812464,-1.7771990299224854,-0.7134311360171814,1.6853618621826172,1.7073115110397339,-15.665144409286922,233.02219190434045,1079.1690417806014,-1.570528960104183,0.038878275092564765,0.01959239610245551,0.7068991366014351,-0.7069794115021473,0.0068212453503998976,0.020668647659996868
-0.5630300680743616,-2.026311059991354,-1.7728724479675293,-0.694140152340271,1.6888972520828247,1.707326889038086,-16.6415872390522,233.03151370358023,1079.150037887016,-1.570569475856168,0.03748682633889041,0.019657719784895163,0.7068983649325395,-0.7069985090154725,0.006305748840040549,0.020200184087458904
-0.5629518667804163,-2.088569303552145,-1.7644203901290894,-0.6632441443255921,1.6900137662887573,1.708121418952942,-17.766158104205584,233.0424803132027,1079.1270277031015,-1.5706216728513662,0.03572809617645176,0.01967666346897742,0.7068972187514618,-0.7070222796867991,0.005676687901766541,0.019585539624823813
-0.5620377699481409,-2.1472507915892542,-1.751739501953125,-0.6447367829135437,1.6913045644760132,1.7105776071548462,-18.851930887836104,233.05274529741814,1079.1040790119214,-1.5706678695335061,0.0342031215463155,0.019713537383255157,0.7068952651311923,-0.7070428228500465,0.00512402098959552,0.019059779648191152
-0.5608952681170862,-2.174434324304098,-1.7504582405090332,-0.6425375503352662,1.718804955482483,1.7432161569595337,-19.354052340309448,233.05581701454733,1079.0939097134367,-1.570681843181029,0.034237762202114407,0.020213037252594965,0.7068852096006646,-0.7070489336681841,0.0049595502535825205,0.019248602749035067
-0.5567243734942835,-2.190895219842428,-1.751304268836975,-0.6434331697276612,1.738471508026123,1.7673263549804688,-19.65969735777582,233.05618125782922,1079.0879024608028,-1.5706883312264086,0.034401743973066036,0.02062890101968081,0.7068773055501666,-0.7070518459833921,0.004870447293195181,0.01945355321729706
-0.5501568953143519,-2.214799543420309,-1.7509369850158691,-0.6457438629916687,1.7441107034683228,1.7751957178115845,-20.07773317905436,233.05738597091835,1079.0787786718374,-1.5706996544126206,0.03415596697195919,0.020841573086401218,0.7068736244638574,-0.7070569456167607,0.0047082540840957966,0.01944188869184406
-0.5366428534137171,-2.2342688045897425,-1.7455034255981445,-0.6461432737163086,1.7428810596466064,1.782886028289795,-20.48795746422514,233.05603638114744,1079.0705799091659,-1.5707127380624708,0.03386272298833675,0.021055543582910535,0.7068697691218531,-0.707062740883065,0.004528802152833849,0.01941391015757219
-0.5239432493792933,-2.26279415706777,-1.7309927940368652,-0.6431729358485718,1.7347854375839233,1.803020715713501,-21.111585827263493,233.05714711141678,1079.057382720482,-1.5707374491163117,0.03341155764201351,0.02113509257008822,0.7068646280665406,-0.7070726511117564,0.004340926254889664,0.019282634607161273
-0.5207870642291468,-2.286178251306051,-1.7169475555419922,-0.6434322756579895,1.6975971460342407,1.8115873336791992,-21.553970890617066,233.06182441128988,1079.0461021092858,-1.5707579406829897,0.03291265711757387,0.02054044892718831,0.7068678211289826,-0.7070796846661911,0.004374570932593827,0.018896193105490136
-0.5208771864520472,-2.3105250797667445,-1.701295256614685,-0.6456352037242432,1.6714398860931396,1.8139418363571167,-22.028130288397136,233.0675090697624,1079.03413212356,-1.570777783967702,0.032294380890014344,0.02008170019899049,0.7068708790938083,-0.7070870444816066,0.004317979498955832,0.01851558447523959
-0.521364990864889,-2.329456945458883,-1.6884933710098267,-0.6478130978396912,1.6602543592453003,1.8136820793151855,-22.415644304651885,233.0718062343009,1079.0245960890913,-1.570792861436102,0.03177422041778024,0.019877479177799477,0.7068722083573377,-0.7070930466220008,0.00420614003613477,0.01825959629438606
-0.5214813391314905,-2.3397065601744593,-1.6801029443740845,-0.6485613149455567,1.657641887664795,1.8133081197738647,-22.645305402834857,233.07407787242994,1079.019149599068,-1.5708019045485018,0.03145555318736608,0.0198295664437836,0.706872346116248,-0.7070968057184104,0.0041103333207053415,0.018130052369605017
-0.5208585898028772,-2.352424284020895,-1.6695412397384644,-0.6480417412570496,1.6568684577941895,1.813981533050537,-22.941491791504344,233.07654019622356,1079.0122086159422,-1.5708139176119136,0.031052109102834395,0.0198265610437689,0.7068717687728059,-0.7071018603945112,0.00396865154131699,0.017986421088409955
-0.5202778021441858,-2.361307760278219,-1.6578608751296997,-0.6475815337947388,1.655932903289795,1.8144866228103638,-23.18539302689095,233.07854801229686,1079.006711803229,-1.5708245160816374,0.030694138662685704,0.01982004184148749,0.7068712878412597,-0.707106292814305,0.0038443031625742955,0.01785761521713617
-0.5207541624652308,-2.3713933430113734,-1.6470153331756592,-0.6474017661860962,1.6442972421646118,1.8139010667800903,-23.41796920472854,233.08145477099234,1079.0007618190668,-1.570834895195402,0.03031561020960054,0.019608331097694408,0.7068728575903243,-0.7071102794648457,0.0037852364041173966,0.017649018743311366
-0.5254190603839319,-2.377040525475973,-1.645073652267456,-0.6473462146571656,1.6268112659454346,1.8134092092514038,-23.475693921520858,233.0849316533964,1078.9980111581774,-1.5708382744343636,0.030173647536366418,0.01922162387176274,0.7068763033888398,-0.7071110053632969,0.0038717395008752353,0.01746217153373982
-0.5298402945147913,-2.3786102734007777,-1.6472445726394653,-0.6473377507976075,1.618325114250183,1.8132092952728271,-23.44944605918468,233.08708378393163,1078.9976330103714,-1.5708377634027841,0.030180492776182757,0.018996363216174508,0.7068783868558015,-0.7071103706536673,0.003953806131789627,0.017384974180170522
