zahirmahammad/RLHF-gello_software/csv/diffstartsamegoal100/output60.csv
shoulder_pan_angle,shoulder_lift_angle,elbow_angle,wrist1_angle,wrist2_angle,wrist3_angle,end_eff_x,end_eff_y,end_eff_z,end_eff_roll,end_eff_pitch,end_eff_yaw,end_eff_w,end_eff_xq,end_eff_yq,end_eff_zq
-1.4824913183795374,-1.5997773609557093,-1.4882251024246216,-1.5924526653685511,1.522026777267456,1.6002178192138672,-6.667834467501841,233.11539550691202,1079.268670973096,-1.570108891983873,0.05376653007110717,0.0007180986641077498,0.7070873276543393,-0.7066150624547936,0.018759872862736334,0.019254395675454204
-1.5345452467547815,-1.5748888454832972,-1.3399791717529297,-1.780663629571432,1.484436273574829,1.5912221670150757,-6.937491222445721,233.13596958644396,1079.269482877193,-1.5700964743890584,0.05474149889461329,-0.0008456984729463904,0.7070973463709723,-0.7065862957606122,0.019657177772046418,0.019045859404717123
-1.5620115439044397,-1.5638443751125415,-1.2374004125595093,-1.9095365009703578,1.4660454988479614,1.5849413871765137,-7.273268395403628,233.1522957515528,1079.2676812572877,-1.5700884301219378,0.05528356919621585,-0.001645570467387172,0.707102633668039,-0.7065701068139594,0.020131482647352244,0.018954498754974854
-1.571127716694967,-1.5609188762358208,-1.152980923652649,-2.0218173466124476,1.4620985984802246,1.5756773948669434,-7.711680354746785,233.1666677458855,1079.2643790496554,-1.5700765944848138,0.05565908739730228,-0.0018729963351714913,0.7071054068412767,-0.7065598236270253,0.020344699285994666,0.019006642600469005
-1.5739195982562464,-1.560938100596406,-1.0797594785690308,-2.115337987939352,1.460343599319458,1.5705466270446777,-8.163266004222482,233.17984146457783,1079.2602973305818,-1.5700684166147436,0.05592339770067575,-0.0019519507709216525,0.7071065294280563,-0.7065534319104219,0.020466112740106287,0.019072024672896
-1.5757554213153284,-1.5628737493282934,-1.019484043121338,-2.181760450402731,1.458554983139038,1.5685023069381714,-8.585374208701191,233.19199945417853,1079.2559868930814,-1.570067433332076,0.0559612188396484,-0.0020151674105167387,0.7071071186312046,-0.7065520497028442,0.020501826110676313,0.019063026200282503
-1.604910675679342,-1.5989800892271937,-0.8973290324211121,-2.2668758831419886,1.457563042640686,1.5517610311508179,-9.94271555992702,233.23773698083727,1079.237103297321,-1.570100500643848,0.05439281806235901,-0.0025433599178162816,0.7071150434666832,-0.7065742977222127,0.020133635739581345,0.01832249473676296
-1.6208670775042933,-1.6479646168150843,-0.7514809966087341,-2.370622297326559,1.4609158039093018,1.530731201171875,-11.738131880421525,233.29299138198502,1079.2085371603582,-1.570139545676671,0.052436502269711374,-0.0027656879691881713,0.7071208021929581,-0.70660528039055,0.019520208871520898,0.017553070266817666
-1.6092489401446741,-1.672509332696432,-0.6540934443473816,-2.4467221699156703,1.4746992588043213,1.5241988897323608,-12.905256071164645,233.32145266467907,1079.189901678662,-1.5701539892157768,0.051522672531584116,-0.0023232480798130546,0.7071198224773664,-0.7066234566090108,0.019040693085830472,0.017386754623051868
-1.5434697310077112,-1.6794411144652308,-0.6037412285804749,-2.4954291782774867,1.506340742111206,1.5283583402633667,-13.686315192475806,233.31887983356054,1079.1825820809252,-1.570144151992256,0.0514452653468551,-0.0006225536300808588,0.7071089538552794,-0.7066366270557333,0.018412532249966786,0.01796060514383636
-1.405989948903219,-1.682139059106344,-0.5950687527656555,-2.5240985355772914,1.539072871208191,1.5567994117736816,-14.37068989088698,233.286913272195,1079.1819925410564,-1.5701218384854836,0.05224309335559992,0.002349512271946288,0.7070817223296804,-0.7066483423582425,0.017644722599874183,0.019293054553758966
-1.2922561804400843,-1.6999265156187953,-0.595916748046875,-2.5150820217528285,1.557502269744873,1.568973183631897,-15.158692782513564,233.26439182264676,1079.1765815721828,-1.5701260984284877,0.052002498011180474,0.0046560160741839635,0.7070599124407672,-0.706671745101652,0.016744656838536924,0.020023520209995344
-1.1848881880389612,-1.7259155712523402,-0.5973687171936035,-2.484232088128561,1.572809100151062,1.582262396812439,-16.0793228716199,233.244850153546,1079.1678868851104,-1.5701460989303475,0.051267937647107804,0.006796138464591374,0.7070386024538284,-0.7067021483894794,0.01572853215288531,0.02052075481426552
-1.0989659468280237,-1.7600089512267054,-0.598015308380127,-2.448825021783346,1.6009650230407715,1.5878430604934692,-17.079440075789165,233.23159497084325,1079.1561959396893,-1.570168106615955,0.05016375978998178,0.008785993986588468,0.7070216743905686,-0.7067334073977275,0.01463475076816226,0.020834271763326466
-1.041839901600973,-1.7894255123534144,-0.5990231037139893,-2.426480909387106,1.6142449378967285,1.5889288187026978,-17.835834872086366,233.22332918585454,1079.145424250648,-1.5701879018255656,0.04929711099605743,0.010013781337334611,0.7070109095484524,-0.7067553376035653,0.013894239002926592,0.02096226778928435
-0.9625175634967249,-1.8319126568236292,-0.6196540594100952,-2.382561822930807,1.6198124885559082,1.5882229804992676,-18.74736599363605,233.20802995034336,1079.131710344031,-1.5702183196353185,0.04813719695328511,0.011493879406439887,0.7069967999865964,-0.7067838074930676,0.01296073590883632,0.021075900906398916
-0.901748005543844,-1.8485976658263148,-0.6976595520973206,-2.285415311852926,1.6342277526855469,1.598118782043457,-18.78618591434812,233.18402119805793,1079.1363813568414,-1.57023103876492,0.04768473781122311,0.012805540690033129,0.706983187227338,-0.7067994579941462,0.012337076686150857,0.02137979644186387
-0.8514516989337366,-1.8502847156920375,-0.8180822134017944,-2.162609716454977,1.6425235271453857,1.6055060625076294,-18.2123533878014,233.15545761200974,1079.1516835919736,-1.570230206454114,0.047742582744370786,0.01382824969264246,0.7069718269774923,-0.7068050336898676,0.01199611317470092,0.021761743484196586
-0.79541522661318,-1.8412438831725062,-1.0292843580245972,-1.9358145199217738,1.6452548503875732,1.6133836507797241,-16.88224453430925,233.11576549964883,1079.1780958601562,-1.5702325511533737,0.04776573498854153,0.014853897655098017,0.706959489204211,-0.7068117868726821,0.01164180585729625,0.02213248558902067
-0.7563365141498011,-1.8342443905272425,-1.2059681415557861,-1.7337366543211878,1.6458215713500977,1.6160963773727417,-15.765215382772238,233.08732322304544,1079.1952870797986,-1.5702415938111578,0.04749216190493381,0.015545435049133699,0.7069516535896414,-0.7068205170352049,0.011300573545290826,0.022280332639003857
-0.7288697401629847,-1.8321849308409632,-1.3251420259475708,-1.5883738003172816,1.6449503898620605,1.6167068481445312,-15.072414380660375,233.06954708913216,1079.2035656889825,-1.5702539985085469,0.04708185946331886,0.01600903794838793,0.7069466768382248,-0.7068297695638505,0.010991506624803606,0.02229932168972143
-0.7060526053058069,-1.8376475773253382,-1.420916199684143,-1.4574969795397301,1.6444851160049438,1.6185308694839478,-14.657392728473898,233.05729111482367,1079.2065203104644,-1.5702745053569165,0.04640599310920472,0.01639821160726124,0.7069426205678385,-0.7068427670473817,0.010614746956724794,0.02219822165226078
-0.6866472403155726,-1.877139230767721,-1.521447777748108,-1.2766630810550232,1.643542766571045,1.6214228868484497,-14.818167681176314,233.0533413374839,1079.197408976048,-1.5703348697090582,0.04436653886301773,0.01671774043614613,0.7069401196511558,-0.706876120808371,0.009779996972200024,0.021590940640520785
-0.6729086081134241,-1.9222947559752406,-1.5830869674682617,-1.1576643747142334,1.6406302452087402,1.6233198642730713,-15.269335347193854,233.0545691997616,1079.1845143840958,-1.5703869894342175,0.04261118004492151,0.016904446039169203,0.706938418914177,-0.7069036984268511,0.009092758517354624,0.021036985433001105
-0.6591666380511683,-1.955008169213766,-1.6172107458114624,-1.0862871271422883,1.6390070915222168,1.630253791809082,-15.677035727793855,233.05502856591326,1079.1745085064392,-1.5704223676820366,0.04151155910731779,0.017114521665812635,0.7069352029739403,-0.7069220016576193,0.008629316291206415,0.020722868260090403
-0.6428411642657679,-1.991099020043844,-1.6444554328918457,-1.0142164391330262,1.6384758949279785,1.645447850227356,-16.211432394587884,233.05582955488856,1079.1626359886768,-1.5704629170044093,0.04036506133454479,0.01738861866756682,0.706929844000569,-0.7069422811538031,0.0081266238860737,0.020414817231674178
-0.6183031241046351,-2.0321198902525843,-1.6666953563690186,-0.934914307003357,1.6210970878601074,1.6798202991485596,-16.88436606175398,233.05590966178235,1079.147823782726,-1.570514929912871,0.03925388725564605,0.017511702628808228,0.7069214596345403,-0.7069655426798113,0.0076896950006736485,0.020065890521171588
-0.5966694990741175,-2.0639363727965296,-1.6725614070892334,-0.8982537549785157,1.6077979803085327,1.7081592082977295,-17.471676732935848,233.05536923157206,1079.135956526985,-1.5705479264250828,0.038656222207138914,0.01765602347072669,0.7069143266522884,-0.706980008108562,0.007427027401225318,0.019905832626161975
-0.5858419577227991,-2.0904232464232386,-1.6704827547073364,-0.8852867645076294,1.6021387577056885,1.7232986688613892,-17.97001584689207,233.0569841852702,1079.1259585793093,-1.570569085836817,0.03819588449523077,0.01774548111924631,0.7069105265570892,-0.7069895008734025,0.0072324303350055925,0.019774859013538613
-0.5730050245868128,-2.1187015972533167,-1.663637638092041,-0.8792810005000611,1.600504994392395,1.7348225116729736,-18.540984404703654,233.0582197146659,1079.1149553376683,-1.570589385196933,0.037679459655870794,0.01794028788279521,0.7069065220338466,-0.7069992018830338,0.006980772215372828,0.019661293498678956
-0.5549371878253382,-2.1554752788939417,-1.6597363948822021,-0.8560967606357117,1.6000797748565674,1.7554289102554321,-19.275848429095785,233.05878789924435,1079.1001289414644,-1.5706205881737634,0.03692499279695711,0.018247114911609873,0.7068998750707067,-0.7070138339005729,0.006605244826792126,0.01950323150173297
-0.5407078901873987,-2.186582704583639,-1.6594047546386719,-0.8283929389766236,1.6000032424926758,1.766902208328247,-19.882274959605112,233.0591741754989,1079.0871894424492,-1.570649442055218,0.03609340435085956,0.018493106368402987,0.7068953555919374,-0.7070274870982463,0.006223981900744627,0.019296392911287583
-0.5273545424090784,-2.2086717091002406,-1.6595678329467773,-0.8021339935115357,1.5999391078948975,1.78575599193573,-20.334127649627195,233.05819625651168,1079.077563086443,-1.5706729460085573,0.03558180842058647,0.01872424919951812,0.7068897456933121,-0.70703805641209,0.00596116095299643,0.019197363849009164
-0.5152114073382776,-2.2414728603758753,-1.657057762145996,-0.7688198846629639,1.599922776222229,1.8043895959854126,-20.98771838199331,233.05931541806024,1079.0628507278345,-1.5707064121528813,0.034709755274640944,0.018934760559025442,0.7068842261988013,-0.7070530069132336,0.005578097600400765,0.018963675630978793
-0.5108488241778772,-2.2643572292723597,-1.6541084051132202,-0.746549980049469,1.5999600887298584,1.810836672782898,-21.435666493219287,233.06155068263539,1079.0522339626589,-1.5707298672458467,0.03398303857638653,0.019010756575698885,0.7068820669216477,-0.7070634781900793,0.005294074144865315,0.018733767727689053
-0.5105441252337855,-2.2863060436644496,-1.649425983428955,-0.7264806789210816,1.5999197959899902,1.812570571899414,-21.86305164940071,233.0652359872465,1079.0416796941172,-1.5707526403495262,0.0331985405305848,0.01901460817877856,0.7068812743525594,-0.707073558548913,0.00501513851969621,0.01845792936131063
-0.5113633314715784,-2.3029781780638636,-1.6470417976379395,-0.7101081174663086,1.5992423295974731,1.8129867315292358,-22.17418549835482,233.06838811017505,1079.033613290689,-1.5707699260635772,0.03258769464437234,0.018987918098165277,0.7068810111277718,-0.7070811024517525,0.004808450733011475,0.018232648303015447
-0.5121176878558558,-2.3125249348082484,-1.646216630935669,-0.6967141789248963,1.5986566543579102,1.8131358623504639,-22.353197365236458,233.0703359489003,1079.0288195914336,-1.570781514037342,0.03217566665421303,0.018964155017920554,0.7068808703499571,-0.7070861181753025,0.004671074660974631,0.01807865256541819
-0.5131209532367151,-2.3143955669798792,-1.6467900276184082,-0.6909451645663758,1.598513126373291,1.8131368160247803,-22.383905059655334,233.07104584949886,1079.0278190889892,-1.570784957550777,0.032052402006813065,0.018944029132239557,0.7068809472595479,-0.7070875751810869,0.004634578976321771,0.0180279811317649
-0.5154011885272425,-2.3173114262022914,-1.6473097801208496,-0.6883632701686402,1.5984282493591309,1.8131523132324219,-22.421154059685502,233.07235912857402,1079.0265153647222,-1.5707873829439687,0.03196582379972474,0.018902672516757674,0.7068812415355588,-0.7070885370159868,0.004618569006820976,0.017982769699570453
-0.5156367460833948,-2.3327394924559535,-1.6421844959259033,-0.6726675194552918,1.5983796119689941,1.8123042583465576,-22.738202515038157,233.07531566125718,1079.0184449092967,-1.570805039247768,0.03131860245891342,0.018897153786141395,0.7068808306131232,-0.7070962229209019,0.004391539729020685,0.01775210470630692
-0.5156052748309534,-2.344049116174215,-1.6370491981506348,-0.6627724331668396,1.5984259843826294,1.811833143234253,-22.980615760399047,233.07748130892566,1079.012347112185,-1.570817868984186,0.030850838974623547,0.018898113794081624,0.7068804187719776,-0.7071017673064789,0.004225711925749253,0.017587142676637038
-0.5154145399676722,-2.354525705377096,-1.6334344148635864,-0.6552046102336426,1.5984001159667969,1.8116811513900757,-23.193122985221283,233.07931077942342,1079.0068731235292,-1.5708284177818064,0.030470309015912318,0.01890066794619724,0.7068800003374849,-0.7071062921857766,0.004090182963475176,0.017453569190446334
-0.5161955992328089,-2.363610406915182,-1.6325278282165527,-0.6447660487941285,1.5976290702819824,1.8100521564483643,-23.359863779999657,233.0811951946071,1079.0021968372064,-1.570838347641242,0.030085447715011,0.018873279060061254,0.7068800721685901,-0.707110521681044,0.003963715834841659,0.017307878427790586
-0.5174506346331995,-2.3688546619811,-1.633617877960205,-0.6375814837268372,1.5955896377563477,1.8104900121688843,-23.438240536080865,233.08255957532654,1078.99965174009,-1.5708438066642605,0.029895266093980518,0.018815615758010988,0.7068802814902093,-0.7071127122708936,0.003916819098992731,0.017220287842218344
-0.5197427908526819,-2.370695730248922,-1.6378297805786133,-0.6323939126781006,1.594420075416565,1.8119969367980957,-23.429201454053945,233.0835562346626,1078.9991537275068,-1.5708451403257728,0.029872423624201516,0.018755156287145962,0.7068805265920095,-0.7071131098554851,0.003930107748082216,0.017190847814941904
-0.5218685309039515,-2.3713065586485804,-1.64461350440979,-0.6281744998744507,1.593894600868225,1.8128373622894287,-23.378518974610614,233.08406786093724,1078.9996064277336,-1.5708441755419937,0.029921172882124942,0.01870891200806819,0.7068808461702525,-0.7071125813765248,0.003963700783395947,0.017191732104566884
-0.5203226248370569,-2.3714739284911097,-1.6513079404830933,-0.6247294110110779,1.5938396453857422,1.8138976097106934,-23.335916708763396,233.0829956446821,1079.0002774273698,-1.5708426771832782,0.02999344748833131,0.0187349780150301,0.7068805297537157,-0.7071119599994176,0.0039800498066995945,0.01722648787258547
-0.5151389280902308,-2.3706919155516566,-1.6552685499191284,-0.6232097309878846,1.593815803527832,1.8276350498199463,-23.313099315523672,233.08048982902523,1079.001089187903,-1.5708411116380845,0.030289440225158216,0.01882507073248083,0.7068777446688232,-0.7071109930633194,0.0040528557107647,0.017362947373984146
