zahirmahammad/RLHF-gello_software/csv/samestartgoal200/output167.csv
shoulder_pan_angle,shoulder_lift_angle,elbow_angle,wrist1_angle,wrist2_angle,wrist3_angle,end_eff_x,end_eff_y,end_eff_z,end_eff_roll,end_eff_pitch,end_eff_yaw,end_eff_w,end_eff_xq,end_eff_yq,end_eff_zq
-1.3908675352679651,-1.6131812534727992,-1.5857619047164917,-1.5020199132016678,1.4337390661239624,1.562626838684082,-6.421770471739712,233.0933687146769,1079.2626257933507,-1.570151539757517,0.05300155349086899,0.0007741245528758266,0.7070790452614999,-0.7066377766338696,0.018469213838311224,0.019004329144224938
-1.2331979910479944,-1.6644884548582972,-1.5602694749832153,-1.4893531513265152,1.4726744890213013,1.5550180673599243,-8.19245969201419,233.09740708521062,1079.2527678161084,-1.5701742627138853,0.051307345117826246,0.004204048591957902,0.707054266345727,-0.7066907988637516,0.016658093474421713,0.019618541368196657
-1.0979183355914515,-1.7033478222289027,-1.5343046188354492,-1.485015147631504,1.4858769178390503,1.5592502355575562,-9.61782535801351,233.09359138657334,1079.2435138099684,-1.5702000550199804,0.0501743645019622,0.0067942226491187144,0.7070306761809939,-0.7067296954642623,0.015341997068921705,0.020134140507473888
-0.9559381643878382,-1.722570081750387,-1.5196093320846558,-1.4836650651744385,1.4900654554367065,1.5785061120986938,-10.638704486953625,233.07625026607417,1079.2384618111166,-1.5702144049321047,0.049895071523735325,0.00934480915707834,0.7070022852665055,-0.706755766979426,0.014341793035018237,0.020937226220363276
-0.8058636824237269,-1.7254482708373011,-1.5261672735214233,-1.485613302593567,1.493129849433899,1.5886348485946655,-11.240843936688625,233.04732918744398,1079.238062448098,-1.5702106383333172,0.05017001369224396,0.012017864785790321,0.7069719857787863,-0.706771125846521,0.013494440602425621,0.0219792417173177
-0.7022631804095667,-1.7313691578307093,-1.5240412950515747,-1.4844473761371155,1.4920397996902466,1.588510274887085,-11.775329043460896,233.02805872506252,1079.2364414900749,-1.5702152615391993,0.05000711166503248,0.013806781715987142,0.7069522496534205,-0.7067855917487087,0.012804603793638333,0.0225540712086177
-0.6505120436297815,-1.7594968281187953,-1.520280361175537,-1.4738938224366684,1.491225242614746,1.5839771032333374,-12.48505752292163,233.0230333140303,1079.2289035046497,-1.5702348983367456,0.04918749706895257,0.014694777481932573,0.7069445414344856,-0.70680320241821,0.012200752023720802,0.02257853045269902
-0.6418498198138636,-1.824592729608053,-1.540277123451233,-1.4431897562793274,1.4901599884033203,1.5838923454284668,-13.441656103658834,233.03151325467903,1079.2116822267558,-1.5702697726816395,0.04786346082842783,0.01482568123196073,0.7069455648321321,-0.7068242099026967,0.011685921680414182,0.022157253757757768
-0.6460359732257288,-1.9046551189818324,-1.61658775806427,-1.312215046291687,1.491484522819519,1.588286280632019,-14.280629276972535,233.04208698859722,1079.1906480350078,-1.5703306169816107,0.045589514664183005,0.014772928377985167,0.7069493662562556,-0.706858246329318,0.01089984584132623,0.021335569051589072
-0.6515391508685511,-1.9870692692198695,-1.6931211948394775,-1.1609319311431427,1.510120153427124,1.6216646432876587,-15.21535447849771,233.05349326471904,1079.167579110986,-1.5703971915249253,0.043429852134419834,0.014999378363130358,0.706946134335492,-0.706894269319222,0.010055473724470262,0.020652907783755163
-0.6544340292560022,-2.0499144993224085,-1.7551178932189941,-1.038654701118805,1.5189547538757324,1.6402544975280762,-15.904880502055835,233.0618664179884,1079.1487009774462,-1.5704518954990605,0.04160605051323289,0.015100826240450557,0.7069443261575544,-0.7069229505107533,0.00937418973884771,0.020044608291322024
-0.6529114882098597,-2.0959416828551234,-1.7790863513946533,-0.9681615394404908,1.5146331787109375,1.6594862937927246,-16.556793036505507,233.06900113945005,1079.1331565096687,-1.5704956217441033,0.04032696430217913,0.015050296815569712,0.7069420419781712,-0.7069440272157934,0.008939356837537365,0.019574972975217722
-0.6467393080340784,-2.118037839929098,-1.7871559858322144,-0.9458037179759522,1.464415431022644,1.6899607181549072,-16.81772828389477,233.0721476147947,1079.1246791605563,-1.5705218315744054,0.040224283369099174,0.014280707617916777,0.7069412477545034,-0.7069502712149792,0.009174826342133797,0.019266780062191485
-0.6401265303241175,-2.129965921441549,-1.7903752326965332,-0.9429723185351868,1.2366031408309937,1.711606502532959,-16.61676873666149,233.07699338911223,1079.116582778031,-1.5705688746856348,0.040401711527149484,0.010418471315676532,0.7069589165369706,-0.7069469269427486,0.010602322262152845,0.01796450883620091
-0.6377738157855433,-2.1335979900755824,-1.7926656007766724,-0.9431607288173218,0.9823613166809082,1.6887273788452148,-16.222530074089462,233.0803739428061,1079.1108594878585,-1.5706159813657314,0.03998317488560872,0.006020448408169889,0.70698347989616,-0.7069410828675461,0.012008526465112891,0.016262220024159443
-0.6371071974383753,-2.1332508526244105,-1.7915151119232178,-0.9376289409450074,0.7481647729873657,1.620854139328003,-15.832102408365964,233.081961709294,1079.1066154880457,-1.570660424947518,0.03868865280376633,0.001942870773256955,0.70700890286913,-0.7069393976807555,0.012991840971217573,0.014363541998349529
-0.6368206183062952,-2.1308099232115687,-1.7865321636199951,-0.9175175589374085,0.4819575548171997,1.5525150299072266,-15.409257741406664,233.08213748104905,1079.1024433620632,-1.5707121123741514,0.03710106679340033,-0.0027001675975580086,0.7070319508337408,-0.706936995927986,0.014071444656714184,0.01216136233414517
-0.6366937796222132,-2.124051710168356,-1.7698285579681396,-0.901206449871399,0.19729040563106537,1.5065765380859375,-14.978620534614771,233.0802454386369,1079.099228037885,-1.5707634335803076,0.03584132390848908,-0.007668013846137223,0.7070482520463087,-0.7069278346723157,0.015381824363471457,0.009960186896937473
-0.6373112837420862,-2.1002875767149867,-1.72433340549469,-1.0029456180385132,0.00023414134921040386,1.5726919174194336,-14.466978553586813,233.07533398159504,1079.1000810528883,-1.5707962820435677,0.03839171720720104,-0.011119092250974452,0.7070410551166213,-0.7068901082841336,0.017502926922930727,0.009642029804522511
-0.6406047979937952,-2.0706387958922328,-1.6677050590515137,-1.1479893785766144,-0.06705123582948858,1.6600301265716553,-14.096117564843558,233.07210014974402,1079.1028489769835,-1.570811557521602,0.04197665654157139,-0.012351467967268642,0.7070238255037153,-0.7068512992962458,0.01920545074348131,0.010473849103389058
-0.6446765104876917,-2.049352308312887,-1.620590329170227,-1.2443519693664093,-0.08056623140443975,1.7013025283813477,-13.952349024586868,233.0716396924985,1079.1050920968623,-1.5708163615491537,0.043928047288783516,-0.012658611067450245,0.7070132782411132,-0.7068308586204026,0.02000362505881311,0.011055165182166628
-0.6497324148761194,-1.9929591617979945,-1.5464670658111572,-1.3920716506293793,-0.08374387422670537,1.7814878225326538,-13.403448867306906,233.0668705085603,1079.115032962472,-1.5708204746243886,0.047596287016649426,-0.012802526103057866,0.7069912467333834,-0.706792899733286,0.021350810939562953,0.012301089431928926
-0.6530144850360315,-1.9260951481261195,-1.4881036281585693,-1.4852362808636208,-0.08095056215395147,1.7815178632736206,-12.664254417247623,233.05937191219436,1079.1291952852444,-1.5708221808094711,0.04937120329396905,-0.012811146596760052,0.7069795048587281,-0.7067741815744547,0.021981071751709727,0.012925496281137297
-0.6543882528888147,-1.8708182773985804,-1.4326790571212769,-1.5829760036864222,-0.06441146532167608,1.7729668617248535,-12.10887488175352,233.05343239821184,1079.1398573773934,-1.5708188171280304,0.050925267898602765,-0.012546342168809076,0.7069686467029682,-0.7067586757967358,0.022436683673172742,0.013568418875023892
-0.6556318441974085,-1.8321815929808558,-1.3931593894958496,-1.6640998325743617,-0.053110901509420216,1.7716585397720337,-11.703489115975021,233.0491341915872,1079.1464464507671,-1.570816172345899,0.05230290376661122,-0.01237072008592511,0.706958830811176,-0.7067441284655398,0.022861454147489205,0.014117447780739697
-0.665316406880514,-1.8089343510069789,-1.3775010108947754,-1.701829572717184,-0.04885274568666631,1.771619200706482,-11.368380633145097,233.04768165664117,1079.1506932809652,-1.5708152571897553,0.053093177141206316,-0.012465398150359375,0.7069542016034547,-0.7067336200455252,0.023174170044598458,0.014363320483556267
