zahirmahammad/RLHF-gello_software/csv/samestartgoal200/output94.csv
shoulder_pan_angle,shoulder_lift_angle,elbow_angle,wrist1_angle,wrist2_angle,wrist3_angle,end_eff_x,end_eff_y,end_eff_z,end_eff_roll,end_eff_pitch,end_eff_yaw,end_eff_w,end_eff_xq,end_eff_yq,end_eff_zq
-1.513024632130758,-1.649923940698141,-1.4258325099945068,-1.74693026165151,1.4908167123794556,1.5482763051986694,-7.558162492927534,233.1471404407593,1079.2544490435682,-1.5701039272158908,0.053592065611888215,-0.00035969766050654174,0.7071010000268013,-0.7066047607579378,0.019079029199837297,0.018811658090310827
-1.4919174353228968,-1.6671534977354945,-1.3815836906433105,-1.8066398106017054,1.5261536836624146,1.5386497974395752,-8.256925068028307,233.15868478464486,1079.2505101566217,-1.570088349701751,0.05339275857295045,0.0006259367493413429,0.7070990542455635,-0.7066104317829566,0.01866048315337175,0.0190895664962828
-1.4522517363177698,-1.6740018330016078,-1.3606657981872559,-1.833825250665182,1.550419807434082,1.5358608961105347,-8.702278743579235,233.15897836659087,1079.249154710317,-1.5700773722887447,0.05333364801750524,0.0017421592070271824,0.7070927443786391,-0.7066173944869063,0.01824532070907878,0.019463219873470376
-1.3543618361102503,-1.676687856713766,-1.3487340211868286,-1.8425075016417445,1.5674527883529663,1.5347718000411987,-9.260488103973094,233.146744197946,1079.24878899664,-1.5700723172753142,0.0532108688419506,0.0037480930742497588,0.7070758916112972,-0.706634625734483,0.01749323736429227,0.020128980642160708
-1.2326119581805628,-1.6777054272093714,-1.3421183824539185,-1.8447557888426722,1.575409173965454,1.5397803783416748,-9.83886704601722,233.12794591703565,1079.2486209098213,-1.570071230029541,0.05320423522381713,0.006011967162991584,0.7070531075037174,-0.7066536452191559,0.016691026261202363,0.02092698043588328
-1.1245949904071253,-1.6788116894164027,-1.3398891687393188,-1.8444649181761683,1.5886118412017822,1.5441817045211792,-10.338635595413313,233.10953250366384,1079.2488417062273,-1.5700669109199634,0.05321761780326563,0.008127854675626303,0.7070319532226441,-0.7066692744583967,0.015948196035229845,0.02167968408067973
-1.0280707518206995,-1.67950501064443,-1.3393138647079468,-1.8439952335753382,1.5960172414779663,1.544951319694519,-10.76104818406113,233.09196005551175,1079.2489729312133,-1.5700643581668206,0.05320062822139572,0.009941870064214089,0.707013090435541,-0.7066826763711846,0.015301256068214399,0.022314937427206187
-0.9363563696490687,-1.6830765209593714,-1.3468588590621948,-1.8361717663206996,1.5978119373321533,1.5456420183181763,-11.143250426502954,233.07449783864897,1079.2484270846926,-1.5700654130745182,0.05314549154941797,0.011573853334441352,0.706994904624816,-0.7066957049066573,0.01470509515126266,0.022872378049123378
-0.8770101706134241,-1.6858979664244593,-1.3544256687164307,-1.8125597439207972,1.5983389616012573,1.5445061922073364,-11.406852666927529,233.0631449572465,1079.2479645895237,-1.5700743799293935,0.052796504006617576,0.012618345961050645,0.7069837413044362,-0.7067089457560192,0.01421251461148293,0.023118389823180863
-0.8327325026141565,-1.6860815487303675,-1.360262155532837,-1.7978736362852992,1.598376750946045,1.548453688621521,-11.565417633405282,233.05394532472454,1079.24811535479,-1.5700787685372835,0.05270780265640394,0.01339161450073865,0.7069742365414201,-0.706716556069684,0.013907858496669756,0.02336043055505998
-0.7834461371051233,-1.686049600640768,-1.3668303489685059,-1.7919289074339808,1.5975137948989868,1.570436716079712,-11.717837148760143,233.04329517448903,1079.2483405661476,-1.5700788215899935,0.053102924220841646,0.014237039512945925,0.7069595900162722,-0.7067196916428015,0.013748839247577051,0.023798843410392848
-0.7556102911578577,-1.6906177006163539,-1.373810052871704,-1.7913853130736292,1.5946030616760254,1.5755574703216553,-11.840106127081203,233.03783515130223,1079.247310606349,-1.570079215682084,0.05322492488873583,0.014672124675103275,0.7069527937405904,-0.7067219756085726,0.013638233793602898,0.02399573281400931
-0.7265270392047327,-1.7001639805235804,-1.398144006729126,-1.7819634876646937,1.593777060508728,1.5756044387817383,-11.917178677478727,233.0313124058769,1079.2457439416798,-1.5700769758561894,0.053319370393107385,0.015165431382222391,0.7069465024548681,-0.7067238905362099,0.013497342571925409,0.024203449251881993
-0.7117241064654749,-1.7092634640135707,-1.4403233528137207,-1.740610738793844,1.5937072038650513,1.5794596672058105,-11.832707182662745,233.0264318244609,1079.24483203866,-1.5700810304273876,0.053242324547405497,0.015422404742323585,0.7069428897949175,-0.7067275673692054,0.013379243928197226,0.024267095432421584
-0.7030509153949183,-1.7284466228880824,-1.5117753744125366,-1.649503847161764,1.5937714576721191,1.5812485218048096,-11.720155352729606,233.02282086220745,1079.2419186173581,-1.5700998991981205,0.05259595642735827,0.015573925517445445,0.7069422078668144,-0.7067395126772474,0.01309690716818352,0.0240924672822986
-0.7002595106707972,-1.7604714832701625,-1.6116231679916382,-1.531795696621277,1.593815803527832,1.5814967155456543,-11.591614717922859,233.02053760685655,1079.2358915468217,-1.570124152787795,0.0517299638947715,0.015622156862975852,0.7069434330474191,-0.7067539913309238,0.012773344975077552,0.0238037784203559
-0.6982319990741175,-1.787722726861471,-1.6842113733291626,-1.4275361460498353,1.5937919616699219,1.5925695896148682,-11.594093337571941,233.02005813886277,1079.229889728656,-1.5701528237941151,0.05089522765732101,0.015655784039955392,0.7069427827987909,-0.7067695984376293,0.012465948680375885,0.023520984173965868
-0.6899426619159144,-1.8208185635008753,-1.7646512985229492,-1.316259728079178,1.592990756034851,1.6118870973587036,-11.658993724829056,233.01879261872887,1079.2219994981447,-1.5701842229492422,0.05011699305652274,0.015785106364437106,0.7069392840650647,-0.7067862752824391,0.012144687953545171,0.02329197871501794
-0.6816309134112757,-1.8663646183409632,-1.839063286781311,-1.1895636779120942,1.592472791671753,1.6200655698776245,-12.002247646005403,233.0208054715178,1079.2101280286486,-1.5702319653368717,0.0485529427364478,0.01591886502365314,0.7069388939629123,-0.7068131947954408,0.011543807363423149,0.02278702212033506
-0.6734507719623011,-1.8940822086729945,-1.8714368343353271,-1.1306134027293702,1.5883914232254028,1.617202639579773,-12.296533265952569,233.02235458059414,1079.2025082371727,-1.5702597299749692,0.04755576537469813,0.01598905490595721,0.7069395705510658,-0.7068290624884145,0.011166080454587167,0.022459711888293404
-0.6558344999896448,-1.9225007496275843,-1.8979580402374268,-1.1065708559802552,1.5751793384552002,1.6387674808502197,-12.614023391927926,233.02201105824375,1079.194662680096,-1.5702766509876103,0.04747970096302194,0.01606535938638947,0.7069335879180988,-0.7068358917012433,0.011112026596575505,0.022459905188338514
-0.6350963751422327,-1.943371435204977,-1.922322154045105,-1.0998216432384034,1.5082927942276,1.6962716579437256,-12.718596721878232,233.02078294707678,1079.187213461079,-1.5703001872436364,0.04842712716479181,0.015259506018807904,0.7069236754200998,-0.7068342035341397,0.011731571800580242,0.022509910437038913
-0.6241963545428675,-1.9508840046324671,-1.9495571851730347,-1.072718397980072,1.443643569946289,1.7366396188735962,-12.584116752630289,233.01930593640415,1079.1831490745044,-1.5703246838416471,0.04900345047097704,0.014320751703865596,0.7069190837752053,-0.7068337753808535,0.012266849630459901,0.022381853708241868
-0.6127012411700647,-1.9631415806212367,-1.9834463596343994,-1.0122730892947693,1.3235141038894653,1.7550753355026245,-12.432448490508058,233.01969717882267,1079.175797851878,-1.5703795935670442,0.04864891565200668,0.012422540627653939,0.706924440701013,-0.7068435037814678,0.01281175545396789,0.021585996008661294
-0.6043027083026331,-1.977835317651266,-1.9838248491287231,-0.9788003724864502,1.224096655845642,1.7545307874679565,-12.583899354906098,233.0229515559006,1079.1686484804518,-1.5704287432286017,0.0478062404021506,0.010831856435058409,0.7069328123983014,-0.7068560319670779,0.013075483738034266,0.020726325081926483
-0.5990727583514612,-2.008148809472555,-1.959917426109314,-0.9616439503482361,1.1361671686172485,1.7364972829818726,-13.172406358882572,233.03088132581834,1079.1576626818112,-1.5704798938532052,0.046246515690692644,0.009386175401647214,0.7069450853066566,-0.7068748511828244,0.013034471944168222,0.0196645281448753
-0.588696304951803,-2.033640523950094,-1.9361754655838013,-0.9565597337535401,1.0279291868209839,1.7027599811553955,-13.64696890776752,233.03648780547846,1079.1473354785276,-1.5705270780918037,0.04471038445419483,0.007676077916871856,0.7069593983158128,-0.7068903889638889,0.01309534941991122,0.01851753080181299
-0.575540844594137,-2.0451117954649867,-1.9263502359390259,-0.9603636425784607,0.9267892241477966,1.6898908615112305,-13.785926440608764,233.0372057360287,1079.141356598476,-1.5705585157831097,0.04418096430937259,0.0061391993483958,0.7069670418728443,-0.7068948142817768,0.013451099105135199,0.01778738822750634
-0.5637195746051233,-2.0552193127074183,-1.918143391609192,-0.9730086487582703,0.7846657633781433,1.6857068538665771,-13.79712309130346,233.03768351147767,1079.1347755529014,-1.5705963394554763,0.04400954440404993,0.003863579612678674,0.7069749076846474,-0.706893641122088,0.014194481052624715,0.016922669797863603
-0.5554755369769495,-2.066348215142721,-1.904690146446228,-1.0052460593036194,0.5795255899429321,1.6870938539505005,-13.711520746134465,233.03878628979174,1079.1261055205343,-1.5706472677282057,0.044167976989688565,0.0004252378858445717,0.706983709164659,-0.7068849740549381,0.015465335655884068,0.015763623447082573
-0.5511587301837366,-2.076776166955465,-1.8883323669433594,-1.0221821826747437,0.36116018891334534,1.6907870769500732,-13.627303928656293,233.03988972987332,1079.1173036994755,-1.5707045172361962,0.044060992087920615,-0.003312723540352321,0.7069924740905605,-0.7068759696498053,0.016748232869707336,0.014404923002155316
-0.5497859160052698,-2.0881382427611292,-1.8708281517028809,-1.0240131181529541,0.17181815207004547,1.6942212581634521,-13.632628354320948,233.04109160607004,1079.1092847364494,-1.5707540661305832,0.04364929978301259,-0.0065952351116982865,0.7070003636573258,-0.7068687163692555,0.017762533955989025,0.013099465422394804
-0.5499809424029749,-2.1037994823851527,-1.8490521907806396,-1.021213249569275,0.030014529824256897,1.697495937347412,-13.827707034445666,233.0434524289595,1079.1014343333723,-1.5707893127605888,0.04300424588052409,-0.009074871230919048,0.7070075097338651,-0.7068645853285276,0.018410709751470095,0.011995205487804554
-0.5520852247821253,-2.1128794155516566,-1.8216185569763184,-1.018541769390442,-0.041242424641744435,1.7030409574508667,-14.080702319495972,233.0464683168173,1079.0970464290938,-1.570805471721503,0.04241711519458192,-0.010355850821785254,0.7070126944671579,-0.706863867959908,0.018655844212014407,0.011334968539179563
-0.5565398375140589,-2.109480997125143,-1.7825244665145874,-1.0279511970332642,-0.07367355028261358,1.7069828510284424,-14.271087016281074,233.0495311683788,1079.0965701079188,-1.5708120721967354,0.04202712587493137,-0.010999863910473228,0.7070161273220732,-0.7068638260892877,0.018745589232169686,0.010969501230684452
-0.5614011923419397,-2.07704557994985,-1.7279216051101685,-1.0902045232108613,-0.08586770692934209,1.7075459957122803,-14.071683527866739,233.04895154483245,1079.103221317535,-1.5708157282572177,0.04273658081420377,-0.011297676978666371,0.7070125625467629,-0.7068555879073596,0.01910156323097665,0.011115058584349953
-0.5658682028399866,-2.0352055035033167,-1.6696186065673828,-1.1725961428931733,-0.08927566209901983,1.7044165134429932,-13.735431051386355,233.04689729321993,1079.1118485318657,-1.5708182937128792,0.04383263131457781,-0.011435225521496836,0.7070062479653938,-0.7068445783939056,0.019537525548640584,0.011453926334407803
-0.5820334593402308,-1.9925257168211878,-1.6123548746109009,-1.2718937557986756,-0.0895455519305628,1.7021825313568115,-13.30527848842869,233.04706070093556,1079.1199021373704,-1.5708206743961235,0.04527217148209058,-0.011722177549834685,0.7069986886761862,-0.7068282907261905,0.02014767371955057,0.011861403076175687
-0.5973365942584437,-1.9395796261229457,-1.535812497138977,-1.4148153078607102,-0.08912736574281865,1.7014503479003906,-12.805193783976332,233.04604237138304,1079.1285119495597,-1.5708238058509216,0.047342008884432824,-0.011982114542420758,0.7069865590517922,-0.7068054480472811,0.0209709977016189,0.012501247385262326
-0.6065033117877405,-1.9007564983763636,-1.4676517248153687,-1.5275222596577187,-0.08902627626527959,1.7012271881103516,-12.536057179462933,233.04563400581452,1079.1338071960124,-1.5708260397992575,0.04879318120687038,-0.012140447125980872,0.7069775412419197,-0.7067891321422582,0.02153976569717172,0.012958293052482573
