zahirmahammad/RLHF-gello_software/csv/samestartgoal200/output126.csv
shoulder_pan_angle,shoulder_lift_angle,elbow_angle,wrist1_angle,wrist2_angle,wrist3_angle,end_eff_x,end_eff_y,end_eff_z,end_eff_roll,end_eff_pitch,end_eff_yaw,end_eff_w,end_eff_xq,end_eff_yq,end_eff_zq
-1.4750893751727503,-1.6256691418089808,-1.5809189081192017,-1.6653148136534632,1.3824915885925293,1.5429463386535645,-5.947249413365028,233.1013504606017,1079.2569014712,-1.570112972886737,0.055205439707247915,-0.0015880777244589885,0.7070941591040116,-0.7065801468788314,0.02008331723639997,0.018947468603006484
-1.4943912664996546,-1.6276089153685511,-1.5787054300308228,-1.6637493572630824,1.4119752645492554,1.5383771657943726,-5.972702458874695,233.10480323180786,1079.2579548808267,-1.5701008713829085,0.05502555744319009,-0.0014099654043810872,0.7070984524517084,-0.7065794507855756,0.019956912180753388,0.01894676553301489
-1.4530628363238733,-1.6369801960387171,-1.5755091905593872,-1.6499411068358363,1.4193317890167236,1.5345758199691772,-6.354983433110446,233.10555025186775,1079.2563997950376,-1.5701086838922025,0.05449891948666959,-0.0005607762390113709,0.7070926310657637,-0.7065957707928477,0.019470638011898904,0.0190610085138949
-1.32851487794985,-1.641949316064352,-1.5795786380767822,-1.6361133060851039,1.4271109104156494,1.5327914953231812,-6.943823015409189,233.09275411339092,1079.2557830739036,-1.5701113353399658,0.05421072057986564,0.0017485499112604753,0.7070720727156092,-0.7066213979963039,0.01855282548277112,0.019775655387552982
-1.1632850805865687,-1.643740793267721,-1.5737897157669067,-1.6232649288573207,1.432431697845459,1.5367289781570435,-7.725943281478327,233.07376221080085,1079.2556786567611,-1.570117715373046,0.05392294114747938,0.004724886589726743,0.7070425973563912,-0.7066529896159268,0.017399418359725676,0.020726264283366495
-1.0537741819964808,-1.653168340722555,-1.562739372253418,-1.622145792047018,1.4543629884719849,1.5469105243682861,-8.457145136225256,233.06286501642322,1079.2545630001973,-1.570116912419343,0.053723563410843014,0.007019010550761924,0.7070207862539739,-0.7066738478338378,0.01651834565547854,0.02146683137625794
-0.9075000921832483,-1.6568204365172328,-1.5575112104415894,-1.622751375237936,1.4936308860778809,1.557997465133667,-9.22260800696752,233.0414592096145,1079.2555130426642,-1.570102339001852,0.05377222409488367,0.0102580011655828,0.7069896925386127,-0.7066941469898665,0.015391240326990149,0.022628896915664908
-0.7645652929889124,-1.6600247822203578,-1.553767204284668,-1.6228820286192835,1.5152602195739746,1.5604302883148193,-9.924707699526483,233.01835095087765,1079.2557405132786,-1.5700954445090982,0.05369547149042201,0.013130454133536393,0.7069598066205716,-0.7067136369206366,0.014349193405205863,0.023617109518968595
-0.6982148329364222,-1.6740809879698695,-1.5486758947372437,-1.6169353924193324,1.5174200534820557,1.5561468601226807,-10.477245547334908,233.01004741208277,1079.2525330784915,-1.5701060753589153,0.053182863501939445,0.014325551587979017,0.7069479521877906,-0.7067293848165246,0.013745505117002645,0.023858554512470646
-0.6321356932269495,-1.7043401203551234,-1.54134202003479,-1.6110779247679652,1.5192592144012451,1.5310699939727783,-11.306448975186392,233.00390828664013,1079.2452896623918,-1.5701254092348815,0.05198708084456184,0.01550962533210413,0.7069412652557723,-0.70675206460699,0.012904016108707245,0.02385483222726292
-0.5990398565875452,-1.725553651849264,-1.532534122467041,-1.6123510799803675,1.5191453695297241,1.5270991325378418,-11.853644411832388,233.00165775624785,1079.2398642252058,-1.570138794690463,0.05141620225442715,0.016084532590188758,0.7069364894698003,-0.7067640679871066,0.012498825754811371,0.02385647528833142
-0.5877183119403284,-1.7481290302672328,-1.5382660627365112,-1.6106106243529261,1.5178310871124268,1.559786319732666,-12.212408598623313,233.00257940772983,1079.2342671716478,-1.5701479553502535,0.051662480134226696,0.016259099299189846,0.7069282156605358,-0.7067668592888633,0.012524114454536724,0.02400523007797961
-0.5849998633014124,-1.7906485996642054,-1.5742011070251465,-1.576395174066061,1.5150996446609497,1.5947359800338745,-12.650032119060638,233.0064808709857,1079.2240805882554,-1.5701679729039917,0.05156065304911533,0.01625824254090284,0.7069223737031216,-0.7067745653412861,0.01248816996886204,0.023969083324333146
-0.5854490439044397,-1.8838960132994593,-1.6458338499069214,-1.408004419212677,1.5132254362106323,1.600121021270752,-13.81490278456004,233.01858787498145,1079.1998192313843,-1.5702565058198563,0.04833959849566148,0.016213334109156385,0.7069292969153563,-0.7068247759295149,0.011364019911330675,0.022815879259983678
-0.5858724753009241,-1.9414168796935023,-1.6952288150787354,-1.2863663595965882,1.5126043558120728,1.6000667810440063,-14.51999325902602,233.0259461668392,1079.1837230202852,-1.5703166212706823,0.046074639641644266,0.016192268641210192,0.706933674658023,-0.7068583160806136,0.01056989962739345,0.022008585689473326
-0.5859220663653772,-2.0087114773192347,-1.740936279296875,-1.160415695314743,1.5115184783935547,1.6009920835494995,-15.421301804185056,233.03522795425565,1079.1633882384083,-1.570384998873374,0.04351667505799892,0.016169398847563767,0.7069373253196387,-0.7068953023328359,0.009672760055812586,0.02109709275199713
-0.5889385382281702,-2.0676619015135707,-1.7527753114700317,-1.087987170820572,1.511121153831482,1.6013610363006592,-16.375838463029705,233.04599580147197,1079.1437301105996,-1.5704402042537602,0.04143747854684834,0.016107475798228417,0.7069399973077879,-0.7069242037551065,0.008958890996263567,0.02034081177806786
-0.5917299429522913,-2.1045919857420863,-1.7551865577697754,-1.0551881951144715,1.5102553367614746,1.5998401641845703,-16.99015232086594,233.05329492197856,1079.1307961256098,-1.5704714142000182,0.04023643070833123,0.016042363295864823,0.706941703227362,-0.7069402056397381,0.008556917884695155,0.019893542780400182
-0.5931227842914026,-2.1269012890257777,-1.7544410228729248,-1.041915850048401,1.4520564079284668,1.598771333694458,-17.26972453300428,233.05927594710337,1079.1216053474332,-1.570500018393485,0.03958427445844859,0.015001216706959423,0.7069481829168532,-0.7069486368341342,0.008694063328966831,0.019295201780517243
-0.5920293966876429,-2.141773839990133,-1.7520700693130493,-1.0401607912829895,1.3453055620193481,1.6008565425872803,-17.34996021328994,233.06425933179707,1079.114149614134,-1.570529591589041,0.03928970377792206,0.0131561140111762,0.706957968126919,-0.7069521369385033,0.009241828931563476,0.018539039293928236
-0.5893023649798792,-2.15952267269277,-1.7464971542358398,-1.0392062228969117,1.1537086963653564,1.602418065071106,-17.36146656849629,233.07070076394086,1079.1039315226542,-1.5705761147014587,0.03889416992887858,0.009858109411424884,0.7069745557550181,-0.7069544250270267,0.0102673346197842,0.01723369633904548
-0.5880659262286585,-2.167494913140768,-1.744584560394287,-1.0386800926974793,1.015136957168579,1.6020559072494507,-17.270499438814678,233.0738998887656,1079.0984491178974,-1.5706057842109198,0.03870667242701672,0.0074601460748934,0.7069857563723226,-0.7069531331464762,0.011048420796314136,0.016319933178262545
-0.5876734892474573,-2.1689001522459925,-1.7435834407806396,-1.0418936771205445,0.7912672162055969,1.6023149490356445,-16.908442455997005,233.07618630768187,1079.0937552868804,-1.5706476070078652,0.03872594311609284,0.0035583392059554938,0.7070013224980385,-0.7069448982095172,0.012434096430468016,0.014947713120001819
-0.5875538031207483,-2.169056077996725,-1.7409141063690186,-1.0439347189715882,0.5544518828392029,1.602754831314087,-16.519144652103993,233.07698830633345,1079.0891392800404,-1.570692247660063,0.038720456465353666,-0.0005742673739745122,0.707014957866906,-0.7069335155151159,0.013892590831866196,0.013485173854087248
-0.5867841879474085,-2.166893621484274,-1.7344942092895508,-1.0430169266513367,0.319745272397995,1.608142375946045,-16.13641642098566,233.07592725124692,1079.0851885703835,-1.5707368094756413,0.03872449939228578,-0.004658721011738938,0.7070252482858083,-0.7069193918525551,0.01533744024479549,0.012043032672133143
-0.5862558523761194,-2.1634704075255335,-1.7220515012741089,-1.0403295320323487,0.1473386436700821,1.6129968166351318,-15.895617493185396,233.07451416000197,1079.082645863773,-1.5707694270142116,0.0386050330462219,-0.007659652713848085,0.7070316486296778,-0.7069080918999132,0.01635572491058454,0.010940187615985584
-0.5860570112811487,-2.1620260677733363,-1.7110099792480469,-1.037406639461853,0.06322569400072098,1.6341031789779663,-15.826989589560403,233.0740174181656,1079.081211507381,-1.5707850248324833,0.038754920373595285,-0.009124747813767967,0.7070331770009632,-0.7069001684603113,0.0169264613187189,0.010475369107289604
-0.5867579619037073,-2.1598478756346644,-1.686994194984436,-1.0417498511127015,0.027097603306174278,1.6851733922958374,-15.925104795906243,233.07529455266845,1079.0802653548708,-1.5707916273383156,0.03934093432831584,-0.009767754429943357,0.7070311415413538,-0.7068919676319579,0.017360823345733085,0.010455276223384682
-0.5898245016681116,-2.1386600933470667,-1.6580911874771118,-1.069979266529419,0.015057721175253391,1.710763692855835,-15.751772708698192,233.0744982620521,1079.0851607639506,-1.570793621129106,0.04014561024741087,-0.010031478064963895,0.7070275830549971,-0.706883297474257,0.017738433105529278,0.010646527240875996
-0.5932377020465296,-2.092379709283346,-1.6159273386001587,-1.148563877945282,-0.002060715352193654,1.7176389694213867,-15.193026972992394,233.06979791514775,1079.0961729858147,-1.5707967490568773,0.04170901411164048,-0.010389932547985205,0.7070199349238194,-0.7068670315131256,0.018417673772569164,0.011072518816760652
-0.5945799986468714,-2.0513960323729457,-1.5803858041763306,-1.21412147701297,-0.010690037404195607,1.7191658020019531,-14.708001403421907,233.0651753069085,1079.10574694869,-1.570798748809605,0.04297484140723143,-0.010564043354252208,0.7070130788045642,-0.7068542950780662,0.01892657969496516,0.011458468921782056
-0.5958450476275843,-2.0002242527403773,-1.5176936388015747,-1.3377629977515717,-0.013832871113912404,1.7195284366607666,-14.201857478065277,233.06028852722028,1079.1156694611398,-1.5707999340240524,0.04493805333336463,-0.010641022210857474,0.7070015388712854,-0.7068350393375074,0.019647619664819538,0.012125272775713241
-0.5972426573382776,-1.9598266086974085,-1.4562609195709229,-1.4541630458882828,-0.014962498341695607,1.7195450067520142,-13.87281086163149,233.05726359363064,1079.122096259366,-1.5708006639734213,0.0466027751742383,-0.010685161774759507,0.7069912238609978,-0.7068182517945765,0.020251547221286286,0.012698155327893352
-0.6013248602496546,-1.9299284420409144,-1.4038200378417969,-1.5566261273673554,-0.015226189290181935,1.7195765972137451,-13.6493679845843,233.05608042473273,1079.1257875979354,-1.5708011117566019,0.04799819999555259,-0.010761032419884032,0.7069825338450353,-0.70680332078314,0.020771505852395636,0.013164615930712545
-0.6035164038287562,-1.9164296589293421,-1.353284239768982,-1.640872140923971,-0.015302006398336232,1.7195765972137451,-13.7116249718169,233.05735200263533,1079.125202480134,-1.5708013560532834,0.0488221524218394,-0.010800616927203062,0.7069772302313112,-0.7067943727498076,0.0210766762573301,0.013441886088392429
-0.6050627867328089,-1.908785959283346,-1.3121718168258667,-1.7035309276976527,-0.01447612444032842,1.7195849418640137,-13.828400510455143,233.0590220234169,1079.123822044995,-1.5708012135847587,0.04933176083421384,-0.010813187671551327,0.7069739182120571,-0.7067887953810722,0.021261212245689578,0.013617582219629453
