zahirmahammad/RLHF-gello_software/csv/samestartgoal200/output19.csv
shoulder_pan_angle,shoulder_lift_angle,elbow_angle,wrist1_angle,wrist2_angle,wrist3_angle,end_eff_x,end_eff_y,end_eff_z,end_eff_roll,end_eff_pitch,end_eff_yaw,end_eff_w,end_eff_xq,end_eff_yq,end_eff_zq
-1.4318974653827112,-1.5883757076659144,-1.5185450315475464,-1.6865245304503382,1.3906289339065552,1.538684606552124,-6.039036211965332,233.09436052110323,1079.2649145978096,-1.5701105981903245,0.05506342420204888,-0.0006921898683408786,0.707087806812817,-0.7065896335107161,0.019716622109021645,0.019214007506040964
-1.4268677870379847,-1.5879622898497523,-1.5161725282669067,-1.689739843408102,1.3924503326416016,1.5397729873657227,-6.070818977842359,233.09403455984312,1079.2650636668313,-1.5701091652822445,0.05510431703734759,-0.0005725367699716923,0.7070867681328998,-0.7065899030810913,0.01968882021808634,0.019270743463718525
-1.4165423552142542,-1.587776323358053,-1.515704870223999,-1.6902862987914027,1.3935704231262207,1.5432915687561035,-6.114860185025414,233.09293970336586,1079.2651526097677,-1.5701084976217703,0.055170334049695256,-0.00037270356642821336,0.7070844357571063,-0.7065909832336948,0.0196415660865085,0.019364710288677357
-1.3816331068622034,-1.5868641338744105,-1.5180317163467407,-1.6912156544127406,1.3934239149093628,1.5453559160232544,-6.220443210758334,233.08829819826812,1079.2653311532488,-1.5701067946405507,0.05527909604357843,0.00023414050231054982,0.707078062676734,-0.7065952515402788,0.019465638471054297,0.019617662984184856
-1.326318089162008,-1.5845662556090296,-1.5221840143203735,-1.6926189861693324,1.3938260078430176,1.568387508392334,-6.3713285949859655,233.08045058230462,1079.2658172683402,-1.5701032370335755,0.055818097148718396,0.0012070596867071524,0.7070642838161643,-0.7065982041397056,0.019312502982192902,0.02015201445614163
-1.2725313345538538,-1.5776192150511683,-1.5274674892425537,-1.6932569942870082,1.3942652940750122,1.5830488204956055,-6.433303626370463,233.07086447909836,1079.26724755429,-1.5700975285589185,0.05629851139377363,0.0021539771558154916,0.7070517356026408,-0.7066006749116748,0.01914786391991533,0.020656444586701295
-1.207404915486471,-1.572942396203512,-1.5282524824142456,-1.6942464313902796,1.3943521976470947,1.5884578227996826,-6.615099722208832,233.06164573493157,1079.2681867581157,-1.5700947337390128,0.056505477327624974,0.0032923872725753463,0.7070386663545216,-0.7066085293659198,0.018818862952000373,0.02113198769982138
-1.1373675505267542,-1.566354922750481,-1.5281000137329102,-1.7039147816100062,1.3968819379806519,1.6073750257492065,-6.783481391775918,233.05096530556622,1079.2695552327073,-1.570086576824013,0.057116586564091916,0.004559599480273088,0.7070213861678275,-0.7066117859767271,0.018587298374379144,0.021795773884985513
-1.045267407094137,-1.5522287872484704,-1.524764060974121,-1.739175935784811,1.3965433835983276,1.6528563499450684,-6.898784232375923,233.0350433154064,1079.2720205309836,-1.5700670689680474,0.05871389750743635,0.006162843256304611,0.70699248359522,-0.7066049578708544,0.018585826514553747,0.022926593836881233
-0.9739096800433558,-1.5468998712352295,-1.5260833501815796,-1.7516175709166468,1.3968403339385986,1.6695735454559326,-7.071290895589237,233.02425694746276,1079.2729348326886,-1.5700587543908815,0.05933874505004038,0.007414155072649971,0.7069735989990245,-0.7066078111235214,0.01836475331166764,0.02358956153458383
-0.9091900030719202,-1.5453637030771752,-1.528087854385376,-1.7568274937071742,1.3973201513290405,1.6748642921447754,-7.2844857063911865,233.0153066477107,1079.273185228525,-1.5700547611056586,0.059583760957867125,0.008552402557572928,0.7069585238557261,-0.7066145332664008,0.018049281218156996,0.024078421292669367
-0.8104332129107874,-1.5465048116496583,-1.529862880706787,-1.7588197193541468,1.397454857826233,1.6947343349456787,-7.6858921916775165,233.00239600296177,1079.2729377228695,-1.5700535528959199,0.05997637796832532,0.010278712798160453,0.7069330412204786,-0.7066259887908067,0.017578191603321677,0.024827290954442412
-0.7399681250201624,-1.548232752164342,-1.5414307117462158,-1.7560273609557093,1.3966357707977295,1.7134627103805542,-7.90421623555131,232.99192083456657,1079.2724869953427,-1.5700509659511435,0.06042622630165605,0.011494669876410124,0.706913028441685,-0.7066317602007678,0.017307665079801367,0.025415948230500487
-0.6501882711993616,-1.549179534693696,-1.5734672546386719,-1.7424646816649378,1.3972069025039673,1.7317869663238525,-8.033999611888346,232.9765548350144,1079.2721019445219,-1.5700431634060104,0.061051851450178864,0.013072300178427289,0.7068873534714817,-0.7066371669424112,0.016971571541362508,0.0261944566101983
-0.5873382727252405,-1.548157052402832,-1.6073566675186157,-1.7362100086607875,1.4009286165237427,1.7346099615097046,-7.99959754490629,232.96447142488017,1079.271999673558,-1.5700288866543015,0.06160108598425481,0.014235076754551781,0.7068697127270327,-0.7066372996988413,0.016755132393208957,0.026799280625013883
-0.5349352995501917,-1.5491663192263623,-1.6505846977233887,-1.6702600918211878,1.4309786558151245,1.737550973892212,-8.024675916152423,232.95401146571191,1079.2732839446705,-1.570022803652451,0.0612379524649658,0.015674312080818077,0.706857342573762,-0.7066499585092724,0.016118299359827393,0.02717965809479257
-0.5272811094867151,-1.5635633988170703,-1.710685133934021,-1.5884796581664027,1.4507007598876953,1.739128589630127,-7.94676830212545,232.95107187722388,1079.2710986206673,-1.570028136782511,0.060635757682729656,0.01615165375643112,0.7068571572876093,-0.7066604342256707,0.01573663290860367,0.027135737984551128
-0.5274127165423792,-1.6033412418761195,-1.7766691446304321,-1.5184829284301777,1.4540436267852783,1.6998121738433838,-8.143816229123683,232.9527616573063,1079.2629676057925,-1.5700458532639485,0.05918546939995498,0.016206093833058894,0.7068696726679017,-0.7066783204196898,0.015204332896068842,0.0266429272484337
-0.5286114851581019,-1.6336752376952113,-1.8305684328079224,-1.434270517235138,1.4541966915130615,1.662835955619812,-8.308375172070269,232.95448847656803,1079.256484560643,-1.5700727442694975,0.05748196068760031,0.01618579913453574,0.7068828815311862,-0.7067003536502319,0.014608780437262825,0.026034313567679115
-0.5366666952716272,-1.6680613956847132,-1.8927359580993652,-1.3605486762574692,1.454213261604309,1.6497020721435547,-8.420403950324648,232.9570096526032,1079.24865519242,-1.5700931514690373,0.05645117736864129,0.016044173123082456,0.7068908159845757,-0.7067139817377455,0.014294070171105313,0.025620340571230606
-0.5404251257525843,-1.69887175182485,-1.9407353401184082,-1.2990668577006836,1.454246163368225,1.640081763267517,-8.593050422020525,232.95933267739747,1079.2416127563204,-1.5701128146915868,0.055510465442866995,0.015977933744134466,0.7068966821080496,-0.7067271055701855,0.013984585716734738,0.025264806339063597
-0.5472715536700647,-1.7382952175536097,-1.9758023023605347,-1.2178194981864472,1.4559390544891357,1.6209862232208252,-9.039258647923761,232.9648111600934,1079.2331612655473,-1.5701500908849777,0.05368357940475623,0.015885722049666734,0.7069074358432104,-0.7067521288687684,0.013370710388170347,0.024587183505984697
-0.5516813437091272,-1.7682520351805628,-2.008822441101074,-1.1692026120475312,1.456162929534912,1.6112949848175049,-9.302133714937309,232.96820015173768,1079.2262550275934,-1.570170250641241,0.052719630479941056,0.01581148335454775,0.7069129837561832,-0.706765124947049,0.013055842527209614,0.024220580740708694
-0.5531447569476526,-1.7932139835753382,-2.034762382507324,-1.120149092083313,1.4551098346710205,1.6085184812545776,-9.55639913873407,232.9709964232532,1079.220329577716,-1.570192062055746,0.051832377729743834,0.015766397911927327,0.7069164935848168,-0.7067782626325225,0.012757777306341039,0.023891372629100693
-0.5536235014544886,-1.8215905628600062,-2.0520780086517334,-1.0684652489474793,1.4520268440246582,1.6070482730865479,-9.944389830998766,232.97498012755423,1079.2136470716714,-1.5702211548076173,0.05071199923949106,0.01570274229368469,0.7069202368926221,-0.706795179816905,0.012383760494279705,0.02347328130637998
-0.5545271078692835,-1.8556906185545863,-2.065061569213867,-1.0148755472949524,1.4511547088623047,1.592982292175293,-10.46656923877935,232.98026487880577,1079.2056260918084,-1.5702545967529717,0.04916306013941269,0.015669947201129276,0.706926767020979,-0.7068161746593313,0.011847257385090432,0.022914707104116763
-0.5650923887835901,-1.889446874658102,-2.077986240386963,-0.9828144472888489,1.4485396146774292,1.5721039772033691,-10.903959942574023,232.98704370281956,1079.19744233854,-1.570278964683009,0.04787583352256319,0.015438541635717607,0.7069353549381218,-0.7068309358257295,0.011473600983046572,0.022378305984078875
-0.5719969908343714,-1.9065362415709437,-2.087965250015259,-0.9710662525943299,1.422965168952942,1.5575287342071533,-11.039619947502658,232.99110467996198,1079.1923440513992,-1.570296292157068,0.04729263421251877,0.01487081362562459,0.7069419937212006,-0.7068371460001677,0.011467836205975714,0.02197169271095609
-0.5743683020221155,-1.9133364162840785,-2.0957183837890625,-0.9674782913974305,1.3391541242599487,1.5430158376693726,-10.932802334118971,232.9940988266075,1079.187697760613,-1.5703268205020449,0.0469940691699774,0.013365381666436187,0.7069507362044479,-0.7068408867332526,0.011893984868545343,0.02133425757051459
-0.5758846441852015,-1.9161683521666468,-2.103956460952759,-0.9666404885104676,1.250502586364746,1.5346165895462036,-10.74861080833684,232.99608122703404,1079.1837980228615,-1.5703561562895954,0.04692789033126725,0.011790524359206866,0.7069576357539634,-0.7068420828613626,0.012426863844896288,0.02075437786004653
-0.5765312353717249,-1.9204040966429652,-2.110229969024658,-0.9656666082194825,1.1746965646743774,1.5252819061279297,-10.629839481455207,232.9978226567256,1079.1800465656545,-1.570382457545444,0.046784098265483916,0.010455141925497126,0.7069634971054042,-0.7068438499747061,0.012847706296388737,0.020231706708884637
-0.5766876379596155,-1.9226719341673792,-2.112863779067993,-0.9576345247081299,1.0977946519851685,1.4990533590316772,-10.523202953671657,232.99943577503794,1079.1767917697512,-1.5704121245079359,0.04619308663285613,0.00910893058216863,0.7069722787953707,-0.7068494328126129,0.013114233112033242,0.019547205356548004
-0.5775659720050257,-1.9233676395811976,-2.1120612621307373,-0.9298238915256043,0.9594210386276245,1.4735655784606934,-10.345562200608281,233.00216064784962,1079.1719904144704,-1.5704691342351083,0.04523764586298136,0.0066762344689149464,0.7069842325369387,-0.7068597028057123,0.013635675240298756,0.018350036902344186
-0.5780804792987269,-1.924363752404684,-2.107194662094116,-0.9142616552165528,0.8152241706848145,1.462836503982544,-10.177653162994485,233.0044624956919,1079.167170931291,-1.570523637901066,0.044677251513128256,0.004148509235644791,0.7069924615336861,-0.706865213389839,0.014330446856518034,0.01725884488514211
-0.5813024679767054,-1.9240595302977503,-2.095820426940918,-0.9091180127910157,0.6031777262687683,1.4594897031784058,-9.897737617825063,233.00689011824778,1079.1606635950975,-1.5705975478911358,0.0443367505179521,0.0003887325246875077,0.7070002377559707,-0.7068658074262618,0.01553829178743486,0.015809983964194568
-0.5824640432940882,-1.9262591801085414,-2.0851430892944336,-0.9143498700908204,0.4620491564273834,1.4597456455230713,-9.765475827377253,233.00807478797077,1079.1558850516265,-1.570645133799468,0.044208221411308014,-0.002096369092598206,0.7070034768155788,-0.7068638298939699,0.016370807854720542,0.014886450500229007
-0.5827801863299769,-1.9315759144225062,-2.0709547996520996,-0.9183212083629151,0.3420955538749695,1.4601672887802124,-9.755655044684046,233.00950520789416,1079.1513409554232,-1.5706860061128594,0.043944746711435015,-0.004196910147912325,0.7070061337475619,-0.7068629429283059,0.017019777508784403,0.014051118518131568
-0.5837133566485804,-1.9329711399474085,-2.062120199203491,-0.9190705579570313,0.22268258035182953,1.4603263139724731,-9.641175529360007,233.00955954236642,1079.1475634471751,-1.5707251588667135,0.043782247682789266,-0.006298711244778118,0.7070077511494091,-0.7068599480479891,0.017704914043059832,0.013251025582092305
-0.5841968695269983,-1.9322077236571253,-2.0569560527801514,-0.9189365667155762,0.11425844579935074,1.4603583812713623,-9.483119162148373,233.00860354569545,1079.1445014934434,-1.5707599685401803,0.04370376355719783,-0.008200715127407651,0.7070082237042858,-0.7068558170461183,0.018349172711212586,0.01255123035359075
-0.584395710621969,-1.9278956852354945,-2.044090986251831,-0.9197564882091065,0.038097918033599854,1.4594464302062988,-9.389976252691964,233.00787068103813,1079.1435255863908,-1.5707842935195229,0.04355291107811778,-0.009534279943759327,0.7070087476052603,-0.7068534415615371,0.018767024814018794,0.012026709520152341
-0.5836337248431605,-1.9139191112914027,-2.028299331665039,-0.9227634829333802,0.013495116494596004,1.4563961029052734,-9.25705644288616,233.00637945987498,1079.1462154315382,-1.5707920594474918,0.04352047914555473,-0.009950648837368233,0.7070086839288612,-0.7068525711521434,0.0189026718271773,0.011868129700072675
-0.5830987135516565,-1.8578678570189417,-1.9952750205993652,-0.9782165449908753,0.007412032689899206,1.4311093091964722,-8.538991382960845,232.99896480115711,1079.1568125311946,-1.5707938055704358,0.04444887616627129,-0.010047540534518028,0.7070030714641816,-0.7068434052034163,0.019265024092921624,0.01216208482749953
-0.5829394499408167,-1.787405630151266,-1.9604237079620361,-1.0646273654750367,0.007255119737237692,1.4193440675735474,-7.560970150226803,232.98898357044033,1079.1684372797126,-1.5707935888233635,0.04637321498215358,-0.010047489631953248,0.7069911184464316,-0.706824465720286,0.01994510328844455,0.012842349937189464
-0.582930866871969,-1.7264262638487757,-1.9206695556640625,-1.1508754950812836,0.009581761434674263,1.415482997894287,-6.780721608534527,232.98104291669858,1079.1777433669338,-1.5707923965001094,0.04818159015249459,-0.010006686442505252,0.7069793636807973,-0.7068061410353151,0.020569786774352287,0.013496006680452897
-0.5829070250140589,-1.682202478448385,-1.8634812831878662,-1.2638788980296631,0.010445649735629559,1.4145541191101074,-6.36916737835711,232.9768516944224,1079.18361912099,-1.5707917231633828,0.04991138653048001,-0.009991164149779025,0.7069675549548656,-0.7067880123040633,0.021175616024080267,0.014112944073118359
-0.5818331877337855,-1.6473413906493128,-1.8046417236328125,-1.3288406294635315,0.011858330108225346,1.392918586730957,-6.210363553395007,232.97507476901538,1079.1898690951107,-1.5707909522945531,0.050249067938131976,-0.00994773758711477,0.7069651252445806,-0.7067846166628783,0.021279609734063138,0.014247650549783983
-0.5796178022967737,-1.6372024021544398,-1.7493505477905273,-1.3954229664853592,0.012204260565340519,1.3763126134872437,-6.416582301433005,232.97682943764295,1079.1918006511576,-1.5707907157433507,0.05033326565913494,-0.009903025950283735,0.7069642890388393,-0.7067841127875059,0.02129356565884388,0.014293215051883286
-0.5795248190509241,-1.6238428554930628,-1.6935573816299438,-1.4658081990531464,0.012288183905184269,1.3696646690368652,-6.559886516688227,232.97826468511886,1079.1938041049893,-1.5707905723263613,0.05070508479979163,-0.009899932280597757,0.706961647922744,-0.7067801243556111,0.021423871720571117,0.014425737510627545
-0.5797813574420374,-1.611028333703512,-1.6346427202224731,-1.5489717696658154,0.012311935424804688,1.3684457540512085,-6.714954117229007,232.979873798598,1079.1950099535836,-1.570790421883579,0.05133068960558205,-0.00990398778233006,0.7069571837556772,-0.7067732912952328,0.02164638872456159,0.014645439670109419
-0.5798295179950159,-1.609264989892477,-1.5804009437561035,-1.618516584435934,0.013332502916455269,1.3683408498764038,-7.032979117799638,232.98309952963285,1079.1945972024,-1.5707898629350487,0.05162672312405035,-0.009886994111260601,0.7069550803914451,-0.7067700667508642,0.02174500221107645,0.01475608120554587
-0.5808709303485315,-1.6091300449767054,-1.5621439218521118,-1.6414839229979457,0.01477620005607605,1.368309736251831,-7.14586735079169,232.98441415355222,1079.1943807460532,-1.5707891411414354,0.05171074568198333,-0.009879945370286018,0.7069546627955777,-0.7067689741958794,0.02177220911885533,0.014788264799509308
