zahirmahammad/RLHF-gello_software/csv/samestartgoal200/output169.csv
shoulder_pan_angle,shoulder_lift_angle,elbow_angle,wrist1_angle,wrist2_angle,wrist3_angle,end_eff_x,end_eff_y,end_eff_z,end_eff_roll,end_eff_pitch,end_eff_yaw,end_eff_w,end_eff_xq,end_eff_yq,end_eff_zq
-1.4716408888446253,-1.637087961236471,-1.5220451354980469,-1.6440941296019496,1.4873645305633545,1.575864553451538,-6.8683991875861965,233.11972984070871,1079.25922186462,-1.5701026906649036,0.05418200441399619,0.0003027541542055024,0.7070895146503267,-0.7066050187476653,0.019053566436506342,0.019254281555711537
-1.4903314749347132,-1.6486989460387171,-1.5123404264450073,-1.6811825237669886,1.5721410512924194,1.5754894018173218,-7.144145694573224,233.1271750653229,1079.2603793704307,-1.570055592793222,0.05444958331702302,0.001458191219407308,0.7070922741647676,-0.7065967583038879,0.018740412906085403,0.019756869565884596
-1.4452031294452112,-1.6558987102904261,-1.5033836364746094,-1.6882316074767054,1.5922343730926514,1.5764986276626587,-7.542453784803268,233.12592742325302,1079.259488210625,-1.5700505554545112,0.05430804245633751,0.0025966842073024505,0.7070841186621686,-0.7066068257998201,0.018288188810641336,0.020109326663843005
-1.2968133131610315,-1.6632849178709925,-1.500490665435791,-1.6587921581664027,1.5951828956604004,1.6123067140579224,-8.345541080961167,233.10998149794415,1079.2577521230314,-1.5700684968068637,0.05424002129753578,0.005237505026479687,0.7070513264390565,-0.7066372898025023,0.017330922731168784,0.021019076065128844
-1.0850361029254358,-1.6815344295897425,-1.4991990327835083,-1.6532966099181117,1.590970516204834,1.6743959188461304,-9.512385346327207,233.08352785569312,1079.253127353806,-1.570082539020089,0.05488693158375537,0.008860233512964649,0.7069998780202302,-0.706667263618126,0.016279500091462916,0.022528401776906494
-0.9187901655780237,-1.706555028954977,-1.491762399673462,-1.6464063129820765,1.5894181728363037,1.6987590789794922,-10.662068308706576,233.06261349770418,1079.2466390491973,-1.5701023160819563,0.054625689005378016,0.011733904157983234,0.7069628612172663,-0.7066989015683601,0.015171512474560288,0.02345209139509332
-0.7891781965838831,-1.7386862240233363,-1.4835138320922852,-1.5605931796929617,1.5924055576324463,1.7305101156234741,-11.92869081754979,233.04793906264993,1079.237620584327,-1.5701623472642214,0.05297818356903782,0.01404532381678746,0.7069338322153534,-0.7067487539485766,0.013771484656374806,0.023687588982589304
-0.7250373999225062,-1.7675663433470667,-1.4734599590301514,-1.5247797977975388,1.5946029424667358,1.753547191619873,-12.804087560828386,233.04210967689323,1079.2291398078805,-1.57019784653161,0.05207615035276648,0.015201517728410215,0.7069182752111332,-0.7067750928784803,0.013043528647696045,0.023777859860571682
-0.685256306325094,-1.797587057153219,-1.4754307270050049,-1.5223679107478638,1.5931402444839478,1.755702257156372,-13.430918240846879,233.03879623073536,1079.220778158093,-1.5702132082101004,0.05158232519223299,0.01586953200318745,0.7069107747953575,-0.7067879770038515,0.012632659344006526,0.02383963000821571
-0.6724785009967249,-1.8452063999571742,-1.49043869972229,-1.522878148858883,1.592522144317627,1.756978988647461,-14.113922400651818,233.04323176752638,1079.2078140043382,-1.5702290380407842,0.05104456096773184,0.01608096207159271,0.706909062969583,-0.7067982509699879,0.012367599123627988,0.023724493864973793
-0.6704943815814417,-1.9142843685545863,-1.5148142576217651,-1.4796081346324463,1.5923664569854736,1.7546660900115967,-15.092899464098029,233.05411278871838,1079.187741313194,-1.570271849103723,0.04946938022899301,0.016110702096163693,0.7069120600771178,-0.7068230692925976,0.011799605705228627,0.023178812275831722
-0.6703661123858851,-1.9873501263060511,-1.5470045804977417,-1.3594348293593903,1.5922986268997192,1.7535649538040161,-16.19501497502324,233.06697161695277,1079.1643496463432,-1.570350121232019,0.04664041849650634,0.01610798790441016,0.7069165142829248,-0.7068666871306111,0.010799373495731224,0.02217886361322152
-0.6695535818683069,-2.0601335964598597,-1.5673927068710327,-1.2323599618724366,1.5931050777435303,1.753395915031433,-17.410215864738596,233.08086571348423,1079.1382342320605,-1.570437115163183,0.043506327919477665,0.01613232202835668,0.7069194047784563,-0.7069135941982282,0.009681656776108962,0.02108058366092957
-0.6697648207293909,-2.1274787388243617,-1.5778100490570068,-1.1265090566924592,1.5936448574066162,1.7533531188964844,-18.582410399564548,233.09461696382763,1079.1118354361743,-1.5705161076590795,0.040665653052760854,0.016134731796838223,0.7069206925016138,-0.7069545533288771,0.008675586135653342,0.02007805383521149
-0.6692894140826624,-2.182662626306051,-1.581965446472168,-1.0510177177241822,1.5937676429748535,1.7533602714538574,-19.563020216052706,233.10588956194778,1079.0887949601142,-1.5705775696378952,0.03845844448587766,0.01614274123784502,0.7069206195934423,-0.7069854473326599,0.00789174001983338,0.01930117335608956
-0.6655295530902308,-2.2202025852599085,-1.5853662490844727,-1.0145323437503357,1.5921237468719482,1.7524914741516113,-20.210259615053985,233.112025514892,1079.073035712162,-1.5706120760452738,0.03721113289693014,0.01617836425449532,0.7069199864823994,-0.7070025582748781,0.007437808324762116,0.018873110814755532
-0.6619165579425257,-2.247486730615133,-1.5869696140289307,-0.9984263342669983,1.5903339385986328,1.7527438402175903,-20.672551293671766,233.11600811368993,1079.061578864981,-1.5706325418558367,0.03648650724122673,0.016209432274368857,0.7069192545120209,-0.7070125507725241,0.007170431313095181,0.01862808538422435
-0.657450024281637,-2.269315382043356,-1.5875380039215088,-0.9691721957973023,1.5867605209350586,1.753173828125,-21.079710621639233,233.1190317653384,1079.051505139647,-1.570657343316481,0.03561271774222233,0.01622412825748428,0.706918423876137,-0.7070244314451649,0.006856067604193742,0.018324564418460552
-0.6565530935870569,-2.2845570049681605,-1.5884840488433838,-0.9457165163806458,1.4836387634277344,1.7533173561096191,-21.18061811450168,233.12461920214133,1079.0435467506024,-1.5706834463351351,0.03495680189707769,0.014439067587470739,0.7069310348735195,-0.7070296737902545,0.007254972855457089,0.017461892267667926
-0.6564577261554163,-2.289334913293356,-1.5923893451690674,-0.942694680099823,1.2513043880462646,1.7525038719177246,-20.825322853711178,233.1301476002062,1079.0401821328217,-1.570702605567342,0.03487507088793272,0.010385099844919516,0.7069588590786111,-0.7070206424203015,0.008659045708393823,0.016000115289357495
-0.656496826802389,-2.2900616131224574,-1.5944551229476929,-0.9433281582644959,0.9810703992843628,1.7203218936920166,-20.348211302765304,233.1338481265093,1079.0381076175745,-1.570722255051092,0.03434820608425433,0.005667261226937912,0.7069914402985863,-0.7070078909189689,0.010140421674769296,0.014146284710114018
-0.6565292517291468,-2.2866364918150843,-1.5950689315795898,-0.9427138727954407,0.7263866662979126,1.6540027856826782,-19.846370679576417,233.13470752292048,1079.0375923131746,-1.5707407265754556,0.03325077220254451,0.001220968520632981,0.7070214066849938,-0.7069964497835407,0.011324100425226365,0.01218668257572329
-0.6565597693072718,-2.2756535015501917,-1.5935765504837036,-0.9429408472827454,0.399291455745697,1.6072075366973877,-19.114385392349924,233.13191713868576,1079.0391636313664,-1.570764581118539,0.03260388659283621,-0.004489216511582521,0.7070481388944488,-0.7069739485237823,0.013113798316617263,0.009939501411016193
-0.6542204062091272,-2.2668963871397914,-1.576302170753479,-0.9564370077899476,0.1445152759552002,1.5992194414138794,-18.665758339942744,233.128006947705,1079.0390051577212,-1.5707846177494724,0.03255146195633475,-0.00889567880757167,0.7070614588623191,-0.7069508078343326,0.01465277724931037,0.008363301546380385
-0.6535056273089808,-2.2634693584837855,-1.5523109436035156,-1.0002831381610413,0.000309615395963192,1.647613763809204,-18.492840087168908,233.1260853737557,1079.0369289158734,-1.5707962995108469,0.03380246334973992,-0.011400420215486706,0.707062433466138,-0.7069261752576566,0.015980272255164987,0.00792015247170465
-0.6559861342059534,-2.2557717762389125,-1.5153619050979614,-1.085111842756607,-0.048493210469381154,1.7190964221954346,-18.44436928933764,233.1264106776202,1079.0355990407925,-1.5708014219635735,0.03602007491415507,-0.012295652248714248,0.70705523165398,-0.7069022579085925,0.017080506303231106,0.008387696876735483
-0.6599105040179651,-2.2102214298644007,-1.4851570129394531,-1.1894845825484772,-0.05465394655336553,1.734994888305664,-17.766768436492974,233.12004303228872,1079.0483732671628,-1.5708040643288794,0.03838703062030128,-0.012471767992217535,0.7070446855766344,-0.7068809020652665,0.017979327359453633,0.00916224213469979
-0.6628769079791468,-2.125458379785055,-1.4578042030334473,-1.3174976867488404,-0.05333310762514287,1.739508867263794,-16.413202129360982,233.1054437464605,1079.0735139905032,-1.5708068932370354,0.04170206105799991,-0.012500603552432302,0.7070276771216603,-0.7068508537970212,0.019161135515234816,0.01032400872425877
-0.6638458410846155,-2.0652715168394984,-1.4353971481323242,-1.3795360636762162,-0.053220574055806935,1.7348533868789673,-15.531097047970492,233.09554634825207,1079.0904852900449,-1.5708084913322586,0.04336296284663051,-0.012515617717669526,0.7070183770045605,-0.7068351142575948,0.019753425111696005,0.010905871200721774
-0.6634476820575159,-2.011718889276022,-1.398929238319397,-1.4540707480958481,-0.05278999010194951,1.7316958904266357,-14.860177186024433,233.08765118853302,1079.1035332209703,-1.570809868390272,0.04490691377558167,-0.012501214194904384,0.7070091782968217,-0.7068202873465974,0.020293973662353772,0.011456781062679925
-0.6635897795306605,-1.949944635430807,-1.3717018365859985,-1.5325229589692135,-0.049230400715963185,1.7307000160217285,-13.974830825195344,233.07744586038675,1079.1186707080008,-1.570810652661507,0.04686173827270873,-0.012441611036525982,0.7069970033537966,-0.7068010163000916,0.020963740766391813,0.012168902127519546
-0.6640341917621058,-1.8811685047545375,-1.354482889175415,-1.6170326671996058,-0.03504926363100225,1.730410099029541,-12.898240562738804,233.06511554296546,1079.135167907228,-1.5708079814296494,0.04923149611492605,-0.012201770822522122,0.7069814678934622,-0.7067773455160781,0.02171644819249374,0.013091363502503658
