zahirmahammad/RLHF-gello_software/csv/samestartgoal200/output49.csv
shoulder_pan_angle,shoulder_lift_angle,elbow_angle,wrist1_angle,wrist2_angle,wrist3_angle,end_eff_x,end_eff_y,end_eff_z,end_eff_roll,end_eff_pitch,end_eff_yaw,end_eff_w,end_eff_xq,end_eff_yq,end_eff_zq
-1.4129412809955042,-1.5442553249052544,-1.6352870464324951,-1.614950796166891,1.3456603288650513,1.5464674234390259,-4.45480612373544,233.05323881539357,1079.2705907124766,-1.5700960647307691,0.05675773959650554,-0.001144956444431426,0.7070808658851045,-0.7065629326699101,0.02047571696551262,0.019652386389828237
-1.3597472349749964,-1.5405983843705435,-1.636796236038208,-1.6166068516173304,1.3480958938598633,1.5351345539093018,-4.601072938127934,233.0472389962505,1079.2713138600695,-1.5700919961164472,0.056678950536545605,-0.00017396353418319845,0.7070734665024311,-0.7065721439009389,0.020104866770012598,0.019967793158651017
-1.2413604895221155,-1.541364661683776,-1.6317615509033203,-1.6168142757811488,1.3483573198318481,1.5366005897521973,-5.138161538056417,233.0384280210375,1079.2713009917895,-1.570094162333626,0.056606935909366524,0.0018967310066262944,0.7070523939955207,-0.7065940431258432,0.019347825753422063,0.020674428719853383
-1.1039426962481897,-1.5455506716719647,-1.6326634883880615,-1.6158696613707484,1.4011898040771484,1.5388879776000977,-5.84973164215675,233.02617246347444,1079.273274094901,-1.5700684631607564,0.056572416050735944,0.005218298493643233,0.7070265401679668,-0.7066164295777038,0.018162375428969958,0.021836232911148834
-0.9940093199359339,-1.5489114236882706,-1.6360212564468384,-1.6128469906248988,1.425262689590454,1.5440844297409058,-6.368857382586082,233.01473718291896,1079.2738698255703,-1.5700572742211043,0.056610011638916775,0.007557663008216895,0.7070040419252643,-0.7066329094081719,0.01734926624242345,0.022676397498960957
-0.8726995627032679,-1.558711576541402,-1.6392757892608643,-1.6070496044554652,1.430492877960205,1.5811315774917603,-7.0102233287879905,233.00275871734888,1079.2723332930777,-1.57005992889137,0.05704117981396567,0.009766487277456003,0.7069725526387093,-0.7066489929236828,0.016721265585250653,0.023609529700525884
-0.7514537016498011,-1.5722853145995082,-1.635508418083191,-1.604053636590475,1.4311193227767944,1.5971897840499878,-7.75908980443542,232.9907305350895,1079.2699169600387,-1.5700684851117979,0.05696660230301947,0.01189327297972849,0.7069449318584684,-0.7066699933825447,0.01594333655158302,0.024335032195224315
-0.647503677998678,-1.5958553753294886,-1.6194851398468018,-1.6041542492308558,1.431206226348877,1.6005737781524658,-8.696436115735642,232.98208258823905,1079.2655554950843,-1.5700857030286561,0.056336600472902926,0.01370812678661638,0.7069243107203478,-0.7066950351374001,0.015079096671563347,0.02475413234754318
-0.5993025938617151,-1.6318055591978968,-1.6045336723327637,-1.6026135883727015,1.431201696395874,1.601292610168457,-9.598660392747881,232.9820715773649,1079.2583085183462,-1.5701086282273358,0.05543414170311582,0.014548043617511016,0.7069169884416809,-0.7067159987995276,0.014462916842695182,0.024732418598511666
-0.5798385779010218,-1.6692701778807582,-1.606473445892334,-1.5858351192870082,1.4311925172805786,1.6022995710372925,-10.289757953978226,232.98499097755678,1079.2503029982413,-1.5701314922284404,0.05453913696583325,0.01488634992044655,0.7069157703928683,-0.706732856925159,0.014026615828400627,0.024536025771556728
-0.5740292708026331,-1.7167188129820765,-1.631262183189392,-1.5151368503323575,1.431248664855957,1.602027177810669,-10.982861647384853,232.9906516022947,1079.2398399560898,-1.5701722664206195,0.05290548418409074,0.014986528601222526,0.7069199742519886,-0.7067591500937142,0.01341305985886074,0.02399465748039481
-0.5726917425738733,-1.7677957020201625,-1.6603341102600098,-1.4383346003345032,1.4319403171539307,1.5879777669906616,-11.690777708234533,232.99738685457407,1079.2279479626661,-1.5702151668658761,0.05093629662246897,0.015019566988809203,0.7069277192609374,-0.7067873730795348,0.01270457324896394,0.023311002003808444
-0.5722492376910608,-1.8152033291258753,-1.6821668148040771,-1.3862029773047944,1.4316972494125366,1.5687223672866821,-12.353926005437831,233.00391264554762,1079.2162518943016,-1.570249233129371,0.04924441807692742,0.015021153874569105,0.7069351351441651,-0.706809907047688,0.012105374441015632,0.022714090507494362
-0.5721967856036585,-1.8748280010619105,-1.7195653915405273,-1.280499742632248,1.4329825639724731,1.5607985258102417,-13.173195276641868,233.01202543576056,1079.2007383555267,-1.5703046906501301,0.04687402005927736,0.01504176152467492,0.7069417421138675,-0.706843462112728,0.011259307663763938,0.021884270982489813
-0.5644586722003382,-1.9344588718810023,-1.7607510089874268,-1.1811795395663758,1.4322831630706787,1.5590558052062988,-13.976731431159829,233.01788098244967,1079.1843485258346,-1.5703563957392848,0.044788857939696794,0.015162229297677467,0.7069446304593097,-0.7068737145245592,0.010478873349513584,0.02119043162200469
-0.5572918097125452,-1.9944387874998988,-1.7969595193862915,-1.086540387277939,1.4322950839996338,1.557762622833252,-14.819330195120743,233.0240427077969,1079.1668361693498,-1.5704081297265309,0.042700279927450874,0.015285250979112661,0.706946834116578,-0.7069031469480723,0.009696351375290062,0.020496227395947045
-0.5543988386737269,-2.0481773815550746,-1.828078031539917,-1.0071025055697937,1.4326387643814087,1.5581741333007812,-15.562498845704853,233.03035655636464,1079.1503839088673,-1.5704526321013905,0.040926769681959005,0.015339882930204218,0.7069484618164477,-0.7069274383383441,0.009049501816115132,0.01988908687259293
-0.5434196631060999,-2.074939867059225,-1.8460445404052734,-0.9913609784892579,1.4336200952529907,1.5584206581115723,-15.91014836302145,233.0302013215004,1079.1425404554222,-1.5704631250274994,0.04050294041140777,0.01554820593751003,0.7069468925840097,-0.7069339708838129,0.008825903043647262,0.019813008648890067
-0.5333216826068323,-2.088938375512594,-1.8592720031738281,-0.9852290910533448,1.4316784143447876,1.5568408966064453,-16.06889826639907,233.02857346758395,1079.1385615388942,-1.5704665905531445,0.04035493838600196,0.01569041399245868,0.7069457252431689,-0.7069364686049312,0.008723271512663344,0.019810993183471737
-0.5265587011920374,-2.0955454311766566,-1.8718432188034058,-0.9715245527080079,1.3814144134521484,1.5574874877929688,-16.0306674407296,233.02821584788788,1079.1356343177936,-1.5704814255948718,0.04023145182766072,0.014930659515191074,0.7069491617150059,-0.7069389010935392,0.008948012541762276,0.01949887029194996
-0.5240252653705042,-2.097682138482565,-1.875484824180603,-0.9643514913371583,1.2471009492874146,1.5616545677185059,-15.822931750574684,233.03086798569944,1079.1319618411417,-1.570514192962868,0.04020597848631027,0.012629566475668699,0.706959783941361,-0.7069398449790868,0.009752059794582626,0.018676637820868532
-0.5233061949359339,-2.095762392083639,-1.874363660812378,-0.9632575672915955,1.0083094835281372,1.565598487854004,-15.391629798196726,233.03487323334207,1079.1271259731914,-1.570568299118216,0.040270721895991055,0.00847260979365941,0.7069773937855013,-0.7069368112376401,0.011243821289988928,0.017230382358389973
-0.5243247191058558,-2.090386529962057,-1.8694132566452026,-0.9632900518229981,0.6703017950057983,1.566274881362915,-14.756414173271118,233.03797879331057,1079.1209857949527,-1.5706446409847505,0.04029163858605524,0.0025529088632508887,0.706998154309415,-0.7069272824402021,0.013343012811895342,0.01514566452464372
-0.5265935103045862,-2.0861717663206996,-1.8659601211547852,-0.962670163517334,0.405163049697876,1.5655592679977417,-14.249620648710476,233.03831556874758,1079.1161726681821,-1.5707046217056344,0.04028218544304127,-0.002116261951920157,0.7070104499096145,-0.7069154802531005,0.014989610747095752,0.013492185396867572
-0.5284631888019007,-2.081015726129049,-1.8597135543823242,-0.9620595139316102,0.11264867335557938,1.5631420612335205,-13.705778831347251,233.03613219503595,1079.1109779742226,-1.5707708880546165,0.040210605226252395,-0.007256474054000663,0.7070197872061995,-0.7068986478718821,0.016780719540882224,0.011650304180395667
-0.5303095022784632,-2.078827043572897,-1.8442790508270264,-0.9618216913989563,-0.11175567308534795,1.5593242645263672,-13.406127345702057,233.0338727315599,1079.1065095627177,-1.5708211042216023,0.03990863897157754,-0.011206982762896835,0.7070252120985274,-0.7068846112696866,0.01807000827383581,0.010147443427785603
-0.5340312162982386,-2.0395409069456996,-1.799965500831604,-1.00746704757724,-0.14344340959657842,1.5564182996749878,-13.008448333277023,233.03105474542315,1079.1150399751346,-1.5708299066849805,0.04056681929055072,-0.011825299835956067,0.7070218987337917,-0.7068760458255786,0.018521122255406867,0.010161622865391195
-0.5360806624041956,-1.9584390125670375,-1.7370933294296265,-1.1587763291648407,-0.14666444460024053,1.5556516647338867,-11.973585519086456,233.0219008740187,1079.1313068044944,-1.5708382457197878,0.043512441214199095,-0.011917630883377777,0.70700373589921,-0.7068500445730946,0.01959474702485202,0.011170398408586779
-0.5367634932147425,-1.8918844662108363,-1.6539669036865234,-1.304079071884491,-0.14607125917543584,1.5553817749023438,-11.367943453667419,233.01639820927824,1079.142966865667,-1.5708438134659066,0.045754501284356965,-0.011919445281602641,0.7069888133532627,-0.7068295832751187,0.020387709383868545,0.011962412237767051
-0.5378611723529261,-1.852884431878561,-1.5600539445877075,-1.4347251069596787,-0.13889724413026983,1.5474824905395508,-11.330947888768476,233.016341573297,1079.1480517464745,-1.5708446909731464,0.04693842679969343,-0.011813450484740229,0.706980641483017,-0.7068188021983961,0.020768637741772858,0.012418418314645484
-0.5456579367267054,-1.8261381588377894,-1.4661928415298462,-1.5553396561047812,-0.13602000871767217,1.5426950454711914,-11.472274609849052,233.01954128049343,1079.1497834070806,-1.5708459098076915,0.0477886161357242,-0.011899376521979758,0.7069754140800515,-0.7068094344424724,0.021099445160066434,0.012688604469730485
-0.5583747068988245,-1.8102461300291957,-1.38481605052948,-1.6576386890807093,-0.13174468675722295,1.540755271911621,-11.694352542294993,233.02476753860495,1079.1491023100134,-1.5708458315646283,0.0483972928763774,-0.012046718889824686,0.7069724963975752,-0.7068013803038471,0.021366614199724434,0.012851689989924545
-0.5652530829059046,-1.805279394189352,-1.3388251066207886,-1.703313489953512,-0.12309295335878545,1.540244221687317,-11.917297679622298,233.02867875578386,1079.148210591966,-1.5708427552752973,0.04846954856352253,-0.012015653650620092,0.7069729187293873,-0.7067998526549512,0.021381189487382095,0.012888180876111436
-0.5670188109027308,-1.8051516018309535,-1.3292787075042725,-1.7084666691222132,-0.1173327604876917,1.5419878959655762,-11.99106557651709,233.02986804810928,1079.1481015410595,-1.570840429944714,0.048425540378440685,-0.011945849193485623,0.7069735741878441,-0.7068002462753924,0.021340983790908544,0.012897273973436957
-0.5674975554095667,-1.8054028950133265,-1.3304903507232666,-1.7076307735838832,-0.11545116106142217,1.5450756549835205,-11.98746161497068,233.02995846713685,1079.1481626282887,-1.570839727187275,0.04848160551232711,-0.011921340673208882,0.7069733024046564,-0.7067996610315364,0.02135213956715373,0.012925749056226333
-0.567538086568014,-1.8054830036559046,-1.3396275043487549,-1.7053176365294398,-0.1171496550189417,1.5728405714035034,-11.911215793112918,233.02920731576273,1079.1483122481975,-1.5708406078749726,0.049083896575721694,-0.011951749653692846,0.7069692665479375,-0.7067931820553605,0.021575719562242163,0.013127919945709103
