zahirmahammad/RLHF-gello_software/csv/samestartgoal200/output104.csv
shoulder_pan_angle,shoulder_lift_angle,elbow_angle,wrist1_angle,wrist2_angle,wrist3_angle,end_eff_x,end_eff_y,end_eff_z,end_eff_roll,end_eff_pitch,end_eff_yaw,end_eff_w,end_eff_xq,end_eff_yq,end_eff_zq
-1.4748275915728968,-1.6502639255919398,-1.516065001487732,-1.5374574449709435,1.4446886777877808,1.5294071435928345,-7.228907655787998,233.1316256686937,1079.2542436924152,-1.5701781022338586,0.05117687993322415,-0.0005019569606015093,0.7070982853150244,-0.7066521963679046,0.018274731544981108,0.01790872580413148
-1.39714223543276,-1.6527453861632289,-1.523006558418274,-1.527873234157898,1.4670932292938232,1.5229302644729614,-7.580720368572586,233.12149142601507,1079.2547269619336,-1.5701708152747869,0.05097419025971942,0.0012451264501372394,0.7070868212750642,-0.7066670989397322,0.017585840205472464,0.018454719707854162
-1.2381046454059046,-1.6535846195616664,-1.533827781677246,-1.5237513345531006,1.4735183715820312,1.5331286191940308,-8.16664887196882,233.09794367964722,1079.2549811231456,-1.5701654347033343,0.05125435880254576,0.004133348967620612,0.7070585978667221,-0.7066875300245636,0.016664427144303103,0.01957475308857337
-1.0290373007403772,-1.6557194195189417,-1.5508238077163696,-1.5221927923015137,1.4719054698944092,1.4862630367279053,-8.905307069859337,233.06465575528878,1079.2546786032503,-1.570160174254459,0.05066851686804666,0.007753871018446917,0.707029944057814,-0.7067191518507255,0.015178022586489471,0.020647669199197857
-0.8715375105487269,-1.6600882015623988,-1.5538758039474487,-1.5229038161090394,1.4745922088623047,1.4805742502212524,-9.593066166828903,233.0398922954161,1079.2538388875087,-1.5701592891935336,0.05055862995172197,0.010549620681503202,0.7070018913615762,-0.7067401432963849,0.014151257274099173,0.021597161436678426
-0.7510374228106897,-1.6924153767027796,-1.5435709953308105,-1.5180238758078595,1.46927011013031,1.5931416749954224,-10.688069531912491,233.0273689007706,1079.2458389609933,-1.570182835504296,0.05169439445376264,0.012559906774893726,0.7069587182461954,-0.7067545947783895,0.013842214493259949,0.022709173328276305
-0.6749485174762171,-1.7058497867979945,-1.531394124031067,-1.517884661709406,1.4688090085983276,1.632591724395752,-11.316441336839977,233.01674727769515,1079.2422839286128,-1.5701945528562846,0.05193364953363715,0.013879674174081385,0.7069366597220721,-0.7067661134032076,0.013460299561338368,0.02326027561407064
-0.6322806517230433,-1.7245718441405238,-1.5299830436706543,-1.5248304170421143,1.4694098234176636,1.639353632926941,-11.790570754736104,233.0115460317872,1079.2376555299668,-1.570200218713496,0.05182157335840943,0.014634629050116435,0.7069271446403779,-0.7067738841220139,0.013153813852353743,0.023487572774173408
-0.6132095495807093,-1.78025545696401,-1.5753486156463623,-1.523364295517542,1.4685579538345337,1.6348421573638916,-12.370608616278453,233.01302456412455,1079.224692940672,-1.5702058496323261,0.051537237374022105,0.014952281090370305,0.7069247644832556,-0.7067797996456544,0.012940952498720132,0.02349944513319695
-0.6070202032672327,-1.8503371677794398,-1.6465519666671753,-1.4004685294679184,1.469130277633667,1.616424798965454,-13.120602772718366,233.01934079883026,1079.207500439245,-1.5702602356150566,0.04909112839408021,0.015067376028014648,0.7069324622583487,-0.7068149991781842,0.012034711526781806,0.022676341428001373
-0.6060736815081995,-1.9273210964598597,-1.7088011503219604,-1.278249279861786,1.4686002731323242,1.5790952444076538,-14.03345769302519,233.02876343558714,1079.1868797068198,-1.5703218208672494,0.046050098000266,0.015071390025153304,0.70694432564969,-0.7068542535813502,0.010957315148108653,0.02160374667510551
-0.6060245672809046,-1.9883533916869105,-1.7410897016525269,-1.1722350877574463,1.4689500331878662,1.569836974143982,-14.91798237416321,233.0380897838978,1079.1686814018765,-1.5703821026944393,0.04353731205534849,0.015075579706238431,0.706949567652749,-0.706888779015536,0.010066693439281262,0.020717735897425277
-0.6059282461749476,-2.0311690769591273,-1.7567684650421143,-1.1186607343009491,1.4685927629470825,1.5692379474639893,-15.561352745050838,233.0448806616547,1079.1552607648948,-1.5704183592906142,0.04211864537076828,0.015069469566459824,0.7069513353639565,-0.7069085224468662,0.00956685665667695,0.020214489180232047
-0.6059215704547327,-2.0628425083556117,-1.7638436555862427,-1.0839974743178864,1.4673672914505005,1.5684266090393066,-16.065539166204008,233.05026527371496,1079.1448232055434,-1.5704451969105,0.04107052412505539,0.015047078590523769,0.7069525699183379,-0.7069228185075661,0.009203900495285224,0.019836349836830663
-0.6066554228412073,-2.079355855981344,-1.7646431922912598,-1.065957562332489,1.4081772565841675,1.5687178373336792,-16.248386872826398,233.0550205719404,1079.1377567257073,-1.5704738537024845,0.040487026788163384,0.01400013569137209,0.7069583778620182,-0.7069307944327218,0.009367361991308505,0.01926022800353972
-0.6072543303119105,-2.084489484826559,-1.7675793170928955,-1.0611224931529541,1.2688144445419312,1.569082260131836,-16.069062881560804,233.0589748710474,1079.1330039704494,-1.5705084835653045,0.04037142100844972,0.011556152240761754,0.7069702078605749,-0.7069316508964326,0.010190025394704568,0.018355640573821986
-0.6065805594073694,-2.0858074627318324,-1.7739681005477905,-1.0637222093394776,1.0743061304092407,1.5638391971588135,-15.695437891720246,233.06171492671524,1079.1285236141875,-1.5705500917680701,0.040414666550990075,0.00817168593712973,0.7069851794981853,-0.7069278568850782,0.011401235929482658,0.017174776536230632
-0.6052983442889612,-2.087836881677145,-1.7768712043762207,-1.067179874782898,0.8685113787651062,1.5180484056472778,-15.344474161016858,233.06366596115765,1079.123329104901,-1.5705961157511805,0.039691853545220604,0.0046005586845,0.707004157297266,-0.7069271711801491,0.012407577159695597,0.01565721049999202
-0.6046436468707483,-2.09055294613027,-1.777570128440857,-1.0678121012500306,0.7100973725318909,1.4909253120422363,-15.108133077885084,233.06476199542303,1079.118887294748,-1.5706329345738603,0.03919479971108513,0.0018458418152777342,0.7070156663305965,-0.7069257298456332,0.013205268499116952,0.014507960890062444
-0.6044800917254847,-2.0916716061034144,-1.7772183418273926,-1.0621060293963929,0.4677664339542389,1.4897421598434448,-14.718423754849312,233.06493035927377,1079.113042027331,-1.5706897168329408,0.03904947306740768,-0.002382636488899737,0.7070256334121596,-0.7069173704501241,0.014648106061648273,0.01296217739514151
-0.6044200102435511,-2.092881818810934,-1.77306067943573,-1.056970016365387,0.22021044790744781,1.5208848714828491,-14.352359153036495,233.06363430686386,1079.1070623375858,-1.5707468419557267,0.0394100284704368,-0.0067040902690690156,0.707029726853686,-0.7069013372263752,0.016302644566138204,0.011562376611886185
-0.6051705519305628,-2.097808977166647,-1.768241047859192,-1.0555076164058228,0.049486879259347916,1.5786807537078857,-14.175301641201298,233.0626828708769,1079.1017620453654,-1.5707853750054055,0.04022320997304757,-0.009698138614911905,0.7070282951179161,-0.7068826447919768,0.017648088460243103,0.01079172684292532
-0.6057384649859827,-2.100797315637106,-1.7558456659317017,-1.0563820761493226,-0.016728703175679982,1.647800326347351,-14.21059210255759,233.06325380427367,1079.0991958953457,-1.5707999551230205,0.041176343921047784,-0.01086422842174552,0.7070242870007779,-0.7068687021570501,0.018397025225213862,0.01071657429929819
-0.6066554228412073,-2.097351213494772,-1.737208604812622,-1.0720741313746949,-0.02654582658876592,1.6844468116760254,-14.267360782579821,233.0641153461384,1079.0992692137431,-1.5708020885923542,0.04182469072401053,-0.011051651779538395,0.707021044452907,-0.7068617067871306,0.01869240105753844,0.0108795368196139
-0.6120317617999476,-2.0693403683104457,-1.700451374053955,-1.1427229803851624,-0.027811352406637013,1.737795114517212,-13.98783192310504,233.06269963855073,1079.104965455217,-1.5708028886831318,0.04383619580333793,-0.011167612324851377,0.7070101329223503,-0.7068417059272352,0.01944429361399804,0.011549638645827844
-0.6163085142718714,-2.015568872491354,-1.6419428586959839,-1.26885740578685,-0.026873413716451466,1.7667250633239746,-13.394700374263751,233.05755067049935,1079.115816990628,-1.5708036628751723,0.04645990297037044,-0.011225925792224947,0.7069944631777707,-0.7068152689525662,0.020392146958759804,0.012456522544421911
-0.6187308470355433,-1.9515706501402796,-1.5733474493026733,-1.3986410808614274,-0.02622539201845342,1.766905665397644,-12.725244025657966,233.0509940214755,1079.1283184036797,-1.5708044878426446,0.04864797131911905,-0.011256934175965575,0.7069803258732796,-0.7067924995344521,0.021176361777523914,0.013219044285439414
-0.6225784460650843,-1.9149090252318324,-1.5235404968261719,-1.472894163136818,-0.025342766438619435,1.7465360164642334,-12.42302223631346,233.04873470590823,1079.1349180862142,-1.5708046856928197,0.049358985414973855,-0.011308692072619694,0.7069758602393336,-0.7067844416628183,0.021445917610535117,0.013452088316489643
-0.6248443762408655,-1.8922292194762171,-1.4826008081436157,-1.524509248589613,-0.02485210100282842,1.7320433855056763,-12.313485516042064,233.04813210870523,1079.1385111249776,-1.5708047767658364,0.049688199410235015,-0.011339680245277844,0.7069738143448084,-0.7067805999416852,0.021573208315984634,0.01355750935014002
-0.6256187597857874,-1.8723584614195765,-1.4399775266647339,-1.5831734142699183,-0.02375680605043584,1.7263519763946533,-12.258191766304114,233.0477299302685,1079.1409838129875,-1.5708046647275076,0.050215642083312965,-0.0113340765931078,0.7069702154857933,-0.7067749073782454,0.021757619622268375,0.013745934119440964
