zahirmahammad/RLHF-gello_software/csv/samestartgoal200/output110.csv
shoulder_pan_angle,shoulder_lift_angle,elbow_angle,wrist1_angle,wrist2_angle,wrist3_angle,end_eff_x,end_eff_y,end_eff_z,end_eff_roll,end_eff_pitch,end_eff_yaw,end_eff_w,end_eff_xq,end_eff_yq,end_eff_zq
-1.5111387411700647,-1.6569186649718226,-1.5277595520019531,-1.6380230389037074,1.4770034551620483,1.5874031782150269,-6.968394995772552,233.13175279570817,1079.2543346173322,-1.5701166189246445,0.05403129741477482,-0.0005679999146146702,0.7070943363322398,-0.7066030365447653,0.019307791111966986,0.018893318262363824
-1.426699463521139,-1.674065729180807,-1.5343562364578247,-1.6382690868773402,1.531690239906311,1.584177017211914,-7.624221082915589,233.12651052009784,1079.2529626968092,-1.5700962798187057,0.0537945496667233,0.0018609364826377961,0.7070803902575541,-0.7066209509000345,0.0183661271317995,0.019668218946677102
-1.2246416250811976,-1.6771594486632289,-1.5334395170211792,-1.643369813958639,1.539738655090332,1.570120930671692,-8.508777395969608,233.09913386726765,1079.2525908093648,-1.5700920989203893,0.053568148413038225,0.0055279866335991995,0.7070469868263972,-0.7066538860283673,0.01699048368002581,0.02088461742619108
-0.9923952261554163,-1.6780725918211878,-1.5265307426452637,-1.6396485767760218,1.5390633344650269,1.5650688409805298,-9.532784512855073,233.06413278676652,1079.2522087314223,-1.5700978355390431,0.05327858790819343,0.009569300330044078,0.7070045404465961,-0.7066910466673522,0.015460094731109897,0.022211029219845583
-0.8498185316668909,-1.6842934093871058,-1.5241564512252808,-1.6345287762083949,1.5396534204483032,1.5707346200942993,-10.242562653612113,233.04158796009986,1079.2506981068127,-1.570104011553745,0.053138183464160695,0.012067768795248396,0.7069756799117539,-0.7067130121472205,0.014527541798218125,0.023044674100912103
-0.7681759039508265,-1.7004925213255824,-1.5218768119812012,-1.6328026256956996,1.5392374992370605,1.6025100946426392,-10.855640485569241,233.03054375470467,1079.2467121340037,-1.5701136739787962,0.053340260458373714,0.013485311186939679,0.7069533709873049,-0.7067251275981187,0.014097981871228368,0.023617200898235498
-0.6875365416156214,-1.7296301327147425,-1.520580768585205,-1.6313845119872035,1.5350956916809082,1.6493093967437744,-11.656173957247578,233.02089867442334,1079.2392644054166,-1.5701304102851341,0.05360139313959092,0.014820123651138623,0.7069283847456946,-0.7067385119760129,0.013718442253049827,0.024181374504440363
-0.6510246435748499,-1.7443605862059535,-1.521012783050537,-1.635122915307516,1.532201886177063,1.6668115854263306,-12.025093766425384,233.016062811683,1079.2354219793224,-1.57013659474109,0.053722656119720005,0.015406755971011318,0.7069175955685898,-0.7067438718536526,0.013553947650600995,0.024431601992429514
-0.6399801413165491,-1.8081304035582484,-1.5306999683380127,-1.627500673333639,1.5311431884765625,1.6631364822387695,-13.018518332447712,233.0243847331327,1079.2188191388668,-1.5701658984791502,0.05258195773707629,0.015579448355901436,0.7069189874873614,-0.7067629688192146,0.013089210453755959,0.024089906711964572
-0.6394208113299769,-1.885773321191305,-1.5647872686386108,-1.5316121776453038,1.5226701498031616,1.6448596715927124,-14.122500149135298,233.03694569373187,1079.1973353798535,-1.5702342099429425,0.04983016223495794,0.015437678504179719,0.7069289708901827,-0.7068035738054896,0.012165463935491911,0.02306815248712087
-0.6395209471331995,-1.9435912571349085,-1.6028075218200684,-1.42247128606353,1.5195491313934326,1.6374493837356567,-14.90520946145738,233.04585571488892,1079.1806543513246,-1.5702951583290892,0.04745124886456318,0.0153784375379377,0.7069350355721439,-0.7068387365357162,0.011344530294362953,0.022207153027893174
-0.6387227217303675,-2.0252067051329554,-1.6495370864868164,-1.2886935633471985,1.5197527408599854,1.605790376663208,-16.046147714932623,233.0583219504709,1079.1555385055676,-1.5703733074429078,0.043955994799643544,0.015392096797036906,0.7069450118103361,-0.7068851567917216,0.010102956844079827,0.020977503355584196
-0.6382840315448206,-2.0775681934752406,-1.6741081476211548,-1.2265012127212067,1.5191872119903564,1.5892866849899292,-16.78190330296234,233.06640204750855,1079.138551932387,-1.5704151673140796,0.04209801211268125,0.015387967912195467,0.7069494451844933,-0.7069090061344748,0.009447018683229488,0.020319764696096573
-0.6381805578814905,-2.1052586040892542,-1.6964738368988037,-1.1457820695689698,1.5177710056304932,1.5861698389053345,-17.17131170628981,233.07076984030493,1079.1288393209252,-1.570455352889671,0.040542400939055166,0.01536337905871307,0.7069510779155465,-0.7069302295436525,0.008905262623183186,0.019761586196905028
-0.6373189131366175,-2.1191631756224574,-1.708324670791626,-1.112951712017395,1.5164794921875,1.5860702991485596,-17.35040504716161,233.07252423111765,1079.1240661414463,-1.5704717756105926,0.03993204243096898,0.015355217007056743,0.706951351604156,-0.7069386818572093,0.008692172756510012,0.01954309831677891
-0.6367500464068812,-2.141632219354147,-1.7126754522323608,-1.095207230453827,1.47466242313385,1.5880781412124634,-17.633009312490675,233.07736442600347,1079.1152120167142,-1.5704968498997944,0.03934160391312421,0.014634369385464476,0.7069551507684445,-0.7069469749914455,0.008737961427538545,0.01907976369092872
-0.6366494337665003,-2.148378988305563,-1.7163974046707153,-1.0900299710086365,1.3295685052871704,1.5903955698013306,-17.466219444612296,233.0816475940875,1079.1100854796932,-1.5705296352781346,0.0392396568175769,0.012102651529619292,0.7069680741393003,-0.7069474265898348,0.009596506012445931,0.018148974024222393
-0.6356561819659632,-2.1502376995482386,-1.7188597917556763,-1.0880490106395264,1.0778248310089111,1.5889222621917725,-17.044734285511286,233.08581724082953,1079.1045571331508,-1.5705805775348998,0.03919096930771815,0.007724516828737852,0.7069885071285091,-0.7069430043524648,0.011126401098186784,0.016584407855422013
-0.6346715132342737,-2.148797651330465,-1.7188334465026855,-1.0871544939330597,0.8379736542701721,1.5904959440231323,-16.610576291500738,233.08764128280052,1079.1002554978834,-1.5706284520064397,0.03922829815299417,0.0035539135506995,0.7070043493720819,-0.7069349540903775,0.012613400296623162,0.015123583806502002
-0.6341093222247522,-2.147867818871969,-1.716536283493042,-1.0856225055507203,0.5800321102142334,1.5931276082992554,-16.17201338592322,233.0881478639108,1079.0953078148918,-1.5706806370087683,0.03922426849511679,-0.0009399487430087855,0.7070181283869792,-0.7069233048420455,0.014200023626551773,0.01353390307259694
-0.6337779203998011,-2.1476556263365687,-1.7121776342391968,-1.0681554240039368,0.3280501365661621,1.5946134328842163,-15.799775549678769,233.08739309157514,1079.0903575254142,-1.5707330573061271,0.038873377933370847,-0.005333846617761526,0.7070297187744561,-0.7069116864031506,0.015628716567148062,0.011856964823712532
-0.633606259022848,-2.1475774250426234,-1.704384684562683,-1.0423854154399415,0.08823816478252411,1.5951380729675293,-15.494119534624339,233.08547230898688,1079.0859079065985,-1.5707802096470396,0.03829828402331326,-0.009517935986106875,0.7070392662570135,-0.7068990027939421,0.016904058218982342,0.01017490223066231
-0.6301572958575647,-2.145888944665426,-1.6972501277923584,-1.034579114322998,-0.03434354463686162,1.596982479095459,-15.34290269506972,233.0828219136916,1079.0841108037673,-1.570802461036816,0.03809918792975093,-0.011597929858310955,0.7070425373681756,-0.7068906591553487,0.017568747653395847,0.009369389349356341
-0.6282222906695765,-2.144022127191061,-1.683135986328125,-1.0365021985820313,-0.07014829317201787,1.5980370044708252,-15.376494467721841,233.08252887833328,1079.0835312494992,-1.570808635431036,0.0379373951993541,-0.012189271148003174,0.707043833129459,-0.7068890523281256,0.017720541426726383,0.00910319415314079
-0.6275718847857874,-2.13308109859609,-1.6608850955963135,-1.0540712040713807,-0.07857972780336553,1.5974785089492798,-15.34991081728097,233.08201511983125,1079.0856571382596,-1.5708102648362172,0.0380368882512937,-0.012325129965637465,0.7070434226428973,-0.706887538177284,0.017803717295001444,0.009090352994021719
-0.6274645964251917,-2.076693197289938,-1.6145414113998413,-1.160563425426819,-0.08279019991029912,1.5960558652877808,-14.653566334680981,233.07434509016758,1079.098947579073,-1.5708139539634427,0.04004599980885425,-0.012396883084069306,0.7070329816691705,-0.706869936056356,0.018539148249217544,0.00977529098692579
-0.6290162245379847,-2.0391551456847132,-1.5710957050323486,-1.2448983949473877,-0.08308965364565069,1.5938509702682495,-14.272472665182153,233.0706264135373,1079.1066572804598,-1.5708160052537399,0.04137633046427015,-0.012429272895313577,0.7070257641395138,-0.706857865179592,0.019020758186470872,0.010234160185280172
-0.6325376669513147,-1.9802476368346156,-1.5158193111419678,-1.3610277634910126,-0.08048040071596319,1.5927127599716187,-13.59281462982142,233.06416415698183,1079.1189089188306,-1.570818327443211,0.04344667851552631,-0.012445296480704266,0.7070140587021143,-0.7068384590861349,0.019758104674937254,0.010960422161405088
-0.6363537947284144,-1.919314523736471,-1.4648475646972656,-1.4588851493648072,-0.0778573195086878,1.5932327508926392,-12.874405598346028,233.0572683742548,1079.1315380772294,-1.5708201715502932,0.04533754554712816,-0.012466207395652592,0.7070028506048561,-0.7068199012740698,0.020433729212455204,0.011621493449370881
-0.6377375761615198,-1.8811718426146449,-1.419026255607605,-1.539126717751362,-0.057258431111471,1.595620036125183,-12.548142126721762,233.0540524557721,1079.1387077381314,-1.5708151307528482,0.04664568056230739,-0.012130668879875187,0.7069948426322701,-0.7068080987214619,0.02077747179223649,0.012202489051285395
-0.6380370298968714,-1.8516847095885218,-1.3786154985427856,-1.62538542369985,-0.043851677571431935,1.5965317487716675,-12.295340151136749,233.05133688395748,1079.1430090068125,-1.570811736108993,0.047976441669096065,-0.01190178729725792,0.7069863118217098,-0.7067953441802771,0.021166890106425355,0.012753787870359572
