zahirmahammad/RLHF-gello_software/csv/samestartgoal200/output158.csv
shoulder_pan_angle,shoulder_lift_angle,elbow_angle,wrist1_angle,wrist2_angle,wrist3_angle,end_eff_x,end_eff_y,end_eff_z,end_eff_roll,end_eff_pitch,end_eff_yaw,end_eff_w,end_eff_xq,end_eff_yq,end_eff_zq
-1.37787372270693,-1.5706164163460308,-1.614529013633728,-1.5418847606382151,1.4370357990264893,1.5685721635818481,-5.4832072709422786,233.06791594614972,1079.2711529384446,-1.570101258701466,0.05504542027936845,0.0010612121683732274,0.7070741684383335,-0.7066035174598714,0.019090874139647853,0.01982745483314589
-1.2543781439410608,-1.558944454682507,-1.6394610404968262,-1.5396340650371094,1.4945701360702515,1.5689949989318848,-5.6887154843639625,233.0464973774921,1079.2758967357559,-1.5700577558561861,0.055651462104030575,0.00422279919158279,0.7070509287967791,-0.7066119596287762,0.018188589292716058,0.021158870875674845
-1.119094196950094,-1.5728589497008265,-1.6388415098190308,-1.540365533237793,1.513291597366333,1.5692124366760254,-6.498132676213828,233.03662438205657,1079.2741660459417,-1.5700548854316747,0.05541419850136631,0.006910733245483081,0.7070254869782067,-0.7066367897696816,0.01715505006849474,0.02202526649954804
-0.9802950064288538,-1.5961061916747035,-1.628872275352478,-1.5412839104286213,1.5184834003448486,1.5692380666732788,-7.527567451106615,233.02791538476865,1079.2699191582226,-1.5700673200977722,0.05485106879248768,0.009423130401001166,0.7069992944340701,-0.7066667255493152,0.016068101233559916,0.022714594292750127
-0.8549826780902308,-1.6347657642760218,-1.6067674160003662,-1.5377722543529053,1.5208568572998047,1.5692534446716309,-8.855719129822683,233.02299994240653,1079.2620107728926,-1.5700960319173085,0.053729873668724386,0.011650094948091083,0.7069764887777044,-0.7067027743457268,0.014884442228687442,0.023105982496783462
-0.7834818998919886,-1.6628266773619593,-1.589176893234253,-1.5353093904307862,1.5214552879333496,1.568477988243103,-9.751795344602112,233.02001704965406,1079.2557227728723,-1.5701181085346314,0.052876875815840135,0.012907274503465065,0.7069640081284649,-0.7067258820892178,0.014138332258733698,0.02324922272022162
-0.7088821570025843,-1.706463476220602,-1.5504271984100342,-1.5323051002672692,1.5228270292282104,1.5689334869384766,-11.093617797093275,233.01990777678526,1079.2448733723534,-1.5701571962826966,0.051394986603508344,0.014231187980771132,0.7069520365248204,-0.7067588260989693,0.013146043545756478,0.0231939932678456
-0.6556943098651331,-1.7468263111510218,-1.5258251428604126,-1.532244661157467,1.5450990200042725,1.5825825929641724,-12.205716630907867,233.01872454493676,1079.2349250056625,-1.57017851263567,0.0504984655321476,0.015547167759620152,0.7069396271956272,-0.7067804643981341,0.012363732150125612,0.023342595677972387
-0.6415675322162073,-1.765308519402975,-1.5174530744552612,-1.5285113614848633,1.5547726154327393,1.6091670989990234,-12.654050434348967,233.01963022641303,1079.2301178429013,-1.570189147305372,0.0504286909819676,0.015962266845685028,0.7069318283213577,-0.706787199548134,0.012192242179408012,0.023464737197916877
-0.6374495665179651,-1.8259598217406214,-1.5290437936782837,-1.4763842237046738,1.557941198348999,1.6187033653259277,-13.637876574278215,233.029330308752,1079.2135458408202,-1.5702360200877876,0.048829691637376035,0.016087200121520744,0.7069323715156837,-0.7068140030061707,0.01158213017437717,0.02294431341810202
-0.6389806906329554,-1.947648664514059,-1.5962570905685425,-1.2487711769393464,1.5596426725387573,1.6221257448196411,-15.400562047886988,233.04934250233634,1079.1773288684863,-1.5703696445425508,0.043967858471736385,0.016084000144288436,0.7069388810105612,-0.7068872564657741,0.009862641936848878,0.02122624450655396
-0.6404660383807581,-2.0365778408446253,-1.6222121715545654,-1.1382015508464356,1.5580682754516602,1.6237733364105225,-16.784071397253282,233.06534951161262,1079.147545253137,-1.570452546619291,0.040968837712783146,0.0160270916487412,0.7069411926452626,-0.7069302905908741,0.008821473493293593,0.0201468605942269
-0.6410401503192347,-2.1325274906554164,-1.6292084455490112,-1.0085041683963318,1.5553058385849,1.623403787612915,-18.477521948174534,233.08462182734644,1079.110484848196,-1.5705568508746297,0.037147635709793805,0.015964785780187098,0.7069421162657932,-0.7069824778064107,0.007491376524251648,0.018774972759548817
-0.6451709906207483,-2.1986566982665003,-1.6254528760910034,-0.9685363930514832,1.554201364517212,1.6190482378005981,-19.61843828319265,233.09904239153266,1079.0837611282514,-1.5706090705390836,0.03515503860839644,0.01587150928382866,0.7069428550782558,-0.7070077271990003,0.006819340437214095,0.01803801349122179
-0.6469052473651331,-2.2230869732298792,-1.6296125650405884,-0.9857891959002991,1.5362012386322021,1.6192508935928345,-19.9051571351681,233.1037969632409,1079.0750372797759,-1.5706126519116719,0.03510598277026098,0.015526961618300068,0.7069451253041215,-0.7070079777885235,0.006923762567041321,0.017898901196385746
-0.64551288286318,-2.224110265771383,-1.6343799829483032,-1.0334459704211731,1.2993026971817017,1.6188205480575562,-19.39156604566969,233.10765247894778,1079.0735620268244,-1.5706206114382266,0.03599605660539934,0.011416428786008936,0.7069702157961869,-0.7069912712890598,0.008691464568993357,0.016760511382954993
-0.6445539633380335,-2.2231131992735804,-1.6371159553527832,-1.0572588604739686,1.0303735733032227,1.6156771183013916,-18.847133715937428,233.110663294476,1079.070969877032,-1.5706483235135873,0.036422621901867215,0.006738603818611191,0.7069944490465137,-0.7069765832120983,0.010495629066317194,0.015257836598477001
-0.6443575064288538,-2.221236368218893,-1.6340218782424927,-1.0739109081080933,0.7306779026985168,1.5632554292678833,-18.294543062275437,233.11238146475833,1079.067257504067,-1.5706879341327984,0.03577771834087037,0.0015099923023547007,0.7070222078717452,-0.7069646743464152,0.012115592370939668,0.013181776205462676
-0.642456356679098,-2.215963979760641,-1.6233693361282349,-1.0741732877543946,0.44460082054138184,1.491642951965332,-17.811647221752224,233.11137330626332,1079.064174510426,-1.5707310678061446,0.03443896061105102,-0.003451257627368275,0.7070449770774958,-0.7069568184594894,0.013395771248670163,0.010954932029605995
-0.6397922674762171,-2.2096368275084437,-1.6051899194717407,-1.0738178354552765,0.19174572825431824,1.4477436542510986,-17.438426728710745,233.1086971272017,1079.0615500279737,-1.5707688962707287,0.0334599157033208,-0.007819081953283293,0.7070583668778802,-0.7069464792845108,0.014593417763033354,0.009064955224015772
-0.6386025587665003,-2.199401994744772,-1.5815448760986328,-1.1206477743438263,0.06550717353820801,1.5199233293533325,-17.181615238703134,233.10591123920022,1079.0612665978451,-1.5707862876710244,0.035303013128349325,-0.010002091083742386,0.7070537497665503,-0.7069218181320195,0.01601644825190377,0.008944907790159827
-0.6389926115619105,-2.1916285953917445,-1.5646681785583496,-1.1882791382125397,0.02929331734776497,1.6125279664993286,-17.01993950838609,233.1042948157082,1079.0613525071028,-1.5707913144781023,0.0379407808562495,-0.010641094540537447,0.7070426803681232,-0.7068964054294515,0.01717462186244582,0.00965155389885445
-0.6404250303851526,-2.146660467187399,-1.5395278930664062,-1.2949500542930146,0.017379511147737503,1.7057875394821167,-16.304303366414455,233.09679445218643,1079.0729036024159,-1.5707926823268172,0.041776288032735434,-0.010874065348936247,0.7070236647123497,-0.7068604891974302,0.018612580891246462,0.0109251169721542
-0.6418336073504847,-2.105295797387594,-1.507351040840149,-1.3879941415837784,0.013729059137403965,1.7696373462677002,-15.744877272783866,233.0909941166103,1079.0826195561422,-1.5707930195258855,0.04467496088481617,-0.010962367489614168,0.7070074956077876,-0.7068320224818679,0.019668248768437396,0.011918604741296952
-0.6433966795550745,-2.046891828576559,-1.4557257890701294,-1.4724892762354393,0.012616247870028019,1.7586692571640015,-15.098481014163728,233.0842364753333,1079.0964870132848,-1.5707929362912432,0.04607656087325883,-0.011009065271767138,0.7069992884697027,-0.7068175650184789,0.020180097342549795,0.012397562499438353
-0.6432459990130823,-2.003939291039938,-1.3940035104751587,-1.540176823069789,0.014081351459026337,1.729426622390747,-14.826613917519682,233.08113697692522,1079.1051152505615,-1.570792332468362,0.04641995727064889,-0.010980841678346277,0.7069971860575569,-0.7068141626899087,0.02029148612264895,0.01252892328150828
-0.645797077809469,-1.9513379536070765,-1.333855152130127,-1.675915380517477,0.015066874213516712,1.7167164087295532,-14.256663830104452,233.0754890959746,1079.1142421734307,-1.5707914635513789,0.04843548643082748,-0.011008128151315825,0.7069846884254393,-0.7067927610055752,0.021013429517511763,0.013231745992611475
-0.6495698134051722,-1.9227978191771449,-1.295855164527893,-1.734199663201803,0.019705796614289284,1.703605055809021,-14.01762006917323,233.07388871190648,1079.1192674177141,-1.5707896726391744,0.049058796698734614,-0.010992938840244937,0.7069810610293137,-0.7067857059296068,0.021228349409967442,0.01345742994713036
-0.652325455342428,-1.8974343738951625,-1.2569961547851562,-1.7554980717101039,0.0401492714881897,1.6687365770339966,-13.93271260404682,233.0737049543653,1079.1249495803265,-1.570782674176814,0.048586408620958886,-0.01068395963718094,0.7069846314655638,-0.7067914716389012,0.02095226396159261,0.013399594206574422
