zahirmahammad/RLHF-gello_software/csv/samestartgoal200/output75.csv
shoulder_pan_angle,shoulder_lift_angle,elbow_angle,wrist1_angle,wrist2_angle,wrist3_angle,end_eff_x,end_eff_y,end_eff_z,end_eff_roll,end_eff_pitch,end_eff_yaw,end_eff_w,end_eff_xq,end_eff_yq,end_eff_zq
-1.384974781666891,-1.594499250451559,-1.530196189880371,-1.7239448032774867,1.3961447477340698,1.582826852798462,-6.172344730356031,233.0877112306161,1079.2636497053209,-1.5700895350697412,0.05658314443145925,0.00022470601387372612,0.7070713047704156,-0.7065762222433802,0.019930175650917425,0.020074865605001248
-1.2668049971209925,-1.6349679432311,-1.4996633529663086,-1.7330366573729457,1.399741291999817,1.5855579376220703,-7.552935118101299,233.0942321007275,1079.2549593948395,-1.5701141806340073,0.05555056195562354,0.0023485559950147815,0.7070515455744575,-0.7066155016927875,0.018814511177034105,0.020461154351360783
-1.1620257536517542,-1.6755606136717738,-1.4801626205444336,-1.733647962609762,1.399481177330017,1.586904525756836,-8.79443165901784,233.09657730409614,1079.2453698823274,-1.5701397288119436,0.05453621936631359,0.004171370782678762,0.7070341961940668,-0.7066505050356718,0.01781159333745396,0.020747440512530156
-1.0377629438983362,-1.7281075916686,-1.4530366659164429,-1.687465330163473,1.3991159200668335,1.5819315910339355,-10.453164777608656,233.09786106267308,1079.2318364371133,-1.5701936694203662,0.05225349173723249,0.006330859763730156,0.7070164262104697,-0.7067073759948079,0.01624091530488818,0.020704841297827844
-0.9134615103351038,-1.7730137310423792,-1.4249882698059082,-1.6533833942809046,1.4000030755996704,1.5840562582015991,-11.978881614871426,233.0908608757262,1079.2188556276058,-1.5702390321136896,0.050422984699656725,0.008513502141285026,0.7069967483644257,-0.7067545658319901,0.014821960115757716,0.020830049834097447
-0.8114565054522913,-1.8236543140807093,-1.3939173221588135,-1.6415039501585902,1.3993821144104004,1.58976411819458,-13.490321648619517,233.08472164315106,1079.2028515114994,-1.570279251419873,0.04888962901736763,0.010281047250371959,0.7069800972878277,-0.7067922742348878,0.013654754563261352,0.020913411930770683
-0.7222922484027308,-1.8611136875548304,-1.3890271186828613,-1.6366144619383753,1.4000535011291504,1.6077929735183716,-14.503971743991682,233.07162353074347,1079.1913600603489,-1.5702991800291324,0.048380055106508495,0.011848163038927623,0.706961898907684,-0.7068131131490273,0.012920547988097188,0.02128746140593145
-0.6844208876239222,-1.8699289760985316,-1.3905036449432373,-1.6384521923460902,1.4004647731781006,1.6605799198150635,-14.783892600636424,233.06347193065469,1079.1887892311333,-1.570301362877221,0.049205375046266084,0.012516669562540854,0.7069450277895852,-0.7068128739123123,0.012976088025472225,0.02181536373649038
-0.6684530417071741,-1.8711925945677699,-1.4030276536941528,-1.6385647259154261,1.4015846252441406,1.681935429573059,-14.763292538664619,233.05829697606544,1079.1892412369566,-1.5702960929850485,0.0497765247696045,0.012815348061269976,0.7069373337091541,-0.7068092399073979,0.013072539182510915,0.022122687654089854
-0.656198803578512,-1.8939677677550257,-1.4594000577926636,-1.61741366008901,1.4008760452270508,1.6731665134429932,-14.729123277333896,233.0542019948532,1079.1855620616495,-1.5702910281121178,0.04984064604170681,0.013017035735906318,0.706936177002559,-0.7068083474937962,0.013023990146442732,0.022216598271583947
-0.6528561750995081,-1.9462439022459925,-1.5224847793579102,-1.5118870076588173,1.3997008800506592,1.656274676322937,-15.219075529676315,233.05882029541772,1079.172326605374,-1.5703319196476941,0.047893190187223995,0.013052728905953381,0.7069426452194183,-0.7068353574683209,0.01232234254637277,0.021541440921454665
-0.6513884703265589,-1.9821015797057093,-1.5643137693405151,-1.431497336631157,1.3992178440093994,1.648305058479309,-15.578664067702958,233.06247128813757,1079.162711191595,-1.5703638561987319,0.04645564048891741,0.013068347697286289,0.7069464987066333,-0.7068554057227526,0.011808192019965188,0.021039248279693286
-0.6433938185321253,-2.021026750604147,-1.6181135177612305,-1.3435345751098176,1.3997859954833984,1.647003173828125,-15.926106643160148,233.06380768267277,1079.1524390304621,-1.5703948952766362,0.04515766573128033,0.013216364603949239,0.706947511985355,-0.7068747239149891,0.011296616876690315,0.020633139241655024
-0.6374114195453089,-2.0527192554869593,-1.671712875366211,-1.2510299247554322,1.4003450870513916,1.6473028659820557,-16.159261436866554,233.06444298290327,1079.1440675531137,-1.570424894115468,0.04393109683753846,0.013329200117040037,0.7069482921496187,-0.7068927295699937,0.010822741225291586,0.020239796940475736
-0.6357482115374964,-2.0721966228880824,-1.698128342628479,-1.197627232675888,1.4005335569381714,1.646647572517395,-16.34410778142212,233.06594184699023,1079.138406861367,-1.5704446947725335,0.043108940991981946,0.013360652050023136,0.7069492418438553,-0.7069042803455815,0.010520730145037075,0.019960514089297332
-0.6351779142962855,-2.098865648309225,-1.7070121765136719,-1.1646447044662018,1.4004703760147095,1.6460968255996704,-16.75408537265971,233.0703012948178,1079.129466489467,-1.5704663970206338,0.04221353011011717,0.01336857416962662,0.7069503604640309,-0.7069166282062357,0.010201119634637879,0.0196470293811384
-0.634320084248678,-2.112619539300436,-1.7083618640899658,-1.1553049248507996,1.4005504846572876,1.646028757095337,-16.982405467499238,233.072536218602,1079.1247091625642,-1.5704756664905535,0.04183295101487347,0.013384554359708577,0.7069506546114221,-0.7069219122869923,0.010060817420260857,0.019518243410202005
-0.6257789770709437,-2.133395334283346,-1.707899808883667,-1.1544425648501893,1.3935880661010742,1.6410542726516724,-17.342868575720317,233.07385477193137,1079.1173514006252,-1.5704866546243328,0.04136056149989118,0.013411633528232719,0.7069510997860099,-0.7069282853423713,0.00988411452512908,0.019360944561147793
-0.6207459608661097,-2.1405703030028285,-1.708198070526123,-1.1565971237472077,1.3383737802505493,1.6398760080337524,-17.375844352956026,233.074754083738,1079.1137061822767,-1.5705008493845731,0.041257894765850824,0.01253529021013503,0.7069554752001515,-0.7069294261414142,0.010157434516585729,0.019014969469868515
-0.6160453001605433,-2.1424533329405726,-1.7060589790344238,-1.156909392481186,1.173922061920166,1.644296407699585,-17.157075809045324,233.07703719212284,1079.1093122694924,-1.5705384779473353,0.041271105414151424,0.00974580542769234,0.7069678892156681,-0.7069277991763208,0.011147740243592469,0.018033808724944207
-0.6151621977435511,-2.143606802026266,-1.7014410495758057,-1.1558953088572999,1.013881802558899,1.6465950012207031,-16.942355135830375,233.07974022697766,1079.1051307087923,-1.570575724293143,0.04119348385713125,0.0069666820599131145,0.7069797620605042,-0.7069252626142679,0.012102289031435346,0.017024209668021376
-0.6150468031512659,-2.1436549625792445,-1.6950074434280396,-1.1504626137069245,0.7923697233200073,1.6479523181915283,-16.623249449355598,233.08234515385462,1079.0999461294687,-1.5706267970470247,0.04101000622217589,0.003100781939262575,0.7069947300130291,-0.7069198354949557,0.013403454029506764,0.01559311827915132
-0.614380184804098,-2.1503716907896937,-1.6828407049179077,-1.1246788960746308,0.5541777014732361,1.6480563879013062,-16.46868997726986,233.085330979142,1079.0921455888692,-1.5706853065429605,0.040232868244490246,-0.0010469022232875505,0.7070103038277955,-0.7069169259279785,0.014594335589218334,0.013852634643805276
-0.6138847509967249,-2.1622630558409632,-1.6626131534576416,-1.0863378208926697,0.3236183226108551,1.642966389656067,-16.50051954255412,233.0885783164802,1079.083013541137,-1.5707384487297478,0.03891464547192861,-0.0050641492460474944,0.7070259610204851,-0.7069153727812637,0.015547945269726577,0.011966936386405344
-0.613692585621969,-2.1674872837462367,-1.6490755081176758,-1.0662244123271485,0.13858391344547272,1.6404509544372559,-16.414449928988418,233.08889013151793,1079.0776214514135,-1.570773184342308,0.038192376590439885,-0.008291437537741485,0.7070359374636676,-0.7069076238800526,0.01643315283711121,0.010570994416947624
-0.6143325010882776,-2.168668409387106,-1.6410927772521973,-1.0602562588504334,0.005541470367461443,1.640654444694519,-16.27839845811509,233.08793343816944,1079.0747519577294,-1.5707954269805624,0.03793185270167553,-0.010625377999069801,0.7070411940466605,-0.7068980708630549,0.01716589137080891,0.009653989051653957
-0.6149228254901331,-2.166483064691061,-1.633479118347168,-1.059621350174286,-0.05683499971498662,1.6411933898925781,-16.199082280640038,233.08722709205207,1079.0741210633023,-1.5708054504853848,0.037835431387434934,-0.011724689043143862,0.7070432967134195,-0.706892917776078,0.017520313309713494,0.009231359172518999
-0.6159408728228968,-2.1612497768797816,-1.619908094406128,-1.068109707241394,-0.07526952425111944,1.6413567066192627,-16.180915398274887,233.08732715903193,1079.0747543985615,-1.5708084132260605,0.03784090722089845,-0.012064298984431064,0.7070437819360668,-0.7068909316424096,0.017642268875649545,0.009113261556070154
-0.6172702948199671,-2.1345397434630335,-1.574183702468872,-1.1393345457366486,-0.07873040834535772,1.6405717134475708,-16.010819389951674,233.0859201377553,1079.0798719676447,-1.5708102224203335,0.03873844967766364,-0.012147971870724387,0.7070393755432112,-0.7068828306742488,0.017989060513352122,0.009401001610160026
-0.6187155882464808,-2.0970689258971156,-1.522495150566101,-1.2281289857677002,-0.07884532610048467,1.6392412185668945,-15.69455942394939,233.08297185295982,1079.087593473012,-1.5708120358924373,0.04001683595977513,-0.01217527362562954,0.7070327157006263,-0.7068715769948558,0.018450525669613884,0.009843305761668614
-0.62177020708193,-2.0554853878416957,-1.4543355703353882,-1.3622198712876816,-0.07766420045961553,1.6386209726333618,-15.370794602738309,233.08043229511196,1079.0943628036919,-1.5708143473580622,0.041882497233091176,-0.01220806825701877,0.7070225814038021,-0.7068545617708478,0.019121477030191108,0.010491282334884236
-0.6252072493182581,-2.016550680200094,-1.3836374282836914,-1.4911291983774682,-0.07699090639223272,1.6383788585662842,-15.11776651565644,233.07874695747768,1079.0996818780982,-1.5708164727007228,0.043573785905966195,-0.012256396635058875,0.7070129736198671,-0.7068384135210527,0.01973627530299773,0.01107211548886771
-0.6276872793780726,-1.9866916141905726,-1.326351284980774,-1.5852543316283167,-0.07427770296205694,1.6383191347122192,-14.962740328781221,233.07781944995315,1079.1034134747747,-1.5708172742038118,0.04473684416669262,-0.01225236807472631,0.7070061091523369,-0.7068271405697791,0.02014588243774961,0.011484702696540637
-0.6303003470050257,-1.9696608982481898,-1.2863186597824097,-1.6479937038817347,-0.07014352480043584,1.6383179426193237,-14.921350604419205,233.07817226901838,1079.1048192483863,-1.5708169587532124,0.04543037387487699,-0.012225815275470113,0.7070020399908895,-0.7068202712503857,0.020381596719761117,0.011739255232112411
