zahirmahammad/RLHF-gello_software/csv/samestartgoal200/output80.csv
shoulder_pan_angle,shoulder_lift_angle,elbow_angle,wrist1_angle,wrist2_angle,wrist3_angle,end_eff_x,end_eff_y,end_eff_z,end_eff_roll,end_eff_pitch,end_eff_yaw,end_eff_w,end_eff_xq,end_eff_yq,end_eff_zq
-1.5537903944598597,-1.5720769367613734,-1.5546139478683472,-1.667410512963766,1.3825323581695557,1.5953288078308105,-4.992059298265486,233.09207334581254,1079.2678695213879,-1.5701005100941996,0.056632365035576476,-0.0029596323541042097,0.7070980270287995,-0.7065469566213082,0.021072435262470702,0.018966568831903875
-1.5503724257098597,-1.5708633861937464,-1.547355055809021,-1.65989412883901,1.3906993865966797,1.593104600906372,-5.076123572159956,233.09333036242455,1079.2686150042096,-1.5701021627870735,0.05635681899923337,-0.0027576148771466585,0.7070981419988653,-0.7065525506743704,0.02090364072630431,0.018940657899852144
-1.514055077229635,-1.5698814360988145,-1.5453273057937622,-1.6486193142332972,1.3933475017547607,1.5781633853912354,-5.249787288069827,233.09063914913955,1079.2690323657177,-1.5701060947129342,0.055881041999786156,-0.002077958711199036,0.7070948218522793,-0.7065658961003223,0.02049529603285719,0.019012896101529352
-1.4178813139544886,-1.5663261649063607,-1.5538984537124634,-1.6418987713255824,1.3931485414505005,1.5749622583389282,-5.521945535961637,233.07855953044538,1079.2697323589946,-1.5701038951978459,0.055919496585037955,-0.0004027966759072879,0.7070790487053885,-0.7065816545509169,0.019917099357912287,0.019618702483562966
-1.2881696859942835,-1.5682608704413106,-1.5549087524414062,-1.641153951684469,1.3929600715637207,1.5768111944198608,-6.072841636167418,233.0659918219851,1079.2693411510393,-1.5701046977706496,0.055922644008662176,0.001857787658446394,0.7070561064722288,-0.7066039690037235,0.019119547662630024,0.020419015296870156
-1.1507037321673792,-1.5740577183165492,-1.5549243688583374,-1.6404310665526332,1.392951250076294,1.5829169750213623,-6.7258465039807325,233.0526362013811,1079.2681966494024,-1.5701074651637683,0.05591572544074884,0.004256786031960175,0.7070302010815368,-0.7066274360185797,0.018269487688770316,0.0212646947779561
-1.010890309010641,-1.5911623440184535,-1.5552724599838257,-1.6030861339964808,1.3928029537200928,1.630678653717041,-7.629910067005536,233.04145416402932,1079.2649642425802,-1.5701305211081993,0.055805356479451985,0.006693679842236452,0.7069968406688246,-0.7066582809276162,0.017369208745170325,0.02208736897626446
-0.8642209211932581,-1.61668123821401,-1.5546011924743652,-1.5666257271407922,1.3918914794921875,1.698717713356018,-8.702342609408571,233.0283764514665,1079.2597468747297,-1.5701575461028288,0.0558997370962671,0.009236905821890469,0.7069575473828041,-0.7066885720094856,0.016503658664011517,0.02301994006043863
-0.7734397093402308,-1.6322747669615687,-1.5498778820037842,-1.558625923735537,1.3922427892684937,1.7177385091781616,-9.376112896121057,233.01839243817082,1079.2563945266152,-1.5701694132517765,0.055737636205430124,0.010827014003659778,0.7069367383982604,-0.7067069531782724,0.01588434317068436,0.023524835267189362
-0.6512935797320765,-1.6769896946349085,-1.5264626741409302,-1.5555922419628878,1.3926849365234375,1.7183399200439453,-10.795332311352295,233.0083422643923,1079.2459967964217,-1.5701994794297696,0.05450645273120905,0.012964930564011603,0.7069153817532707,-0.7067433262516369,0.014693206783557922,0.023845828016982682
-0.5694530645953577,-1.723480840722555,-1.4879510402679443,-1.555152491932251,1.3936824798583984,1.7187113761901855,-12.205108500900497,233.00334658736884,1079.2337704171389,-1.570235410688353,0.05302211402899149,0.014408795372950162,0.706903172879199,-0.7067767703922581,0.013657706068928212,0.023832080734698016
-0.5187862555133265,-1.7424646816649378,-1.4663114547729492,-1.5578054825640102,1.395014762878418,1.712795615196228,-12.898358946241661,232.99681769286252,1079.2282168182032,-1.570251048918346,0.05225633915919103,0.015315464916387415,0.7068959686036466,-0.7067934662894929,0.013066340420265674,0.023882134126108772
-0.4897540251361292,-1.767989297906393,-1.444920539855957,-1.5585899160108347,1.3957353830337524,1.6494245529174805,-13.608329960713103,232.99528124892345,1079.2205766383415,-1.5702704523761042,0.05034539853547883,0.015833160523217312,0.7069055833203957,-0.7068156575717468,0.012207463776302838,0.023390175502126135
-0.4833467642413538,-1.7886792622008265,-1.427013874053955,-1.562418059711792,1.3939365148544312,1.6277718544006348,-14.109353459769359,232.99784104779906,1079.2139841184087,-1.570285932314138,0.04936085951214528,0.015912632274173492,0.7069106281281733,-0.7068275174073833,0.011831070814320749,0.023070549159766245
-0.48196489015688115,-1.8042909107603968,-1.433539867401123,-1.5723306141295375,1.3950670957565308,1.6247248649597168,-14.293428577903068,232.9989540379691,1079.21000229065,-1.5702851676913292,0.04932209727867364,0.01595648913221494,0.7069108397031637,-0.7068277350520296,0.011801873910405387,0.023072352363564665
-0.4825065771685999,-1.8344856701292933,-1.476707100868225,-1.5681945828585704,1.3948816061019897,1.6270006895065308,-14.410582557063133,233.00010217745807,1079.2034993454854,-1.570281472685746,0.049515998803863884,0.015944001103675748,0.7069100492549347,-0.7068252085229758,0.011874892546072158,0.023136416875930592
-0.4838784376727503,-1.867714067498678,-1.5428019762039185,-1.5280844208649178,1.3936467170715332,1.6303865909576416,-14.436839896191307,233.0007682565397,1079.196791878835,-1.5702850080421555,0.0494487163347182,0.015898364939461517,0.7069101051595355,-0.7068265861955353,0.011867189400378446,0.02309653840374038
-0.4855278174029749,-1.8875800571837367,-1.6054733991622925,-1.4641770508936425,1.3930410146713257,1.6317722797393799,-14.320086761647639,233.00027680248314,1079.1933663416594,-1.5702942013714207,0.04910471731834543,0.01585856802761978,0.7069112763061921,-0.7068316304426409,0.011759512497633993,0.022960999602948045
-0.4954732100116175,-1.9539386234679164,-1.6670857667922974,-1.3301677417806168,1.3928900957107544,1.6262949705123901,-15.045303461733322,233.00938667406263,1079.17552809546,-1.5703532370469022,0.04658809775729203,0.015679485945509445,0.7069207248015754,-0.7068657444268475,0.010932285752321068,0.02200893750556157
-0.5062091986285608,-2.040361543694967,-1.6914558410644531,-1.1917739671519776,1.3938498497009277,1.622750163078308,-16.417564767596232,233.0246712017627,1079.1481274354078,-1.5704381692498823,0.043028804694042286,0.015505027045234057,0.7069305702991483,-0.7069132379907256,0.009734523070796457,0.02069013751942582
-0.5430362860309046,-2.1026317081847132,-1.6973414421081543,-1.1286192399314423,1.3943089246749878,1.6194267272949219,-17.324144020974035,233.0451683437771,1079.1266898973697,-1.5704888882680084,0.040885061062717616,0.014868138063717288,0.7069407293258329,-0.7069382916450669,0.009201141488351062,0.0197077655132468
-0.5551169554339808,-2.1454979381956996,-1.6911464929580688,-1.1155425769141694,1.3943521976470947,1.610456109046936,-18.036767005609363,233.05619472118295,1079.1110646952993,-1.5705153029886312,0.039644305473424866,0.014656936484958494,0.706945515302445,-0.7069522677141775,0.008836836383824997,0.019194788101661614
-0.5555570761310022,-2.1614352665343226,-1.6894296407699585,-1.113008276825287,1.390500783920288,1.6100356578826904,-18.30238333674137,233.05908889905766,1079.1051160153397,-1.570524639506169,0.03928473445465965,0.014581669026506193,0.7069463721075996,-0.7069568159912463,0.008736217169830961,0.019041160599711334
-0.5563238302813929,-2.1663948498167933,-1.6957799196243286,-1.090769962673523,1.370223879814148,1.6125006675720215,-18.327546105640653,233.06045757785893,1079.1029437158286,-1.5705373108958192,0.03896409693609437,0.014213925103277916,0.7069484053338173,-0.7069610882290464,0.008752718378488584,0.01879792134684273
-0.5622509161578577,-2.168009420434469,-1.7009605169296265,-1.0810125333121796,1.2310680150985718,1.6142046451568604,-18.05990360093525,233.06545345143826,1079.0999578128276,-1.570565935457074,0.03888639845749256,0.011680784107284637,0.7069622241023695,-0.7069599276663381,0.00962039977432751,0.017875185996761866
-0.5661709944354456,-2.16803040126943,-1.712661862373352,-1.0795375567725678,1.0149611234664917,1.6200333833694458,-17.570776152274327,233.06937572458142,1079.0966931779237,-1.5706032152446947,0.03916701119290519,0.007839376172172013,0.7069797508161002,-0.7069517771224808,0.01107714314799158,0.016616668109154877
-0.568056885396139,-2.1659513912596644,-1.725906252861023,-1.079780564909317,0.8089523315429688,1.6224766969680786,-17.05763667772854,233.07064235866986,1079.0942785052123,-1.570638568138572,0.03948193667331681,0.004209765726170525,0.706993822881969,-0.7069410527930989,0.012471167524810943,0.015445137198876023
-0.5687945524798792,-2.164168497125143,-1.731994390487671,-1.0783842366984864,0.6188748478889465,1.6236112117767334,-16.645881057767983,233.07092115519958,1079.0914944032263,-1.5706744125226504,0.03961519768240037,0.0008782075075999883,0.7070049481678843,-0.7069310581246596,0.013695610555421019,0.0143147677728515
-0.5738046805011194,-2.1632901630797328,-1.7333168983459473,-1.0741446775249024,0.381491094827652,1.6258268356323242,-16.194845080852183,233.07166531885122,1079.087216226938,-1.5707214117296666,0.03961869414639548,-0.003353958802036981,0.707017021978404,-0.7069170826036013,0.015192438389743117,0.012820248506795308
-0.5810497442828577,-2.1645151577391566,-1.7310439348220825,-1.0708898466876526,0.19643191993236542,1.6278629302978516,-15.88847187948161,233.07252558380577,1079.0831671989756,-1.5707581568743814,0.03953655619896269,-0.0067115508389186986,0.7070250379293417,-0.7069042434711094,0.016349939344480965,0.011604558887930546
-0.5855057875262659,-2.169777055779928,-1.7294585704803467,-1.0543965858272095,0.04784097522497177,1.6287386417388916,-15.738545328850291,233.0729643049836,1079.078869971353,-1.570787371027147,0.03914453293395912,-0.009383718723176901,0.7070316619386449,-0.7068954716185821,0.017155691520534117,0.010521571644592106
-0.5879691282855433,-2.1737901173033656,-1.729756474494934,-1.037910596733429,-0.04498511949648076,1.6290283203125,-15.657499553442438,233.0729158794098,1079.0762143495874,-1.570804470821782,0.03879701279958948,-0.011047409347472932,0.7070358412117265,-0.7068900737363684,0.017620800271407017,0.009810723358303897
-0.5888517538653772,-2.1739307842650355,-1.7220773696899414,-1.0341588419726868,-0.05562335649599248,1.6280593872070312,-15.710117430755627,233.0737185096457,1079.0757908094465,-1.5708062004618761,0.03857813889428813,-0.011248543299339763,0.7070372745625607,-0.7068908414736025,0.017614522446265303,0.009662257442135332
-0.5889838377581995,-2.158114572564596,-1.695624828338623,-1.0512886208346863,-0.0522845427142542,1.619840145111084,-15.659657913182182,233.0732469875148,1079.0795771871099,-1.5708057112717486,0.03854801863690463,-0.01119255810730797,0.7070373224461651,-0.7068914262352856,0.017584091323866236,0.009671396771682363
-0.5890701452838343,-2.115605970422262,-1.6661102771759033,-1.1058425170234223,-0.05270606676210576,1.6153645515441895,-15.137031659943064,233.0679000930921,1079.090649357405,-1.5708068726214122,0.03964883830576835,-0.011201465624843383,0.7070315265383823,-0.7068819711526803,0.017976307421493237,0.010057420722735248
-0.5890591780291956,-2.0686875782408656,-1.6283859014511108,-1.186296747331955,-0.0534284750567835,1.6141183376312256,-14.56914275980714,233.06205688970397,1079.1017745733695,-1.5708084780094496,0.041191744029817984,-0.01121394629913264,0.7070230562211296,-0.7068683447802114,0.01852602497208229,0.010598467726581035
-0.590919319783346,-1.9955593548216761,-1.533693552017212,-1.3749102366021653,-0.052694145833150685,1.613818883895874,-13.87774941944214,233.05547805531714,1079.1153885510912,-1.570810996218911,0.04410207789866092,-0.011233704055520707,0.7070061102935359,-0.7068413347260688,0.01956157209556088,0.011620345408993428
-0.5917733351336878,-1.9482842884459437,-1.4114761352539062,-1.5570795166170974,-0.05147296587099248,1.6137551069259644,-13.852356169302343,233.05546041144078,1079.119702889347,-1.5708123402744454,0.04597242730212572,-0.011227359343204065,0.7069944203841093,-0.7068232712670344,0.020220323332083085,0.012283780584647842
-0.5913499037372034,-1.9284678898253382,-1.322468876838684,-1.664621969262594,-0.05014163652528936,1.6137278079986572,-14.116348575754328,233.05806707092734,1079.1187237328609,-1.5708125128993071,0.04664131252506053,-0.011196744796236457,0.7069900199929682,-0.706816843209566,0.02044588971414397,0.012531056595651825
-0.5908234755145472,-1.9187056026854457,-1.2538145780563354,-1.7320133648314417,-0.0493548552142542,1.6137588024139404,-14.435782805971398,233.0612105308067,1079.116421774602,-1.5708123869319095,0.046790195878885624,-0.011173821454944508,0.7069889854671662,-0.7068155095816281,0.020490404943983895,0.012591788919839449
-0.5906437079059046,-1.9155203304686488,-1.210070252418518,-1.7780066929259242,-0.049143616353170216,1.6137397289276123,-14.681414035864666,233.06369023696126,1079.1137143704361,-1.5708123996917434,0.04688470899338262,-0.011166998339412587,0.7069883420635766,-0.7068146150014177,0.020521394632796206,0.012627611370246438
