zahirmahammad/RLHF-gello_software/csv/samestartgoal200/output195.csv
shoulder_pan_angle,shoulder_lift_angle,elbow_angle,wrist1_angle,wrist2_angle,wrist3_angle,end_eff_x,end_eff_y,end_eff_z,end_eff_roll,end_eff_pitch,end_eff_yaw,end_eff_w,end_eff_xq,end_eff_yq,end_eff_zq
-1.3650091330157679,-1.6017266712584437,-1.5615246295928955,-1.6688605747618617,1.2994261980056763,1.712325930595398,-6.028064266751136,233.08412857947738,1079.257762954611,-1.5701507033671454,0.058303860971301594,-0.0011161758679718375,0.7070458576458905,-0.7065665219315618,0.021011589945956855,0.020209363158338055
-1.3420665899859827,-1.607244154016012,-1.5675703287124634,-1.6773835621275843,1.301633596420288,1.7887182235717773,-6.1467670170004105,233.0822033885555,1079.2566369489964,-1.5701459563267752,0.05979506528185764,-0.000676099619589259,0.707027680012441,-0.706553713077122,0.02138332280791497,0.020891714598127872
-1.278851334248678,-1.6358281574644984,-1.5610384941101074,-1.6463214359679164,1.3022453784942627,1.805755615234375,-6.972347101718153,233.08794489539383,1079.251038631518,-1.5701719688579086,0.0589376925710721,0.0004365339854405277,0.7070158237308126,-0.7065836227130498,0.020686884951834704,0.020982418805582773
-1.1625660101519983,-1.6776982746519984,-1.5565729141235352,-1.6044684849181117,1.3023489713668823,1.8082245588302612,-8.226536612032147,233.08916187779238,1079.242129301238,-1.5702070019769947,0.05744199891214742,0.002465891840607,0.7069978314579409,-0.7066313605049978,0.019440780767535668,0.021171743144427137
-1.027518097554342,-1.699048181573385,-1.5494370460510254,-1.5784241161742152,1.3023275136947632,1.8075183629989624,-9.224000963814467,233.07716177597598,1079.2372590536584,-1.5702287025041568,0.056478189541036526,0.004821305662919717,0.7069752667352917,-0.7066703161533054,0.018267585152778296,0.02166406760136954
-0.9368503729449671,-1.7042533359923304,-1.5479650497436523,-1.5704680413221759,1.3032774925231934,1.8089348077774048,-9.704227284703833,233.0640576365859,1079.236084965194,-1.570234112231294,0.0562475699987943,0.006420040335791239,0.7069583715224705,-0.7066886402539054,0.017621096274753053,0.02214776820491089
-0.8565128485309046,-1.704578538934225,-1.551081657409668,-1.5684009355357666,1.3044979572296143,1.809807300567627,-10.015175201347855,233.04993670533304,1079.2361147615281,-1.5702332967886599,0.05627542401061422,0.007843543693678996,0.7069424012179933,-0.7067004765663328,0.017127962028138006,0.02266077443112995
-0.7623480002032679,-1.716137548486227,-1.5379981994628906,-1.568680099943169,1.31703782081604,1.8108396530151367,-10.716730168931653,233.03690224123173,1079.233670253807,-1.5702376842994221,0.055868210921822356,0.009705590864502445,0.706924181867801,-0.7067210037126996,0.016325975664855233,0.023175127193721622
-0.6961310545550745,-1.73736633876943,-1.5068588256835938,-1.5728088817992152,1.3384987115859985,1.8114659786224365,-11.623120904982203,233.03123744416084,1079.2285954445153,-1.570248300232876,0.05503722567843147,0.011235168970932324,0.7069122960548243,-0.7067435274752658,0.015491546276960162,0.023422298184925784
-0.662051026021139,-1.7535387478270472,-1.4869349002838135,-1.5747829876341761,1.3821523189544678,1.805198073387146,-12.263940380657731,233.02828436877863,1079.2255896380825,-1.570244834618584,0.05433203435686692,0.012591802466480145,0.7069058569946248,-0.7067578927933305,0.014762851929952673,0.02365266420344147
-0.6305549780475062,-1.7738100490965785,-1.479189395904541,-1.5752574406065882,1.4087355136871338,1.7644413709640503,-12.828220109697902,233.02518263592174,1079.2209831324014,-1.5702460974438464,0.0531398784453591,0.013604898987829848,0.7069075302444676,-0.7067741795210435,0.013983306122848139,0.02358961627279444
-0.6091092268573206,-1.810850282708639,-1.4824520349502563,-1.5702195574161415,1.4206311702728271,1.7112990617752075,-13.509469861110052,233.02616951192667,1079.21140891568,-1.570258312681468,0.051535006374730054,0.014185623034720641,0.7069152064601263,-0.7067933455044013,0.013210482580498758,0.023228017051035273
-0.6020377318011683,-1.864788671533102,-1.506452202796936,-1.5275250983289261,1.423135757446289,1.6667704582214355,-14.273786788749607,233.03212152109361,1079.1969677340483,-1.5702889355746619,0.049490524481557926,0.014350795632021882,0.7069259055872743,-0.7068183207633999,0.01242885595722665,0.02256432986849406
-0.6002891699420374,-1.9379750690855921,-1.549040675163269,-1.4043399703553696,1.4243462085723877,1.6238573789596558,-15.30263687044656,233.04233868615944,1079.1760901857117,-1.5703553627257976,0.046058349236037674,0.014398909273885237,0.7069396069238114,-0.7068623393151712,0.01119754666383254,0.02136914525670628
-0.5998571554767054,-2.021176954308981,-1.5847697257995605,-1.2841064792922516,1.4249211549758911,1.6059949398040771,-16.538975205161496,233.05512434486033,1079.1499445086006,-1.570428091810695,0.04282046510311016,0.014413125750923557,0.7069474342691752,-0.7069053056222163,0.01004689840837574,0.02023051891976338
-0.5997970739947718,-2.093562742272848,-1.6122502088546753,-1.2289202970317383,1.4237909317016602,1.6044670343399048,-17.55537263503638,233.0657937611227,1079.126279575775,-1.570471849943978,0.04104741925160551,0.014392606515072352,0.7069498288696391,-0.7069292989245342,0.009426799948223754,0.019596969816560464
-0.5997536818133753,-2.1560212574400843,-1.6167346239089966,-1.1615420442870636,1.3157731294631958,1.5872182846069336,-18.445723767218656,233.07958780015198,1079.100722805221,-1.5705467635235648,0.03855972613670622,0.012505163748775644,0.706964531171333,-0.7069585697831491,0.009213670834217319,0.01805105386453071
-0.6007393042193812,-2.1857310734190882,-1.6223050355911255,-1.12526227653537,1.1793837547302246,1.5776536464691162,-18.69522572634697,233.0877256133615,1079.0871353160244,-1.5705943577478005,0.03733906484544814,0.010105801091574995,0.7069792236107956,-0.7069698385683697,0.009629808937623722,0.016771747586784236
-0.6003716627704065,-2.187998434106344,-1.6306389570236206,-1.1183286172202607,0.9726684093475342,1.5417968034744263,-18.314199802120193,233.09034577183198,1079.0833658945123,-1.570630014927667,0.036698777914720364,0.006503092593902753,0.7070006104249301,-0.7069674031902919,0.010676651351305024,0.015272092229755575
-0.5943682829486292,-2.17655672649526,-1.6279596090316772,-1.115811602478363,0.6973353624343872,1.4298114776611328,-17.70437954976848,233.08882125382323,1079.08251614329,-1.570675770535056,0.03485394488291834,0.0018007192314408265,0.7070306450425209,-0.7069676005239488,0.011686329140909835,0.012957950894237133
-0.5901606718646448,-2.171633382836813,-1.610276460647583,-1.1268167060664673,0.4394894242286682,1.3914315700531006,-17.32718948353523,233.0879057286576,1079.078625293744,-1.570720583023135,0.0341539068164071,-0.0026274964533439635,0.7070457069725656,-0.70696042982182,0.013003878910982472,0.011145315207771471
-0.5859368483172815,-2.170751234094137,-1.5749924182891846,-1.2399244171432038,0.26962506771087646,1.391387701034546,-17.14108312226513,233.08637607668675,1079.0727793958029,-1.570743387772915,0.03552698270132501,-0.005519099070077529,0.7070459039334742,-0.7069391565080553,0.014511243482520326,0.0106086068438177
-0.5856855551349085,-2.1582218609251917,-1.5327610969543457,-1.3987504106811066,0.17372849583625793,1.4849590063095093,-16.861176117332313,233.0840740953016,1079.0701499887741,-1.5707553732448385,0.03941381225639484,-0.007188669496011734,0.7070294706118954,-0.7069003512916578,0.016475207781917436,0.011392478156068975
-0.585797135029928,-2.1225177250304164,-1.5140854120254517,-1.4573186051896592,0.1247907280921936,1.5629732608795166,-16.262940216653483,233.0782165689328,1079.0785722688017,-1.570764030311557,0.042094855138703674,-0.00804495960149827,0.7070157214702335,-0.7068731674595664,0.017725439037027068,0.012037588236418366
-0.585921589528219,-2.066306253472799,-1.4966793060302734,-1.4597775054029007,0.10544507205486298,1.6041321754455566,-15.474757162261454,233.07026419615306,1079.0950853593802,-1.5707677088506067,0.04353341985017745,-0.008384873863409407,0.7070077017292886,-0.7068584264782483,0.0183540050478634,0.012425985307706064
-0.5868991057025355,-2.004845281640524,-1.4625025987625122,-1.4642314103296776,0.10171127319335938,1.6149606704711914,-14.766740557576359,233.06332794665246,1079.1122149151308,-1.5707677371213131,0.044276349254916775,-0.008467089518095466,0.7070035479528046,-0.7068508040863651,0.018645641183513122,0.01265954222952684
-0.5904839674579065,-1.9520865879454554,-1.4058877229690552,-1.5228779588690777,0.1022477000951767,1.6156209707260132,-14.293067896057515,233.05951824825658,1079.1240803483981,-1.5707658770561488,0.045244144168373635,-0.00852021245818438,0.7069983414785072,-0.7068405368050257,0.019006478896821662,0.012982851603858567
-0.5952141920672815,-1.9303151569762171,-1.3667479753494263,-1.5799609623351039,0.10262734442949295,1.6153995990753174,-14.162877361798804,233.0595436459175,1079.1273323447722,-1.5707645203498766,0.045933431235112634,-0.008596083701126491,0.7069948055643134,-0.7068327341375603,0.019276916327836298,0.01319967248038322
