zahirmahammad/RLHF-gello_software/csv/samestartgoal200/output173.csv
shoulder_pan_angle,shoulder_lift_angle,elbow_angle,wrist1_angle,wrist2_angle,wrist3_angle,end_eff_x,end_eff_y,end_eff_z,end_eff_roll,end_eff_pitch,end_eff_yaw,end_eff_w,end_eff_xq,end_eff_yq,end_eff_zq
-1.4505603949176233,-1.6028653583922328,-1.5464589595794678,-1.6433383427061976,1.4293256998062134,1.5925976037979126,-6.097680500713149,233.0980671451318,1079.264077961552,-1.5701044758464588,0.055484632547458196,-0.00034181199146969044,0.7070825017194173,-0.706586773094706,0.019741807866313618,0.019486633161994713
-1.4448650519000452,-1.5879537067809046,-1.5705745220184326,-1.6533762417235316,1.554472804069519,1.5691900253295898,-5.8753399658905145,233.08560151722253,1079.2732640728218,-1.5700206375499153,0.0559305485432533,0.0019453245765347256,0.7070848292550027,-0.7065750115378064,0.019092274915100137,0.020451952140039847
-1.351309601460592,-1.5820709667601527,-1.5799205303192139,-1.6531816921629847,1.5877647399902344,1.5640168190002441,-6.139789442014713,233.0713704896366,1079.2761139826891,-1.5699967423148589,0.05610209899857923,0.004160256907413182,0.7070683626109576,-0.7065857028401167,0.01837066524637848,0.021295393750829422
-1.1749628225909632,-1.5804478130736292,-1.6038035154342651,-1.6259633503355921,1.595168113708496,1.5672606229782104,-6.686367307744929,233.04750984893124,1079.276787546491,-1.5699938466447734,0.05612873854942277,0.00736745616940858,0.7070340282772629,-0.70661300042382,0.017247013495443404,0.022438605472737967
-1.0112693945514124,-1.5801226101317347,-1.6285710334777832,-1.5958606205382289,1.5957072973251343,1.5688331127166748,-7.187661711827898,233.02452620789285,1079.2767815248744,-1.5699960159489348,0.056068768955258294,0.010233752423471713,0.7070010811654143,-0.706638245030688,0.016213084238624307,0.02343070187501817
-0.8524821440326136,-1.5851942501463832,-1.6592036485671997,-1.5743314228453578,1.5937089920043945,1.5604277849197388,-7.685589678658097,233.00160865526544,1079.275449168363,-1.569995062018402,0.05599243674668114,0.012970186274279422,0.7069696293132864,-0.7066600100499587,0.015219254534869161,0.02437104257576503
-0.7380722204791468,-1.598002096215719,-1.673925518989563,-1.5601981983384867,1.590981125831604,1.5606470108032227,-8.249226908986245,232.98719659249758,1079.2726767766171,-1.57000237046463,0.055783118196367124,0.014919020252824117,0.7069455838711715,-0.7066786026033155,0.014456555213278625,0.024986037681861847
-0.6568029562579554,-1.6285540066161097,-1.657463550567627,-1.5420695834657927,1.5887528657913208,1.5652740001678467,-9.237525827087163,232.98291019489207,1079.2665140884517,-1.5700350858050813,0.05472739229878601,0.016296817168773514,0.7069299969268331,-0.7067072227999529,0.013595978734972404,0.025100399392121116
-0.6217387358294886,-1.6639429531493128,-1.6163017749786377,-1.5147015315345307,1.5886807441711426,1.5662732124328613,-10.347219654157225,232.98771173804832,1079.25867070018,-1.5700855308210284,0.05293180671108606,0.01690484363931013,0.7069269599937229,-0.7067408655541403,0.012745538643210482,0.024681439068906012
-0.6090639273272913,-1.707466264764303,-1.5885506868362427,-1.5062997949174424,1.5872623920440674,1.5662422180175781,-11.345525244634745,232.99555003711984,1079.2480194231948,-1.5701247752427776,0.051541207062686355,0.01709926410570154,0.7069277333795626,-0.7067646039654768,0.012184610188763694,0.024259217524574977
-0.6065562407123011,-1.7547227344908656,-1.6074682474136353,-1.4930130776814003,1.5798101425170898,1.5680625438690186,-11.959555177900679,233.00180391431007,1079.2363992752123,-1.5701480006810118,0.050846837278512205,0.01701183464328209,0.706928957585334,-0.7067764728518229,0.011969684386869548,0.023983181734876655
-0.6053059736834925,-1.8339034519591273,-1.658450961112976,-1.3686084312251587,1.5618059635162354,1.568913459777832,-12.979000976948749,233.01311757553057,1079.2153850994337,-1.5702281303150911,0.0481994634877787,0.01671554293179062,0.706935183472466,-0.7068183586585012,0.011137305851745981,0.022943727910213388
-0.6038926283465784,-1.9418288669981898,-1.715041995048523,-1.184651182298996,1.5454699993133545,1.5691889524459839,-14.517347815441532,233.02972138572238,1079.1838431385618,-1.5703450231304417,0.044099315093362595,0.016449753548265708,0.7069422841828279,-0.70687970470172,0.009780114459011821,0.02140185217087081
-0.6077254454242151,-2.0210167370238246,-1.7455676794052124,-1.0595354002765198,1.5402171611785889,1.5684672594070435,-15.71517476903122,233.04380882538265,1079.1583992552728,-1.5704281971140523,0.04105485973589367,0.016287644040950868,0.7069462973672213,-0.7069224511620618,0.008760040282461051,0.020269247051836237
-0.6134379545794886,-2.085240503350729,-1.7606792449951172,-0.9754519027522583,1.5396231412887573,1.5687501430511475,-16.734940954658757,233.0565695862182,1079.1362393579323,-1.5704908758322722,0.03873593728186202,0.01617507688127507,0.7069482657688352,-0.7069538318956039,0.007979264068501862,0.019410317861475113
-0.6170066038714808,-2.123223444024557,-1.766987681388855,-0.9410117429545899,1.53999662399292,1.5691337585449219,-17.334478949069627,233.06420689450727,1079.1227656554063,-1.5705218465505344,0.03758912915337585,0.016118130631891672,0.706948874163662,-0.7069690191240066,0.007593604096534937,0.01898505976803084
-0.6179049650775355,-2.1461807690062464,-1.7755184173583984,-0.9234847587398072,1.5024538040161133,1.567488431930542,-17.590090555510415,233.0690074562464,1079.11422592628,-1.5705431741990994,0.037003087177794255,0.015446434890081974,0.70695313508461,-0.7069762306215472,0.0076236268041480724,0.018540616077717228
-0.6181047598468226,-2.1549278698363246,-1.7794344425201416,-0.9238506716540833,1.363732099533081,1.5672764778137207,-17.453838094097545,233.07363894230798,1079.1091398224492,-1.5705683997596758,0.03692206258859572,0.013020976034902283,0.7069668989903907,-0.7069757250451814,0.008452121102461102,0.01765473244260838
-0.6181491057025355,-2.157717367211813,-1.776432991027832,-0.9261893791011353,1.1169908046722412,1.5572367906570435,-17.091101037070466,233.0790260548663,1079.1039357934212,-1.570610809922669,0.036687487910981635,0.008712353300555298,0.7069901884186587,-0.7069720326098679,0.00989186989433294,0.016048971842926803
-0.6174305121051233,-2.1591130695738734,-1.7708646059036255,-0.9267202180675049,0.8694068193435669,1.5451653003692627,-16.732872602612,233.0823803289354,1079.09906943923,-1.570653633070838,0.03636524477700429,0.004402334137154101,0.7070103268457913,-0.7069660419591527,0.011301142653536463,0.014411711374473469
-0.6168711821185511,-2.160023351708883,-1.7629281282424927,-0.9272546929172059,0.6274281740188599,1.5368820428848267,-16.396288772776025,233.08406326798777,1079.0944237879633,-1.5706949372733623,0.03607612521733153,0.00018744246541082242,0.7070263895272915,-0.7069570986408994,0.012688534441163631,0.012819761580451566
-0.6169751326190394,-2.1611324749388636,-1.743486762046814,-0.947616235618927,0.36240047216415405,1.5376148223876953,-16.084386359383377,233.0847185372271,1079.088851684513,-1.5707377846073947,0.03608598676222791,-0.0044413244929243055,0.7070389655351947,-0.7069409160661766,0.01432791520420935,0.011187191440994143
-0.6185429731952112,-2.161527296105856,-1.7089930772781372,-1.0482915800860901,0.1302500218153,1.6070607900619507,-15.801734173035426,233.08391098638847,1079.082330406938,-1.570772672238531,0.03844640268694443,-0.008521533396379104,0.7070359918852939,-0.7069034443379053,0.016604271891615386,0.010579447855819777
-0.620394531880514,-2.1565972767271937,-1.6822993755340576,-1.1827338498881836,0.05279991403222084,1.7297731637954712,-15.575952273281494,233.08227330759013,1079.0790522876762,-1.57078492243888,0.04255477161274095,-0.009905980176593464,0.7070165969371319,-0.706859507345093,0.018545615657799122,0.011542472489153023
-0.6246450583087366,-2.110441347161764,-1.65277898311615,-1.2590899628451844,0.03863660991191864,1.7638256549835205,-14.916277792049197,233.07644421547735,1079.0903967769818,-1.5707868853323634,0.044772112244161444,-0.010227420262374333,0.7070046436252988,-0.7068360902583306,0.01944287807173789,0.012212693923486765
-0.6266196409808558,-2.025419851342672,-1.5894683599472046,-1.36467760921035,0.027771804481744766,1.7401752471923828,-13.889074323690988,233.06582239738043,1079.1108113801845,-1.5707884617936676,0.04658111432510664,-0.010451563912745468,0.7069941866502383,-0.7068165173084003,0.020161414261113494,0.012772951020952376
-0.627293888722555,-1.9554459057249964,-1.5090526342391968,-1.4782602426460763,0.004720425698906183,1.721866488456726,-13.219601532655684,233.05869730644602,1079.1245834358904,-1.5707948414136956,0.048061715531490634,-0.010865898763202684,0.7069850218214675,-0.7067993529878162,0.020831053334384626,0.013149933577156674
-0.6273773352252405,-1.9264432392516078,-1.4619207382202148,-1.5285909225097676,-0.0011709372149866226,1.6985909938812256,-13.062093574073913,233.05699584392738,1079.129672943406,-1.5707967067549862,0.04821750290536566,-0.010970251651218205,0.7069840241964417,-0.7067972968961594,0.020922974442584064,0.013168134710831916
-0.627425495778219,-1.8850494823851527,-1.3877928256988525,-1.628610750237936,-0.0017774740802209976,1.663955569267273,-12.860982552156715,233.05480655891114,1079.135736967364,-1.570796940055975,0.048787357219494065,-0.010981687347202005,0.7069802375279416,-0.7067912683532255,0.021128399024258067,0.013365533257065333
-0.6293357054339808,-1.8716660938658656,-1.3593075275421143,-1.6780172787108363,-0.0005529562579553726,1.6600021123886108,-12.799814196349647,233.05464869985326,1079.1369251006436,-1.5707965233640293,0.049317084936006346,-0.01099363876059617,0.7069769009171202,-0.7067853727259427,0.021319827994576716,0.013548557286908165
